LUT/ACROS.cube
TITLE "ACROS"
LUT_3D_SIZE 5
# Apple Log/Rec2020 -> LA - :FLog2C_to_ACROS/LA - :FLog2C_to_ACROS, CineEI Shift 0.00, Black Level -0.01% IRE, Input 109% -> Output 100% - Created with LUTCalc v4.09 by Ben Turley February 2025
0.00000000 0.00000000 0.00000000
0.48155743 0.48155743 0.48155743
0.79656265 0.79656265 0.79656265
0.55892792 0.55892792 0.55892792
0.55892792 0.55892792 0.55892792
0.17760502 0.17760502 0.17760502
0.03205477 0.03205477 0.03205477
0.37931128 0.37931128 0.37931128
0.55892792 0.55892792 0.55892792
0.55892792 0.55892792 0.55892792
0.63681762 0.63681762 0.63681762
0.27240953 0.27240953 0.27240953
0.38562219 0.38562219 0.38562219
0.63579275 0.63579275 0.63579275
0.58708367 0.58708367 0.58708367
0.70770198 0.70770198 0.70770198
0.66494785 0.66494785 0.66494785
0.71319142 0.71319142 0.71319142
0.79273318 0.79273318 0.79273318
0.74512171 0.74512171 0.74512171
0.50918978 0.50918978 0.50918978
0.70133883 0.70133883 0.70133883
0.71141984 0.71141984 0.71141984
0.82163923 0.82163923 0.82163923
0.88564596 0.88564596 0.88564596
0.00063651 0.00063651 0.00063651
0.45134830 0.45134830 0.45134830
0.79072319 0.79072319 0.79072319
0.55892792 0.55892792 0.55892792
0.55892792 0.55892792 0.55892792
0.43859203 0.43859203 0.43859203
0.05202533 0.05202533 0.05202533
0.27954043 0.27954043 0.27954043
0.55892792 0.55892792 0.55892792
0.55892792 0.55892792 0.55892792
0.80828150 0.80828150 0.80828150
0.38303232 0.38303232 0.38303232
0.40171971 0.40171971 0.40171971
0.66177730 0.66177730 0.66177730
0.61240996 0.61240996 0.61240996
0.77870530 0.77870530 0.77870530
0.70674259 0.70674259 0.70674259
0.71469793 0.71469793 0.71469793
0.83502806 0.83502806 0.83502806
0.78509715 0.78509715 0.78509715
0.81406410 0.81406410 0.81406410
0.74232565 0.74232565 0.74232565
0.70481383 0.70481383 0.70481383
0.79664434 0.79664434 0.79664434
0.88574012 0.88574012 0.88574012
0.02513459 0.02513459 0.02513459
0.22093622 0.22093622 0.22093622
0.76467465 0.76467465 0.76467465
0.55436435 0.55436435 0.55436435
0.55892792 0.55892792 0.55892792
0.48028720 0.48028720 0.48028720
0.07754841 0.07754841 0.07754841
0.28137229 0.28137229 0.28137229
0.56403374 0.56403374 0.56403374
0.55948772 0.55948772 0.55948772
0.81588162 0.81588162 0.81588162
0.48810687 0.48810687 0.48810687
0.47808988 0.47808988 0.47808988
0.68391771 0.68391771 0.68391771
0.63301243 0.63301243 0.63301243
0.81060786 0.81060786 0.81060786
0.77014708 0.77014708 0.77014708
0.77586388 0.77586388 0.77586388
0.88225274 0.88225274 0.88225274
0.82371856 0.82371856 0.82371856
0.80317837 0.80317837 0.80317837
0.79198425 0.79198425 0.79198425
0.77512516 0.77512516 0.77512516
0.82585006 0.82585006 0.82585006
0.91283885 0.91283885 0.91283885
0.06176816 0.06176816 0.06176816
0.21635143 0.21635143 0.21635143
0.74040894 0.74040894 0.74040894
0.57272013 0.57272013 0.57272013
0.55541739 0.55541739 0.55541739
0.19661160 0.19661160 0.19661160
0.10912468 0.10912468 0.10912468
0.29414168 0.29414168 0.29414168
0.55518565 0.55518565 0.55518565
0.56438992 0.56438992 0.56438992
0.65262371 0.65262371 0.65262371
0.50806075 0.50806075 0.50806075
0.52826602 0.52826602 0.52826602
0.68164849 0.68164849 0.68164849
0.64535572 0.64535572 0.64535572
0.81298112 0.81298112 0.81298112
0.78187787 0.78187787 0.78187787
0.77277423 0.77277423 0.77277423
0.88532689 0.88532689 0.88532689
0.84437904 0.84437904 0.84437904
0.79851996 0.79851996 0.79851996
0.79851996 0.79851996 0.79851996
0.79961473 0.79961473 0.79961473
0.86323752 0.86323752 0.86323752
0.96619401 0.96619401 0.96619401
0.13209761 0.13209761 0.13209761
0.38828646 0.38828646 0.38828646
0.46254879 0.46254879 0.46254879
0.63624686 0.63624686 0.63624686
0.59476066 0.59476066 0.59476066
0.14388442 0.14388442 0.14388442
0.12730594 0.12730594 0.12730594
0.33007511 0.33007511 0.33007511
0.46390154 0.46390154 0.46390154
0.52354000 0.52354000 0.52354000
0.78530249 0.78530249 0.78530249
0.31671695 0.31671695 0.31671695
0.31344216 0.31344216 0.31344216
0.57062137 0.57062137 0.57062137
0.59839590 0.59839590 0.59839590
0.80261039 0.80261039 0.80261039
0.77923221 0.77923221 0.77923221
0.70324303 0.70324303 0.70324303
0.77874898 0.77874898 0.77874898
0.81471845 0.81471845 0.81471845
0.79851996 0.79851996 0.79851996
0.79851996 0.79851996 0.79851996
0.79851996 0.79851996 0.79851996
0.85793973 0.85793973 0.85793973
0.99514594 0.99514594 0.99514594
