LUT/ACROS.cube
TITLE "ACROS"
LUT_3D_SIZE 9
# Apple Log/Rec2020 -> LA - :FLog2C_to_ACROS/LA - :FLog2C_to_ACROS, CineEI Shift 0.00, Black Level -0.01% IRE, Input 109% -> Output 100% - Created with LUTCalc v4.09 by Ben Turley February 2025
0.00000000 0.00000000 0.00000000
0.02604777 0.02604777 0.02604777
0.48155743 0.48155743 0.48155743
0.69134132 0.69134132 0.69134132
0.79656265 0.79656265 0.79656265
0.55892792 0.55892792 0.55892792
0.55892792 0.55892792 0.55892792
0.55892792 0.55892792 0.55892792
0.55892792 0.55892792 0.55892792
0.00000000 0.00000000 0.00000000
0.04940794 0.04940794 0.04940794
0.08495486 0.08495486 0.08495486
0.26394408 0.26394408 0.26394408
0.52103692 0.52103692 0.52103692
0.55892792 0.55892792 0.55892792
0.55892792 0.55892792 0.55892792
0.55892792 0.55892792 0.55892792
0.55892792 0.55892792 0.55892792
0.17760502 0.17760502 0.17760502
0.04701067 0.04701067 0.04701067
0.03205477 0.03205477 0.03205477
0.15884385 0.15884385 0.15884385
0.37931128 0.37931128 0.37931128
0.58330217 0.58330217 0.58330217
0.55892792 0.55892792 0.55892792
0.55892792 0.55892792 0.55892792
0.55892792 0.55892792 0.55892792
0.38620872 0.38620872 0.38620872
0.15073183 0.15073183 0.15073183
0.09550523 0.09550523 0.09550523
0.15771393 0.15771393 0.15771393
0.33484710 0.33484710 0.33484710
0.55795001 0.55795001 0.55795001
0.56061183 0.56061183 0.56061183
0.55545601 0.55545601 0.55545601
0.55892792 0.55892792 0.55892792
0.63681762 0.63681762 0.63681762
0.37287297 0.37287297 0.37287297
0.27240953 0.27240953 0.27240953
0.28526775 0.28526775 0.28526775
0.38562219 0.38562219 0.38562219
0.58163857 0.58163857 0.58163857
0.63579275 0.63579275 0.63579275
0.60453254 0.60453254 0.60453254
0.58708367 0.58708367 0.58708367
0.74834468 0.74834468 0.74834468
0.60991867 0.60991867 0.60991867
0.51885742 0.51885742 0.51885742
0.49258038 0.49258038 0.49258038
0.53940183 0.53940183 0.53940183
0.64215180 0.64215180 0.64215180
0.70746986 0.70746986 0.70746986
0.68855037 0.68855037 0.68855037
0.64686009 0.64686009 0.64686009
0.70770198 0.70770198 0.70770198
0.68222767 0.68222767 0.68222767
0.66494785 0.66494785 0.66494785
0.66638144 0.66638144 0.66638144
0.71319142 0.71319142 0.71319142
0.76688091 0.76688091 0.76688091
0.79273318 0.79273318 0.79273318
0.77074783 0.77074783 0.77074783
0.74512171 0.74512171 0.74512171
0.69340069 0.69340069 0.69340069
0.69862567 0.69862567 0.69862567
0.70168618 0.70168618 0.70168618
0.69355257 0.69355257 0.69355257
0.72185498 0.72185498 0.72185498
0.79002317 0.79002317 0.79002317
0.87932808 0.87932808 0.87932808
0.86174568 0.86174568 0.86174568
0.83267579 0.83267579 0.83267579
0.50918978 0.50918978 0.50918978
0.68408249 0.68408249 0.68408249
0.70133883 0.70133883 0.70133883
0.70197156 0.70197156 0.70197156
0.71141984 0.71141984 0.71141984
0.75259185 0.75259185 0.75259185
0.82163923 0.82163923 0.82163923
0.88895724 0.88895724 0.88895724
0.88564596 0.88564596 0.88564596
0.00000000 0.00000000 0.00000000
0.05812574 0.05812574 0.05812574
0.50785451 0.50785451 0.50785451
0.62027982 0.62027982 0.62027982
0.78128831 0.78128831 0.78128831
0.55892792 0.55892792 0.55892792
0.55892792 0.55892792 0.55892792
0.55892792 0.55892792 0.55892792
0.55892792 0.55892792 0.55892792
0.00000000 0.00000000 0.00000000
0.00000000 0.00000000 0.00000000
0.05062746 0.05062746 0.05062746
0.19650577 0.19650577 0.19650577
0.44875572 0.44875572 0.44875572
0.55892792 0.55892792 0.55892792
0.55892792 0.55892792 0.55892792
0.55892792 0.55892792 0.55892792
0.55892792 0.55892792 0.55892792
0.29609668 0.29609668 0.29609668
0.05197216 0.05197216 0.05197216
0.04450585 0.04450585 0.04450585
0.11449182 0.11449182 0.11449182
0.30009031 0.30009031 0.30009031
0.54065034 0.54065034 0.54065034
0.55892792 0.55892792 0.55892792
0.55892792 0.55892792 0.55892792
0.55892792 0.55892792 0.55892792
0.54908677 0.54908677 0.54908677
0.19993361 0.19993361 0.19993361
0.12454221 0.12454221 0.12454221
0.15328489 0.15328489 0.15328489
0.29270768 0.29270768 0.29270768
0.52125102 0.52125102 0.52125102
0.57964581 0.57964581 0.57964581
0.56385459 0.56385459 0.56385459
0.55892792 0.55892792 0.55892792
0.75779981 0.75779981 0.75779981
0.43694578 0.43694578 0.43694578
0.32888951 0.32888951 0.32888951
0.31005815 0.31005815 0.31005815
0.38720525 0.38720525 0.38720525
0.55504151 0.55504151 0.55504151
0.65447347 0.65447347 0.65447347
0.63015279 0.63015279 0.63015279
0.60469405 0.60469405 0.60469405
0.77963578 0.77963578 0.77963578
0.64924577 0.64924577 0.64924577
0.57441939 0.57441939 0.57441939
0.52647408 0.52647408 0.52647408
0.56068109 0.56068109 0.56068109
0.64796808 0.64796808 0.64796808
0.72589748 0.72589748 0.72589748
0.71412758 0.71412758 0.71412758
0.68652565 0.68652565 0.68652565
0.72685378 0.72685378 0.72685378
0.69489397 0.69489397 0.69489397
0.68308920 0.68308920 0.68308920
0.67159569 0.67159569 0.67159569
0.71065356 0.71065356 0.71065356
0.77035254 0.77035254 0.77035254
0.82568474 0.82568474 0.82568474
0.79916902 0.79916902 0.79916902
0.77345754 0.77345754 0.77345754
0.70994295 0.70994295 0.70994295
0.70263030 0.70263030 0.70263030
0.70195493 0.70195493 0.70195493
0.69988836 0.69988836 0.69988836
0.71173183 0.71173183 0.71173183
0.77224915 0.77224915 0.77224915
0.85318879 0.85318879 0.85318879
0.87578425 0.87578425 0.87578425
0.85306084 0.85306084 0.85306084
0.80351101 0.80351101 0.80351101
0.71092123 0.71092123 0.71092123
0.70258147 0.70258147 0.70258147
0.70197156 0.70197156 0.70197156
0.70387176 0.70387176 0.70387176
0.73938179 0.73938179 0.73938179
0.80410300 0.80410300 0.80410300
0.87774580 0.87774580 0.87774580
0.88574012 0.88574012 0.88574012
0.00063651 0.00063651 0.00063651
0.00000000 0.00000000 0.00000000
0.45134830 0.45134830 0.45134830
0.58267041 0.58267041 0.58267041
0.79072319 0.79072319 0.79072319
0.55892792 0.55892792 0.55892792
0.55892792 0.55892792 0.55892792
0.55892792 0.55892792 0.55892792
0.55892792 0.55892792 0.55892792
0.01821905 0.01821905 0.01821905
0.00465197 0.00465197 0.00465197
0.04294600 0.04294600 0.04294600
0.17537736 0.17537736 0.17537736
0.42409444 0.42409444 0.42409444
0.55892792 0.55892792 0.55892792
0.55892792 0.55892792 0.55892792
0.55892792 0.55892792 0.55892792
0.55892792 0.55892792 0.55892792
0.43859203 0.43859203 0.43859203
0.07071934 0.07071934 0.07071934
0.05202533 0.05202533 0.05202533
0.11173247 0.11173247 0.11173247
0.27954043 0.27954043 0.27954043
0.52460818 0.52460818 0.52460818
0.55892792 0.55892792 0.55892792
0.55892792 0.55892792 0.55892792
0.55892792 0.55892792 0.55892792
0.63529506 0.63529506 0.63529506
0.25179220 0.25179220 0.25179220
0.15190760 0.15190760 0.15190760
0.16665291 0.16665291 0.16665291
0.29176002 0.29176002 0.29176002
0.51292684 0.51292684 0.51292684
0.58585995 0.58585995 0.58585995
0.56693989 0.56693989 0.56693989
0.55893738 0.55893738 0.55893738
0.80828150 0.80828150 0.80828150
0.50833276 0.50833276 0.50833276
0.38303232 0.38303232 0.38303232
0.34109435 0.34109435 0.34109435
0.40171971 0.40171971 0.40171971
0.55656784 0.55656784 0.55656784
0.66177730 0.66177730 0.66177730
0.63775725 0.63775725 0.63775725
0.61240996 0.61240996 0.61240996
0.81022433 0.81022433 0.81022433
0.70627926 0.70627926 0.70627926
0.62649609 0.62649609 0.62649609
0.56191591 0.56191591 0.56191591
0.58133812 0.58133812 0.58133812
0.65679709 0.65679709 0.65679709
0.73915378 0.73915378 0.73915378
0.72563207 0.72563207 0.72563207
0.69508934 0.69508934 0.69508934
0.77870530 0.77870530 0.77870530
0.72762172 0.72762172 0.72762172
0.70674259 0.70674259 0.70674259
0.68789100 0.68789100 0.68789100
0.71469793 0.71469793 0.71469793
0.77265732 0.77265732 0.77265732
0.83502806 0.83502806 0.83502806
0.81579546 0.81579546 0.81579546
0.78509715 0.78509715 0.78509715
0.81788718 0.81788718 0.81788718
0.74461770 0.74461770 0.74461770
0.71292150 0.71292150 0.71292150
0.70300952 0.70300952 0.70300952
0.70958429 0.70958429 0.70958429
0.76529022 0.76529022 0.76529022
0.84495311 0.84495311 0.84495311
0.88146182 0.88146182 0.88146182
0.85918539 0.85918539 0.85918539
0.81406410 0.81406410 0.81406410
0.76696065 0.76696065 0.76696065
0.74232565 0.74232565 0.74232565
0.71912205 0.71912205 0.71912205
0.70481383 0.70481383 0.70481383
0.73565922 0.73565922 0.73565922
0.79664434 0.79664434 0.79664434
0.87078539 0.87078539 0.87078539
0.88574012 0.88574012 0.88574012
0.00632250 0.00632250 0.00632250
0.00000000 0.00000000 0.00000000
0.33761321 0.33761321 0.33761321
0.53651459 0.53651459 0.53651459
0.77602355 0.77602355 0.77602355
0.55892792 0.55892792 0.55892792
0.55892792 0.55892792 0.55892792
0.55892792 0.55892792 0.55892792
0.55892792 0.55892792 0.55892792
0.06165918 0.06165918 0.06165918
0.01392764 0.01392764 0.01392764
0.04470430 0.04470430 0.04470430
0.16753299 0.16753299 0.16753299
0.40639246 0.40639246 0.40639246
0.55892792 0.55892792 0.55892792
0.55892792 0.55892792 0.55892792
0.55892792 0.55892792 0.55892792
0.55892792 0.55892792 0.55892792
0.43290598 0.43290598 0.43290598
0.09336449 0.09336449 0.09336449
0.05958398 0.05958398 0.05958398
0.11823650 0.11823650 0.11823650
0.27670553 0.27670553 0.27670553
0.51629019 0.51629019 0.51629019
0.55963578 0.55963578 0.55963578
0.55892792 0.55892792 0.55892792
0.55892792 0.55892792 0.55892792
0.67835652 0.67835652 0.67835652
0.30369969 0.30369969 0.30369969
0.19036199 0.19036199 0.19036199
0.19341772 0.19341772 0.19341772
0.30430730 0.30430730 0.30430730
0.51650889 0.51650889 0.51650889
0.59507523 0.59507523 0.59507523
0.57176647 0.57176647 0.57176647
0.55897523 0.55897523 0.55897523
0.83043886 0.83043886 0.83043886
0.55635270 0.55635270 0.55635270
0.43827056 0.43827056 0.43827056
0.38828449 0.38828449 0.38828449
0.43580678 0.43580678 0.43580678
0.57205531 0.57205531 0.57205531
0.67458492 0.67458492 0.67458492
0.64959554 0.64959554 0.64959554
0.61955345 0.61955345 0.61955345
0.83158154 0.83158154 0.83158154
0.73559453 0.73559453 0.73559453
0.67120423 0.67120423 0.67120423
0.60917093 0.60917093 0.60917093
0.62475772 0.62475772 0.62475772
0.68620769 0.68620769 0.68620769
0.76144364 0.76144364 0.76144364
0.74346813 0.74346813 0.74346813
0.70978149 0.70978149 0.70978149
0.79940488 0.79940488 0.79940488
0.76241244 0.76241244 0.76241244
0.74523608 0.74523608 0.74523608
0.72965028 0.72965028 0.72965028
0.75112410 0.75112410 0.75112410
0.80378099 0.80378099 0.80378099
0.85901204 0.85901204 0.85901204
0.83730881 0.83730881 0.83730881
0.80470579 0.80470579 0.80470579
0.81488753 0.81488753 0.81488753
0.77587375 0.77587375 0.77587375
0.75687946 0.75687946 0.75687946
0.73784652 0.73784652 0.73784652
0.73157895 0.73157895 0.73157895
0.77739324 0.77739324 0.77739324
0.85230533 0.85230533 0.85230533
0.89980849 0.89980849 0.89980849
0.87775118 0.87775118 0.87775118
0.81622133 0.81622133 0.81622133
0.78741536 0.78741536 0.78741536
0.77459823 0.77459823 0.77459823
0.76115750 0.76115750 0.76115750
0.74245791 0.74245791 0.74245791
0.74922920 0.74922920 0.74922920
0.79312716 0.79312716 0.79312716
0.86558103 0.86558103 0.86558103
0.88582659 0.88582659 0.88582659
0.02513459 0.02513459 0.02513459
0.00000000 0.00000000 0.00000000
0.22093622 0.22093622 0.22093622
0.50045736 0.50045736 0.50045736
0.76467465 0.76467465 0.76467465
0.54983713 0.54983713 0.54983713
0.55436435 0.55436435 0.55436435
0.55892792 0.55892792 0.55892792
0.55892792 0.55892792 0.55892792
0.11220366 0.11220366 0.11220366
0.03310728 0.03310728 0.03310728
0.05919713 0.05919713 0.05919713
0.16787986 0.16787986 0.16787986
0.39509869 0.39509869 0.39509869
0.56289226 0.56289226 0.56289226
0.56036894 0.56036894 0.56036894
0.55899502 0.55899502 0.55899502
0.55892792 0.55892792 0.55892792
0.48028720 0.48028720 0.48028720
0.11916845 0.11916845 0.11916845
0.07754841 0.07754841 0.07754841
0.13507617 0.13507617 0.13507617
0.28137229 0.28137229 0.28137229
0.50741734 0.50741734 0.50741734
0.56403374 0.56403374 0.56403374
0.56190334 0.56190334 0.56190334
0.55948772 0.55948772 0.55948772
0.69882597 0.69882597 0.69882597
0.35291759 0.35291759 0.35291759
0.23388299 0.23388299 0.23388299
0.22740005 0.22740005 0.22740005
0.32725093 0.32725093 0.32725093
0.51967030 0.51967030 0.51967030
0.60503759 0.60503759 0.60503759
0.58126096 0.58126096 0.58126096
0.56419298 0.56419298 0.56419298
0.81588162 0.81588162 0.81588162
0.59336124 0.59336124 0.59336124
0.48810687 0.48810687 0.48810687
0.43818071 0.43818071 0.43818071
0.47808988 0.47808988 0.47808988
0.59290238 0.59290238 0.59290238
0.68391771 0.68391771 0.68391771
0.66180842 0.66180842 0.66180842
0.63301243 0.63301243 0.63301243
0.83243363 0.83243363 0.83243363
0.75169508 0.75169508 0.75169508
0.70048805 0.70048805 0.70048805
0.64907433 0.64907433 0.64907433
0.66348808 0.66348808 0.66348808
0.71757665 0.71757665 0.71757665
0.78151585 0.78151585 0.78151585
0.76081673 0.76081673 0.76081673
0.72606480 0.72606480 0.72606480
0.81060786 0.81060786 0.81060786
0.78320303 0.78320303 0.78320303
0.77014708 0.77014708 0.77014708
0.75809696 0.75809696 0.75809696
0.77586388 0.77586388 0.77586388
0.82768466 0.82768466 0.82768466
0.88225274 0.88225274 0.88225274
0.85587011 0.85587011 0.85587011
0.82371856 0.82371856 0.82371856
0.81620066 0.81620066 0.81620066
0.79268376 0.79268376 0.79268376
0.78239562 0.78239562 0.78239562
0.77218041 0.77218041 0.77218041
0.76738889 0.76738889 0.76738889
0.80842109 0.80842109 0.80842109
0.88104091 0.88104091 0.88104091
0.92864873 0.92864873 0.92864873
0.90204476 0.90204476 0.90204476
0.80317837 0.80317837 0.80317837
0.79895317 0.79895317 0.79895317
0.79198425 0.79198425 0.79198425
0.78492176 0.78492176 0.78492176
0.77512516 0.77512516 0.77512516
0.78669791 0.78669791 0.78669791
0.82585006 0.82585006 0.82585006
0.88643602 0.88643602 0.88643602
0.91283885 0.91283885 0.91283885
0.02938529 0.02938529 0.02938529
0.00419506 0.00419506 0.00419506
0.21989592 0.21989592 0.21989592
0.43379962 0.43379962 0.43379962
0.75521014 0.75521014 0.75521014
0.55621567 0.55621567 0.55621567
0.55511817 0.55511817 0.55511817
0.55150710 0.55150710 0.55150710
0.55474943 0.55474943 0.55474943
0.16138311 0.16138311 0.16138311
0.06224116 0.06224116 0.06224116
0.08540350 0.08540350 0.08540350
0.18269675 0.18269675 0.18269675
0.38548598 0.38548598 0.38548598
0.56530163 0.56530163 0.56530163
0.56470566 0.56470566 0.56470566
0.56300244 0.56300244 0.56300244
0.56012053 0.56012053 0.56012053
0.40358779 0.40358779 0.40358779
0.13072557 0.13072557 0.13072557
0.08898836 0.08898836 0.08898836
0.15157380 0.15157380 0.15157380
0.28746003 0.28746003 0.28746003
0.48963760 0.48963760 0.48963760
0.56439464 0.56439464 0.56439464
0.56489484 0.56489484 0.56489484
0.56411800 0.56411800 0.56411800
0.66855671 0.66855671 0.66855671
0.37681500 0.37681500 0.37681500
0.26912018 0.26912018 0.26912018
0.26129396 0.26129396 0.26129396
0.34884452 0.34884452 0.34884452
0.51825455 0.51825455 0.51825455
0.60980957 0.60980957 0.60980957
0.58730216 0.58730216 0.58730216
0.56951396 0.56951396 0.56951396
0.75905267 0.75905267 0.75905267
0.60100436 0.60100436 0.60100436
0.52087751 0.52087751 0.52087751
0.47602460 0.47602460 0.47602460
0.51578487 0.51578487 0.51578487
0.60891847 0.60891847 0.60891847
0.68872520 0.68872520 0.68872520
0.67052888 0.67052888 0.67052888
0.64232822 0.64232822 0.64232822
0.81733153 0.81733153 0.81733153
0.74279724 0.74279724 0.74279724
0.70552592 0.70552592 0.70552592
0.66760049 0.66760049 0.66760049
0.68951456 0.68951456 0.68951456
0.74075589 0.74075589 0.74075589
0.79435291 0.79435291 0.79435291
0.77201410 0.77201410 0.77201410
0.73808779 0.73808779 0.73808779
0.81419478 0.81419478 0.81419478
0.79579978 0.79579978 0.79579978
0.78382480 0.78382480 0.78382480
0.77381074 0.77381074 0.77381074
0.78566579 0.78566579 0.78566579
0.83650370 0.83650370 0.83650370
0.89327181 0.89327181 0.89327181
0.87095493 0.87095493 0.87095493
0.83854696 0.83854696 0.83854696
0.78554427 0.78554427 0.78554427
0.79974377 0.79974377 0.79974377
0.79688735 0.79688735 0.79688735
0.79054357 0.79054357 0.79054357
0.78666798 0.78666798 0.78666798
0.82427652 0.82427652 0.82427652
0.89622548 0.89622548 0.89622548
0.95081114 0.95081114 0.95081114
0.91999444 0.91999444 0.91999444
0.79851996 0.79851996 0.79851996
0.79851996 0.79851996 0.79851996
0.79984882 0.79984882 0.79984882
0.79815297 0.79815297 0.79815297
0.79238743 0.79238743 0.79238743
0.80791181 0.80791181 0.80791181
0.85048229 0.85048229 0.85048229
0.91181907 0.91181907 0.91181907
0.94260008 0.94260008 0.94260008
0.06176816 0.06176816 0.06176816
0.03078889 0.03078889 0.03078889
0.21635143 0.21635143 0.21635143
0.36307254 0.36307254 0.36307254
0.74040894 0.74040894 0.74040894
0.58532058 0.58532058 0.58532058
0.57272013 0.57272013 0.57272013
0.55909985 0.55909985 0.55909985
0.55541739 0.55541739 0.55541739
0.16393184 0.16393184 0.16393184
0.09355389 0.09355389 0.09355389
0.11879821 0.11879821 0.11879821
0.21734154 0.21734154 0.21734154
0.36985296 0.36985296 0.36985296
0.55774190 0.55774190 0.55774190
0.56338399 0.56338399 0.56338399
0.56534768 0.56534768 0.56534768
0.56455504 0.56455504 0.56455504
0.19661160 0.19661160 0.19661160
0.12076850 0.12076850 0.12076850
0.10912468 0.10912468 0.10912468
0.18424530 0.18424530 0.18424530
0.29414168 0.29414168 0.29414168
0.46142561 0.46142561 0.46142561
0.55518565 0.55518565 0.55518565
0.56120527 0.56120527 0.56120527
0.56438992 0.56438992 0.56438992
0.51594936 0.51594936 0.51594936
0.33664380 0.33664380 0.33664380
0.25642462 0.25642462 0.25642462
0.26072478 0.26072478 0.26072478
0.34918042 0.34918042 0.34918042
0.50011239 0.50011239 0.50011239
0.60291767 0.60291767 0.60291767
0.58528122 0.58528122 0.58528122
0.56845922 0.56845922 0.56845922
0.65262371 0.65262371 0.65262371
0.55479928 0.55479928 0.55479928
0.50806075 0.50806075 0.50806075
0.48159637 0.48159637 0.48159637
0.52826602 0.52826602 0.52826602
0.61200059 0.61200059 0.61200059
0.68164849 0.68164849 0.68164849
0.67089514 0.67089514 0.67089514
0.64535572 0.64535572 0.64535572
0.77984970 0.77984970 0.77984970
0.70054144 0.70054144 0.70054144
0.67464956 0.67464956 0.67464956
0.65165230 0.65165230 0.65165230
0.68354742 0.68354742 0.68354742
0.74284242 0.74284242 0.74284242
0.79486251 0.79486251 0.79486251
0.77419152 0.77419152 0.77419152
0.74406130 0.74406130 0.74406130
0.81298112 0.81298112 0.81298112
0.79601398 0.79601398 0.79601398
0.78187787 0.78187787 0.78187787
0.76769409 0.76769409 0.76769409
0.77277423 0.77277423 0.77277423
0.82433498 0.82433498 0.82433498
0.88532689 0.88532689 0.88532689
0.87626518 0.87626518 0.87626518
0.84437904 0.84437904 0.84437904
0.79851996 0.79851996 0.79851996
0.79851996 0.79851996 0.79851996
0.79855258 0.79855258 0.79855258
0.79977691 0.79977691 0.79977691
0.79848139 0.79848139 0.79848139
0.83166693 0.83166693 0.83166693
0.90015126 0.90015126 0.90015126
0.95860326 0.95860326 0.95860326
0.93048589 0.93048589 0.93048589
0.79851996 0.79851996 0.79851996
0.79851996 0.79851996 0.79851996
0.79851996 0.79851996 0.79851996
0.79853292 0.79853292 0.79853292
0.79961473 0.79961473 0.79961473
0.81789133 0.81789133 0.81789133
0.86323752 0.86323752 0.86323752
0.92679903 0.92679903 0.92679903
0.96619401 0.96619401 0.96619401
0.12255783 0.12255783 0.12255783
0.08221361 0.08221361 0.08221361
0.28241110 0.28241110 0.28241110
0.38535772 0.38535772 0.38535772
0.63303241 0.63303241 0.63303241
0.60589216 0.60589216 0.60589216
0.59986068 0.59986068 0.59986068
0.58881164 0.58881164 0.58881164
0.57697108 0.57697108 0.57697108
0.13607050 0.13607050 0.13607050
0.11496236 0.11496236 0.11496236
0.15380503 0.15380503 0.15380503
0.25406598 0.25406598 0.25406598
0.36248015 0.36248015 0.36248015
0.52817638 0.52817638 0.52817638
0.55056250 0.55056250 0.55056250
0.55939055 0.55939055 0.55939055
0.56343696 0.56343696 0.56343696
0.14503376 0.14503376 0.14503376
0.12798638 0.12798638 0.12798638
0.12916653 0.12916653 0.12916653
0.21505252 0.21505252 0.21505252
0.32019253 0.32019253 0.32019253
0.41793239 0.41793239 0.41793239
0.52463042 0.52463042 0.52463042
0.54318727 0.54318727 0.54318727
0.55506429 0.55506429 0.55506429
0.26720561 0.26720561 0.26720561
0.18348488 0.18348488 0.18348488
0.15770531 0.15770531 0.15770531
0.19948948 0.19948948 0.19948948
0.30750467 0.30750467 0.30750467
0.44780279 0.44780279 0.44780279
0.57320328 0.57320328 0.57320328
0.56639531 0.56639531 0.56639531
0.55460501 0.55460501 0.55460501
0.73422859 0.73422859 0.73422859
0.46224783 0.46224783 0.46224783
0.42269344 0.42269344 0.42269344
0.40980814 0.40980814 0.40980814
0.47808656 0.47808656 0.47808656
0.57271623 0.57271623 0.57271623
0.65282733 0.65282733 0.65282733
0.65550527 0.65550527 0.65550527
0.63515697 0.63515697 0.63515697
0.85585295 0.85585295 0.85585295
0.68109979 0.68109979 0.68109979
0.60993296 0.60993296 0.60993296
0.58975257 0.58975257 0.58975257
0.62804364 0.62804364 0.62804364
0.70032702 0.70032702 0.70032702
0.77053020 0.77053020 0.77053020
0.76029706 0.76029706 0.76029706
0.73519819 0.73519819 0.73519819
0.80988044 0.80988044 0.80988044
0.79664763 0.79664763 0.79664763
0.77162365 0.77162365 0.77162365
0.73353109 0.73353109 0.73353109
0.72661800 0.72661800 0.72661800
0.78003409 0.78003409 0.78003409
0.85033338 0.85033338 0.85033338
0.86633312 0.86633312 0.86633312
0.83878945 0.83878945 0.83878945
0.79851996 0.79851996 0.79851996
0.79851996 0.79851996 0.79851996
0.79851996 0.79851996 0.79851996
0.79851996 0.79851996 0.79851996
0.79851690 0.79851690 0.79851690
0.82782892 0.82782892 0.82782892
0.88696691 0.88696691 0.88696691
0.94782092 0.94782092 0.94782092
0.93133403 0.93133403 0.93133403
0.79851996 0.79851996 0.79851996
0.79851996 0.79851996 0.79851996
0.79851996 0.79851996 0.79851996
0.79851996 0.79851996 0.79851996
0.79851996 0.79851996 0.79851996
0.81504719 0.81504719 0.81504719
0.86356342 0.86356342 0.86356342
0.93280441 0.93280441 0.93280441
0.98536071 0.98536071 0.98536071
0.13209761 0.13209761 0.13209761
0.11122960 0.11122960 0.11122960
0.38828646 0.38828646 0.38828646
0.42689494 0.42689494 0.42689494
0.46254879 0.46254879 0.46254879
0.71373409 0.71373409 0.71373409
0.63624686 0.63624686 0.63624686
0.60708745 0.60708745 0.60708745
0.59476066 0.59476066 0.59476066
0.13131802 0.13131802 0.13131802
0.11869678 0.11869678 0.11869678
0.16471224 0.16471224 0.16471224
0.27777891 0.27777891 0.27777891
0.37916614 0.37916614 0.37916614
0.46770102 0.46770102 0.46770102
0.51306703 0.51306703 0.51306703
0.53629568 0.53629568 0.53629568
0.55067789 0.55067789 0.55067789
0.14388442 0.14388442 0.14388442
0.12861866 0.12861866 0.12861866
0.12730594 0.12730594 0.12730594
0.21662591 0.21662591 0.21662591
0.33007511 0.33007511 0.33007511
0.40863084 0.40863084 0.40863084
0.46390154 0.46390154 0.46390154
0.49559577 0.49559577 0.49559577
0.52354000 0.52354000 0.52354000
0.55074058 0.55074058 0.55074058
0.13921903 0.13921903 0.13921903
0.13479099 0.13479099 0.13479099
0.17379692 0.17379692 0.17379692
0.28428406 0.28428406 0.28428406
0.38847622 0.38847622 0.38847622
0.49866413 0.49866413 0.49866413
0.51186060 0.51186060 0.51186060
0.51364349 0.51364349 0.51364349
0.78530249 0.78530249 0.78530249
0.46732423 0.46732423 0.46732423
0.31671695 0.31671695 0.31671695
0.23584913 0.23584913 0.23584913
0.31344216 0.31344216 0.31344216
0.43442642 0.43442642 0.43442642
0.57062137 0.57062137 0.57062137
0.60707826 0.60707826 0.60707826
0.59839590 0.59839590 0.59839590
0.85608816 0.85608816 0.85608816
0.69456568 0.69456568 0.69456568
0.61444403 0.61444403 0.61444403
0.54570215 0.54570215 0.54570215
0.52169077 0.52169077 0.52169077
0.59649207 0.59649207 0.59649207
0.68933225 0.68933225 0.68933225
0.71848630 0.71848630 0.71848630
0.70299275 0.70299275 0.70299275
0.80261039 0.80261039 0.80261039
0.79777187 0.79777187 0.79777187
0.77923221 0.77923221 0.77923221
0.74109122 0.74109122 0.74109122
0.70324303 0.70324303 0.70324303
0.71325779 0.71325779 0.71325779
0.77874898 0.77874898 0.77874898
0.83203305 0.83203305 0.83203305
0.81471845 0.81471845 0.81471845
0.79851996 0.79851996 0.79851996
0.79851996 0.79851996 0.79851996
0.79851996 0.79851996 0.79851996
0.79851996 0.79851996 0.79851996
0.79851320 0.79851320 0.79851320
0.81778646 0.81778646 0.81778646
0.85193274 0.85193274 0.85193274
0.90940259 0.90940259 0.90940259
0.91730293 0.91730293 0.91730293
0.79851996 0.79851996 0.79851996
0.79851996 0.79851996 0.79851996
0.79851996 0.79851996 0.79851996
0.79851996 0.79851996 0.79851996
0.79851996 0.79851996 0.79851996
0.81229704 0.81229704 0.81229704
0.85793973 0.85793973 0.85793973
0.92653995 0.92653995 0.92653995
0.99514594 0.99514594 0.99514594
