LUT/ACROS.cube
TITLE "ACROS"
LUT_3D_SIZE 33
# Apple Log/Rec2020 -> LA - :FLog2C_to_ACROS/LA - :FLog2C_to_ACROS, CineEI Shift 0.00, Black Level -0.01% IRE, Input 109% -> Output 100% - Created with LUTCalc v4.09 by Ben Turley February 2025
0.00000000 0.00000000 0.00000000
0.00000000 0.00000000 0.00000000
0.00000000 0.00000000 0.00000000
0.00000000 0.00000000 0.00000000
0.02604777 0.02604777 0.02604777
0.13961386 0.13961386 0.13961386
0.33662386 0.33662386 0.33662386
0.41804639 0.41804639 0.41804639
0.48155743 0.48155743 0.48155743
0.56523484 0.56523484 0.56523484
0.59546817 0.59546817 0.59546817
0.63771942 0.63771942 0.63771942
0.69134132 0.69134132 0.69134132
0.77368465 0.77368465 0.77368465
0.80696165 0.80696165 0.80696165
0.81611361 0.81611361 0.81611361
0.79656265 0.79656265 0.79656265
0.71409883 0.71409883 0.71409883
0.59443585 0.59443585 0.59443585
0.55892792 0.55892792 0.55892792
0.55892792 0.55892792 0.55892792
0.55892792 0.55892792 0.55892792
0.55892792 0.55892792 0.55892792
0.55892792 0.55892792 0.55892792
0.55892792 0.55892792 0.55892792
0.55892792 0.55892792 0.55892792
0.55892792 0.55892792 0.55892792
0.55892792 0.55892792 0.55892792
0.55892792 0.55892792 0.55892792
0.55892792 0.55892792 0.55892792
0.55892792 0.55892792 0.55892792
0.55892792 0.55892792 0.55892792
0.55892792 0.55892792 0.55892792
0.00000000 0.00000000 0.00000000
0.00000000 0.00000000 0.00000000
0.00000000 0.00000000 0.00000000
0.00000000 0.00000000 0.00000000
0.01519666 0.01519666 0.01519666
0.06091151 0.06091151 0.06091151
0.12317320 0.12317320 0.12317320
0.17382350 0.17382350 0.17382350
0.22707001 0.22707001 0.22707001
0.33826544 0.33826544 0.33826544
0.38889105 0.38889105 0.38889105
0.42955242 0.42955242 0.42955242
0.49021563 0.49021563 0.49021563
0.57713120 0.57713120 0.57713120
0.63041109 0.63041109 0.63041109
0.66294092 0.66294092 0.66294092
0.66942366 0.66942366 0.66942366
0.63179676 0.63179676 0.63179676
0.57188022 0.57188022 0.57188022
0.55892792 0.55892792 0.55892792
0.55892792 0.55892792 0.55892792
0.55892792 0.55892792 0.55892792
0.55892792 0.55892792 0.55892792
0.55892792 0.55892792 0.55892792
0.55892792 0.55892792 0.55892792
0.55892792 0.55892792 0.55892792
0.55892792 0.55892792 0.55892792
0.55892792 0.55892792 0.55892792
0.55892792 0.55892792 0.55892792
0.55892792 0.55892792 0.55892792
0.55892792 0.55892792 0.55892792
0.55892792 0.55892792 0.55892792
0.55892792 0.55892792 0.55892792
0.00000000 0.00000000 0.00000000
0.00000000 0.00000000 0.00000000
0.00000000 0.00000000 0.00000000
0.00000000 0.00000000 0.00000000
0.01165353 0.01165353 0.01165353
0.04124724 0.04124724 0.04124724
0.07765727 0.07765727 0.07765727
0.10628579 0.10628579 0.10628579
0.14357856 0.14357856 0.14357856
0.24651265 0.24651265 0.24651265
0.30275060 0.30275060 0.30275060
0.33995289 0.33995289 0.33995289
0.39788750 0.39788750 0.39788750
0.47876734 0.47876734 0.47876734
0.53640568 0.53640568 0.53640568
0.58070720 0.58070720 0.58070720
0.60570214 0.60570214 0.60570214
0.59396744 0.59396744 0.59396744
0.56246038 0.56246038 0.56246038
0.55892792 0.55892792 0.55892792
0.55892792 0.55892792 0.55892792
0.55892792 0.55892792 0.55892792
0.55892792 0.55892792 0.55892792
0.55892792 0.55892792 0.55892792
0.55892792 0.55892792 0.55892792
0.55892792 0.55892792 0.55892792
0.55892792 0.55892792 0.55892792
0.55892792 0.55892792 0.55892792
0.55892792 0.55892792 0.55892792
0.55892792 0.55892792 0.55892792
0.55892792 0.55892792 0.55892792
0.55892792 0.55892792 0.55892792
0.55892792 0.55892792 0.55892792
0.00000000 0.00000000 0.00000000
0.00000000 0.00000000 0.00000000
0.00000000 0.00000000 0.00000000
0.00000000 0.00000000 0.00000000
0.00880975 0.00880975 0.00880975
0.02910486 0.02910486 0.02910486
0.05385536 0.05385536 0.05385536
0.07712650 0.07712650 0.07712650
0.10756011 0.10756011 0.10756011
0.17952318 0.17952318 0.17952318
0.23650448 0.23650448 0.23650448
0.27302637 0.27302637 0.27302637
0.32930572 0.32930572 0.32930572
0.40072497 0.40072497 0.40072497
0.46498683 0.46498683 0.46498683
0.51840801 0.51840801 0.51840801
0.56017894 0.56017894 0.56017894
0.57535081 0.57535081 0.57535081
0.56250932 0.56250932 0.56250932
0.55892792 0.55892792 0.55892792
0.55892792 0.55892792 0.55892792
0.55892792 0.55892792 0.55892792
0.55892792 0.55892792 0.55892792
0.55892792 0.55892792 0.55892792
0.55892792 0.55892792 0.55892792
0.55892792 0.55892792 0.55892792
0.55892792 0.55892792 0.55892792
0.55892792 0.55892792 0.55892792
0.55892792 0.55892792 0.55892792
0.55892792 0.55892792 0.55892792
0.55892792 0.55892792 0.55892792
0.55892792 0.55892792 0.55892792
0.55892792 0.55892792 0.55892792
0.00000000 0.00000000 0.00000000
0.00000000 0.00000000 0.00000000
0.00000000 0.00000000 0.00000000
0.00000000 0.00000000 0.00000000
0.04940794 0.04940794 0.04940794
0.01262180 0.01262180 0.01262180
0.03297211 0.03297211 0.03297211
0.06192151 0.06192151 0.06192151
0.08495486 0.08495486 0.08495486
0.11466944 0.11466944 0.11466944
0.15890275 0.15890275 0.15890275
0.20543108 0.20543108 0.20543108
0.26394408 0.26394408 0.26394408
0.33451766 0.33451766 0.33451766
0.40608250 0.40608250 0.40608250
0.47063053 0.47063053 0.47063053
0.52103692 0.52103692 0.52103692
0.55553790 0.55553790 0.55553790
0.56823611 0.56823611 0.56823611
0.55892792 0.55892792 0.55892792
0.55892792 0.55892792 0.55892792
0.55892792 0.55892792 0.55892792
0.55892792 0.55892792 0.55892792
0.55892792 0.55892792 0.55892792
0.55892792 0.55892792 0.55892792
0.55892792 0.55892792 0.55892792
0.55892792 0.55892792 0.55892792
0.55892792 0.55892792 0.55892792
0.55892792 0.55892792 0.55892792
0.55892792 0.55892792 0.55892792
0.55892792 0.55892792 0.55892792
0.55892792 0.55892792 0.55892792
0.55892792 0.55892792 0.55892792
0.04936792 0.04936792 0.04936792
0.02466496 0.02466496 0.02466496
0.01617775 0.01617775 0.01617775
0.01078779 0.01078779 0.01078779
0.00318480 0.00318480 0.00318480
0.00013288 0.00013288 0.00013288
0.01669102 0.01669102 0.01669102
0.03249180 0.03249180 0.03249180
0.05421498 0.05421498 0.05421498
0.09697765 0.09697765 0.09697765
0.13727418 0.13727418 0.13727418
0.16687759 0.16687759 0.16687759
0.22078723 0.22078723 0.22078723
0.27683498 0.27683498 0.27683498
0.34266629 0.34266629 0.34266629
0.41586608 0.41586608 0.41586608
0.48797776 0.48797776 0.48797776
0.54358981 0.54358981 0.54358981
0.57758952 0.57758952 0.57758952
0.58598413 0.58598413 0.58598413
0.55892792 0.55892792 0.55892792
0.55892792 0.55892792 0.55892792
0.55892792 0.55892792 0.55892792
0.55892792 0.55892792 0.55892792
0.55892792 0.55892792 0.55892792
0.55892792 0.55892792 0.55892792
0.55892792 0.55892792 0.55892792
0.55892792 0.55892792 0.55892792
0.55892792 0.55892792 0.55892792
0.55892792 0.55892792 0.55892792
0.55892792 0.55892792 0.55892792
0.55892792 0.55892792 0.55892792
0.55892792 0.55892792 0.55892792
0.16534607 0.16534607 0.16534607
0.06512053 0.06512053 0.06512053
0.04289819 0.04289819 0.04289819
0.02899397 0.02899397 0.02899397
0.01112971 0.01112971 0.01112971
0.00000000 0.00000000 0.00000000
0.01332381 0.01332381 0.01332381
0.01995006 0.01995006 0.01995006
0.03620961 0.03620961 0.03620961
0.06110289 0.06110289 0.06110289
0.09981367 0.09981367 0.09981367
0.14980360 0.14980360 0.14980360
0.18895610 0.18895610 0.18895610
0.24338805 0.24338805 0.24338805
0.30265821 0.30265821 0.30265821
0.36649913 0.36649913 0.36649913
0.43604815 0.43604815 0.43604815
0.50263748 0.50263748 0.50263748
0.54666909 0.54666909 0.54666909
0.56966893 0.56966893 0.56966893
0.55909897 0.55909897 0.55909897
0.55893291 0.55893291 0.55893291
0.55892792 0.55892792 0.55892792
0.55892792 0.55892792 0.55892792
0.55892792 0.55892792 0.55892792
0.55892792 0.55892792 0.55892792
0.55892792 0.55892792 0.55892792
0.55892792 0.55892792 0.55892792
0.55892792 0.55892792 0.55892792
0.55892792 0.55892792 0.55892792
0.55892792 0.55892792 0.55892792
0.55892792 0.55892792 0.55892792
0.55892792 0.55892792 0.55892792
0.19372113 0.19372113 0.19372113
0.08506863 0.08506863 0.08506863
0.06099362 0.06099362 0.06099362
0.04659195 0.04659195 0.04659195
0.02814762 0.02814762 0.02814762
0.01085317 0.01085317 0.01085317
0.01397788 0.01397788 0.01397788
0.02189940 0.02189940 0.02189940
0.03487869 0.03487869 0.03487869
0.04836018 0.04836018 0.04836018
0.08929760 0.08929760 0.08929760
0.15076672 0.15076672 0.15076672
0.17618952 0.17618952 0.17618952
0.20870164 0.20870164 0.20870164
0.26241817 0.26241817 0.26241817
0.33295450 0.33295450 0.33295450
0.40714569 0.40714569 0.40714569
0.47452744 0.47452744 0.47452744
0.52343588 0.52343588 0.52343588
0.55509474 0.55509474 0.55509474
0.57103201 0.57103201 0.57103201
0.55939460 0.55939460 0.55939460
0.55892792 0.55892792 0.55892792
0.55892792 0.55892792 0.55892792
0.55892792 0.55892792 0.55892792
0.55892792 0.55892792 0.55892792
0.55892792 0.55892792 0.55892792
0.55892792 0.55892792 0.55892792
0.55892792 0.55892792 0.55892792
0.55892792 0.55892792 0.55892792
0.55892792 0.55892792 0.55892792
0.55892792 0.55892792 0.55892792
0.55892792 0.55892792 0.55892792
0.17760502 0.17760502 0.17760502
0.08429485 0.08429485 0.08429485
0.06244464 0.06244464 0.06244464
0.05280915 0.05280915 0.05280915
0.04701067 0.04701067 0.04701067
0.01815733 0.01815733 0.01815733
0.01241162 0.01241162 0.01241162
0.01797125 0.01797125 0.01797125
0.03205477 0.03205477 0.03205477
0.04817470 0.04817470 0.04817470
0.08422786 0.08422786 0.08422786
0.13118258 0.13118258 0.13118258
0.15884385 0.15884385 0.15884385
0.18510888 0.18510888 0.18510888
0.23489753 0.23489753 0.23489753
0.30470991 0.30470991 0.30470991
0.37931128 0.37931128 0.37931128
0.44760803 0.44760803 0.44760803
0.50468150 0.50468150 0.50468150
0.54962423 0.54962423 0.54962423
0.58330217 0.58330217 0.58330217
0.55983723 0.55983723 0.55983723
0.55892792 0.55892792 0.55892792
0.55892792 0.55892792 0.55892792
0.55892792 0.55892792 0.55892792
0.55892792 0.55892792 0.55892792
0.55892792 0.55892792 0.55892792
0.55892792 0.55892792 0.55892792
0.55892792 0.55892792 0.55892792
0.55892792 0.55892792 0.55892792
0.55892792 0.55892792 0.55892792
0.55892792 0.55892792 0.55892792
0.55892792 0.55892792 0.55892792
0.16303202 0.16303202 0.16303202
0.07442908 0.07442908 0.07442908
0.05391270 0.05391270 0.05391270
0.05092346 0.05092346 0.05092346
0.06112976 0.06112976 0.06112976
0.04124407 0.04124407 0.04124407
0.02841238 0.02841238 0.02841238
0.03543505 0.03543505 0.03543505
0.04536968 0.04536968 0.04536968
0.05840546 0.05840546 0.05840546
0.07389698 0.07389698 0.07389698
0.10785866 0.10785866 0.10785866
0.14175759 0.14175759 0.14175759
0.18123920 0.18123920 0.18123920
0.22762540 0.22762540 0.22762540
0.28819784 0.28819784 0.28819784
0.35374548 0.35374548 0.35374548
0.41496428 0.41496428 0.41496428
0.47397905 0.47397905 0.47397905
0.52901162 0.52901162 0.52901162
0.57330171 0.57330171 0.57330171
0.56340714 0.56340714 0.56340714
0.55821581 0.55821581 0.55821581
0.55858604 0.55858604 0.55858604
0.55892792 0.55892792 0.55892792
0.55892792 0.55892792 0.55892792
0.55892792 0.55892792 0.55892792
0.55892792 0.55892792 0.55892792
0.55892792 0.55892792 0.55892792
0.55892792 0.55892792 0.55892792
0.55892792 0.55892792 0.55892792
0.55892792 0.55892792 0.55892792
0.55892792 0.55892792 0.55892792
0.29384471 0.29384471 0.29384471
0.13375702 0.13375702 0.13375702
0.09294971 0.09294971 0.09294971
0.07797221 0.07797221 0.07797221
0.08748831 0.08748831 0.08748831
0.07567210 0.07567210 0.07567210
0.05659870 0.05659870 0.05659870
0.05494314 0.05494314 0.05494314
0.06027084 0.06027084 0.06027084
0.06923485 0.06923485 0.06923485
0.07001385 0.07001385 0.07001385
0.10261557 0.10261557 0.10261557
0.15071236 0.15071236 0.15071236
0.18340735 0.18340735 0.18340735
0.22432086 0.22432086 0.22432086
0.27925844 0.27925844 0.27925844
0.34044556 0.34044556 0.34044556
0.40249310 0.40249310 0.40249310
0.46553113 0.46553113 0.46553113
0.52034677 0.52034677 0.52034677
0.56201015 0.56201015 0.56201015
0.57919480 0.57919480 0.57919480
0.55651306 0.55651306 0.55651306
0.55743954 0.55743954 0.55743954
0.55856867 0.55856867 0.55856867
0.55824058 0.55824058 0.55824058
0.55848553 0.55848553 0.55848553
0.55891121 0.55891121 0.55891121
0.55892792 0.55892792 0.55892792
0.55892792 0.55892792 0.55892792
0.55892792 0.55892792 0.55892792
0.55892792 0.55892792 0.55892792
0.55892792 0.55892792 0.55892792
0.35483002 0.35483002 0.35483002
0.19187316 0.19187316 0.19187316
0.13993804 0.13993804 0.13993804
0.11385466 0.11385466 0.11385466
0.11775957 0.11775957 0.11775957
0.10044922 0.10044922 0.10044922
0.08974854 0.08974854 0.08974854
0.08160015 0.08160015 0.08160015
0.07569087 0.07569087 0.07569087
0.07298067 0.07298067 0.07298067
0.08368876 0.08368876 0.08368876
0.10665413 0.10665413 0.10665413
0.14125249 0.14125249 0.14125249
0.17193872 0.17193872 0.17193872
0.21748191 0.21748191 0.21748191
0.27765011 0.27765011 0.27765011
0.33699093 0.33699093 0.33699093
0.39634365 0.39634365 0.39634365
0.46547167 0.46547167 0.46547167
0.52772861 0.52772861 0.52772861
0.56184108 0.56184108 0.56184108
0.58712994 0.58712994 0.58712994
0.56303809 0.56303809 0.56303809
0.55867088 0.55867088 0.55867088
0.55632485 0.55632485 0.55632485
0.55333691 0.55333691 0.55333691
0.55505299 0.55505299 0.55505299
0.55873839 0.55873839 0.55873839
0.55892792 0.55892792 0.55892792
0.55892792 0.55892792 0.55892792
0.55892792 0.55892792 0.55892792
0.55892792 0.55892792 0.55892792
0.55892792 0.55892792 0.55892792
0.38620872 0.38620872 0.38620872
0.23777744 0.23777744 0.23777744
0.18363948 0.18363948 0.18363948
0.15509305 0.15509305 0.15509305
0.15073183 0.15073183 0.15073183
0.13228151 0.13228151 0.13228151
0.11506890 0.11506890 0.11506890
0.09876403 0.09876403 0.09876403
0.09550523 0.09550523 0.09550523
0.09588493 0.09588493 0.09588493
0.10187409 0.10187409 0.10187409
0.12130884 0.12130884 0.12130884
0.15771393 0.15771393 0.15771393
0.19016955 0.19016955 0.19016955
0.22051559 0.22051559 0.22051559
0.27268318 0.27268318 0.27268318
0.33484710 0.33484710 0.33484710
0.39546778 0.39546778 0.39546778
0.46100408 0.46100408 0.46100408
0.52253401 0.52253401 0.52253401
0.55795001 0.55795001 0.55795001
0.58592532 0.58592532 0.58592532
0.58307187 0.58307187 0.58307187
0.57130703 0.57130703 0.57130703
0.56061183 0.56061183 0.56061183
0.55770429 0.55770429 0.55770429
0.55858714 0.55858714 0.55858714
0.55788895 0.55788895 0.55788895
0.55545601 0.55545601 0.55545601
0.55423979 0.55423979 0.55423979
0.55818188 0.55818188 0.55818188
0.55890494 0.55890494 0.55890494
0.55892792 0.55892792 0.55892792
0.41246004 0.41246004 0.41246004
0.27048915 0.27048915 0.27048915
0.21613790 0.21613790 0.21613790
0.19051611 0.19051611 0.19051611
0.19738335 0.19738335 0.19738335
0.18053179 0.18053179 0.18053179
0.15560563 0.15560563 0.15560563
0.13867279 0.13867279 0.13867279
0.13379414 0.13379414 0.13379414
0.13388600 0.13388600 0.13388600
0.13647552 0.13647552 0.13647552
0.14547927 0.14547927 0.14547927
0.17511109 0.17511109 0.17511109
0.20497824 0.20497824 0.20497824
0.23750803 0.23750803 0.23750803
0.27817062 0.27817062 0.27817062
0.33299939 0.33299939 0.33299939
0.39391485 0.39391485 0.39391485
0.45769739 0.45769739 0.45769739
0.51734336 0.51734336 0.51734336
0.55506177 0.55506177 0.55506177
0.58416485 0.58416485 0.58416485
0.59996344 0.59996344 0.59996344
0.58398651 0.58398651 0.58398651
0.57122279 0.57122279 0.57122279
0.56754503 0.56754503 0.56754503
0.56790069 0.56790069 0.56790069
0.56680142 0.56680142 0.56680142
0.56226409 0.56226409 0.56226409
0.55840810 0.55840810 0.55840810
0.55868370 0.55868370 0.55868370
0.55694831 0.55694831 0.55694831
0.55475875 0.55475875 0.55475875
0.47577605 0.47577605 0.47577605
0.32826794 0.32826794 0.32826794
0.26843689 0.26843689 0.26843689
0.23913557 0.23913557 0.23913557
0.25406087 0.25406087 0.25406087
0.22933904 0.22933904 0.22933904
0.20161180 0.20161180 0.20161180
0.18844096 0.18844096 0.18844096
0.17762155 0.17762155 0.17762155
0.17634846 0.17634846 0.17634846
0.17905545 0.17905545 0.17905545
0.18333241 0.18333241 0.18333241
0.20006832 0.20006832 0.20006832
0.22271147 0.22271147 0.22271147
0.25646639 0.25646639 0.25646639
0.29782309 0.29782309 0.29782309
0.34185342 0.34185342 0.34185342
0.39514313 0.39514313 0.39514313
0.45999086 0.45999086 0.45999086
0.52074756 0.52074756 0.52074756
0.55933117 0.55933117 0.55933117
0.58779202 0.58779202 0.58779202
0.61136890 0.61136890 0.61136890
0.59965544 0.59965544 0.59965544
0.59041969 0.59041969 0.59041969
0.58279496 0.58279496 0.58279496
0.58097800 0.58097800 0.58097800
0.58190106 0.58190106 0.58190106
0.57596957 0.57596957 0.57596957
0.56794295 0.56794295 0.56794295
0.56729690 0.56729690 0.56729690
0.56352415 0.56352415 0.56352415
0.55515622 0.55515622 0.55515622
0.56163813 0.56163813 0.56163813
0.40869569 0.40869569 0.40869569
0.34494590 0.34494590 0.34494590
0.30816576 0.30816576 0.30816576
0.31319799 0.31319799 0.31319799
0.27925251 0.27925251 0.27925251
0.25156035 0.25156035 0.25156035
0.23848379 0.23848379 0.23848379
0.22264616 0.22264616 0.22264616
0.21766387 0.21766387 0.21766387
0.22148109 0.22148109 0.22148109
0.22782840 0.22782840 0.22782840
0.24027700 0.24027700 0.24027700
0.25652327 0.25652327 0.25652327
0.28172927 0.28172927 0.28172927
0.32132480 0.32132480 0.32132480
0.36224190 0.36224190 0.36224190
0.40554808 0.40554808 0.40554808
0.46373677 0.46373677 0.46373677
0.52816000 0.52816000 0.52816000
0.57010077 0.57010077 0.57010077
0.59788678 0.59788678 0.59788678
0.62270131 0.62270131 0.62270131
0.62124662 0.62124662 0.62124662
0.61325957 0.61325957 0.61325957
0.60243956 0.60243956 0.60243956
0.59708609 0.59708609 0.59708609
0.59605981 0.59605981 0.59605981
0.59014359 0.59014359 0.59014359
0.58269629 0.58269629 0.58269629
0.57821663 0.57821663 0.57821663
0.57723151 0.57723151 0.57723151
0.56794463 0.56794463 0.56794463
0.63681762 0.63681762 0.63681762
0.48918168 0.48918168 0.48918168
0.42397224 0.42397224 0.42397224
0.38333903 0.38333903 0.38333903
0.37287297 0.37287297 0.37287297
0.33513707 0.33513707 0.33513707
0.30920061 0.30920061 0.30920061
0.29064169 0.29064169 0.29064169
0.27240953 0.27240953 0.27240953
0.26353684 0.26353684 0.26353684
0.26739922 0.26739922 0.26739922
0.27222856 0.27222856 0.27222856
0.28526775 0.28526775 0.28526775
0.30262081 0.30262081 0.30262081
0.31921221 0.31921221 0.31921221
0.34801871 0.34801871 0.34801871
0.38562219 0.38562219 0.38562219
0.42429609 0.42429609 0.42429609
0.47109742 0.47109742 0.47109742
0.53226369 0.53226369 0.53226369
0.58163857 0.58163857 0.58163857
0.61125751 0.61125751 0.61125751
0.63336669 0.63336669 0.63336669
0.64132447 0.64132447 0.64132447
0.63579275 0.63579275 0.63579275
0.62363715 0.62363715 0.62363715
0.61674418 0.61674418 0.61674418
0.61240324 0.61240324 0.61240324
0.60453254 0.60453254 0.60453254
0.59819849 0.59819849 0.59819849
0.59148566 0.59148566 0.59148566
0.59116306 0.59116306 0.59116306
0.58708367 0.58708367 0.58708367
0.69802823 0.69802823 0.69802823
0.56265391 0.56265391 0.56265391
0.50045365 0.50045365 0.50045365
0.45697068 0.45697068 0.45697068
0.43552813 0.43552813 0.43552813
0.39567968 0.39567968 0.39567968
0.37459326 0.37459326 0.37459326
0.34993729 0.34993729 0.34993729
0.33027600 0.33027600 0.33027600
0.32140812 0.32140812 0.32140812
0.32402357 0.32402357 0.32402357
0.32290060 0.32290060 0.32290060
0.33197976 0.33197976 0.33197976
0.35010328 0.35010328 0.35010328
0.36475813 0.36475813 0.36475813
0.38415092 0.38415092 0.38415092
0.41313614 0.41313614 0.41313614
0.44811240 0.44811240 0.44811240
0.48812019 0.48812019 0.48812019
0.53928731 0.53928731 0.53928731
0.59128343 0.59128343 0.59128343
0.62482454 0.62482454 0.62482454
0.64263771 0.64263771 0.64263771
0.65574662 0.65574662 0.65574662
0.65836582 0.65836582 0.65836582
0.64589398 0.64589398 0.64589398
0.63815646 0.63815646 0.63815646
0.63288900 0.63288900 0.63288900
0.62211346 0.62211346 0.62211346
0.61478568 0.61478568 0.61478568
0.60877470 0.60877470 0.60877470
0.60498384 0.60498384 0.60498384
0.60461188 0.60461188 0.60461188
0.75416746 0.75416746 0.75416746
0.63410405 0.63410405 0.63410405
0.57630745 0.57630745 0.57630745
0.53162862 0.53162862 0.53162862
0.49998908 0.49998908 0.49998908
0.45913832 0.45913832 0.45913832
0.44087022 0.44087022 0.44087022
0.41394867 0.41394867 0.41394867
0.39173659 0.39173659 0.39173659
0.38504844 0.38504844 0.38504844
0.38458433 0.38458433 0.38458433
0.38159846 0.38159846 0.38159846
0.38361738 0.38361738 0.38361738
0.39937176 0.39937176 0.39937176
0.41551715 0.41551715 0.41551715
0.43082062 0.43082062 0.43082062
0.45070903 0.45070903 0.45070903
0.47883857 0.47883857 0.47883857
0.51500099 0.51500099 0.51500099
0.55905084 0.55905084 0.55905084
0.60415819 0.60415819 0.60415819
0.63897602 0.63897602 0.63897602
0.65277573 0.65277573 0.65277573
0.66963178 0.66963178 0.66963178
0.68111644 0.68111644 0.68111644
0.66989787 0.66989787 0.66989787
0.65797699 0.65797699 0.65797699
0.65310145 0.65310145 0.65310145
0.64392652 0.64392652 0.64392652
0.63687311 0.63687311 0.63687311
0.62957896 0.62957896 0.62957896
0.62186318 0.62186318 0.62186318
0.61865586 0.61865586 0.61865586
0.78083354 0.78083354 0.78083354
0.68330883 0.68330883 0.68330883
0.63727059 0.63727059 0.63727059
0.59769931 0.59769931 0.59769931
0.55908077 0.55908077 0.55908077
0.52496380 0.52496380 0.52496380
0.49735194 0.49735194 0.49735194
0.47791609 0.47791609 0.47791609
0.45605754 0.45605754 0.45605754
0.44335598 0.44335598 0.44335598
0.43724240 0.43724240 0.43724240
0.43989229 0.43989229 0.43989229
0.43942201 0.43942201 0.43942201
0.45195135 0.45195135 0.45195135
0.46819001 0.46819001 0.46819001
0.48142039 0.48142039 0.48142039
0.49538351 0.49538351 0.49538351
0.51632578 0.51632578 0.51632578
0.54658038 0.54658038 0.54658038
0.58505419 0.58505419 0.58505419
0.62462084 0.62462084 0.62462084
0.65553826 0.65553826 0.65553826
0.66777144 0.66777144 0.66777144
0.68664514 0.68664514 0.68664514
0.69989338 0.69989338 0.69989338
0.69176731 0.69176731 0.69176731
0.67725857 0.67725857 0.67725857
0.67000073 0.67000073 0.67000073
0.66512018 0.66512018 0.66512018
0.66233798 0.66233798 0.66233798
0.65165605 0.65165605 0.65165605
0.63901501 0.63901501 0.63901501
0.63165514 0.63165514 0.63165514
0.74834468 0.74834468 0.74834468
0.68667491 0.68667491 0.68667491
0.65936394 0.65936394 0.65936394
0.63800791 0.63800791 0.63800791
0.60991867 0.60991867 0.60991867
0.58431601 0.58431601 0.58431601
0.55315997 0.55315997 0.55315997
0.53728348 0.53728348 0.53728348
0.51885742 0.51885742 0.51885742
0.49481160 0.49481160 0.49481160
0.48276471 0.48276471 0.48276471
0.49146887 0.49146887 0.49146887
0.49258038 0.49258038 0.49258038
0.50093639 0.50093639 0.50093639
0.51540460 0.51540460 0.51540460
0.52795026 0.52795026 0.52795026
0.53940183 0.53940183 0.53940183
0.55473632 0.55473632 0.55473632
0.57722093 0.57722093 0.57722093
0.60675815 0.60675815 0.60675815
0.64215180 0.64215180 0.64215180
0.67216660 0.67216660 0.67216660
0.69133830 0.69133830 0.69133830
0.69886156 0.69886156 0.69886156
0.70746986 0.70746986 0.70746986
0.70914903 0.70914903 0.70914903
0.69975430 0.69975430 0.69975430
0.69144620 0.69144620 0.69144620
0.68855037 0.68855037 0.68855037
0.67892837 0.67892837 0.67892837
0.67102847 0.67102847 0.67102847
0.65333408 0.65333408 0.65333408
0.64686009 0.64686009 0.64686009
0.71143861 0.71143861 0.71143861
0.68334249 0.68334249 0.68334249
0.67139133 0.67139133 0.67139133
0.66232429 0.66232429 0.66232429
0.65358171 0.65358171 0.65358171
0.63460173 0.63460173 0.63460173
0.61253958 0.61253958 0.61253958
0.59858196 0.59858196 0.59858196
0.58232978 0.58232978 0.58232978
0.56001961 0.56001961 0.56001961
0.54725641 0.54725641 0.54725641
0.54458385 0.54458385 0.54458385
0.54830245 0.54830245 0.54830245
0.55299304 0.55299304 0.55299304
0.56088699 0.56088699 0.56088699
0.57330889 0.57330889 0.57330889
0.58790649 0.58790649 0.58790649
0.60321769 0.60321769 0.60321769
0.61992618 0.61992618 0.61992618
0.63865065 0.63865065 0.63865065
0.66115340 0.66115340 0.66115340
0.69313472 0.69313472 0.69313472
0.72006348 0.72006348 0.72006348
0.71522746 0.71522746 0.71522746
0.71689181 0.71689181 0.71689181
0.72874183 0.72874183 0.72874183
0.72195006 0.72195006 0.72195006
