LUT/ASTIA.cube
TITLE "ASTIA"
LUT_3D_SIZE 33
# Apple Log/Rec2020 -> LA - :FLog2C_to_ASTIA/LA - :FLog2C_to_ASTIA, CineEI Shift 0.00, Black Level -0.01% IRE, Input 109% -> Output 100% - Created with LUTCalc v4.09 by Ben Turley February 2025
0.00000000 0.00000000 0.00000000
0.00000000 0.00000000 0.00000000
0.00000000 0.00000000 0.00000000
0.00000000 0.00000000 0.00000000
0.58162381 0.00000000 0.00000000
0.80356685 0.00030796 0.03969012
0.75848323 0.00069036 0.03801156
0.82914805 0.00048628 0.11749249
0.86825511 0.00000000 0.07532416
0.93881314 0.00000000 0.37555354
1.00012280 0.00000000 0.86616281
1.00300977 0.87957790 0.79204643
1.02076548 0.29281931 0.81934238
1.01849734 0.88030170 0.89540227
1.00539881 0.00023932 0.92293498
0.99781613 0.00447187 0.88368473
0.99339222 0.57203372 0.79824410
1.00123126 0.63140570 0.63749932
0.99754388 0.20500035 0.52129927
1.00098386 0.09923728 0.54022898
1.00098386 0.09923728 0.54022898
1.00098386 0.09923728 0.54022898
1.00098386 0.09923728 0.54022898
1.00098386 0.09923728 0.54022898
1.00098386 0.09923728 0.54022898
1.00098386 0.09923728 0.54022898
1.00098386 0.09923728 0.54022898
1.00098386 0.09923728 0.54022898
1.00098386 0.09923728 0.54022898
1.00098386 0.09923728 0.54022898
1.00098386 0.09923728 0.54022898
1.00098386 0.09923728 0.54022898
1.00098386 0.09923728 0.54022898
0.00000000 0.00000000 0.00000000
0.00000000 0.00000000 0.00000000
0.00000000 0.00000000 0.00000000
0.00000000 0.00000000 0.00000000
0.19766767 0.00000000 0.00000000
0.47282859 0.00000000 0.03044030
0.46297899 0.00000000 0.02363049
0.60761208 0.00000000 0.04631316
0.69862394 0.00000000 0.03435273
0.82238599 0.00000000 0.13314831
0.91277564 0.00000000 0.61228917
0.98151523 0.63986528 0.44118758
1.00753711 0.10210968 0.51828103
1.00781415 0.66716092 0.72379022
1.00056856 0.01553385 0.79590995
0.98097744 0.01182086 0.77392304
0.99774723 0.23232802 0.69825719
1.00172994 0.29106816 0.60561533
0.99846834 0.13290666 0.52766188
1.00098386 0.09923728 0.54022898
1.00098386 0.09923728 0.54022898
1.00098386 0.09923728 0.54022898
1.00098386 0.09923728 0.54022898
1.00098386 0.09923728 0.54022898
1.00098386 0.09923728 0.54022898
1.00098386 0.09923728 0.54022898
1.00098386 0.09923728 0.54022898
1.00098386 0.09923728 0.54022898
1.00098386 0.09923728 0.54022898
1.00098386 0.09923728 0.54022898
1.00098386 0.09923728 0.54022898
1.00098386 0.09923728 0.54022898
1.00098386 0.09923728 0.54022898
0.00000000 0.00000000 0.00000000
0.00000000 0.00000000 0.00000000
0.00000000 0.00000000 0.00000000
0.00000000 0.00000000 0.00000000
0.09413011 0.00000000 0.00000000
0.28400322 0.00000000 0.02633772
0.30932378 0.00000000 0.01814093
0.46368251 0.00014924 0.03079431
0.57099999 0.00000000 0.02337352
0.72999567 0.00000000 0.07664992
0.85305197 0.00000000 0.41668565
0.91808297 0.44546263 0.25324765
1.00205774 0.06111384 0.33208957
1.00338903 0.49466813 0.57493578
1.00178483 0.02041662 0.67727100
0.97623474 0.01411133 0.67879355
0.99767752 0.12551174 0.64628844
1.00180961 0.16259691 0.59145977
0.99985868 0.10988795 0.53028272
1.00098386 0.09923728 0.54022898
1.00098386 0.09923728 0.54022898
1.00098386 0.09923728 0.54022898
1.00098386 0.09923728 0.54022898
1.00098386 0.09923728 0.54022898
1.00098386 0.09923728 0.54022898
1.00098386 0.09923728 0.54022898
1.00098386 0.09923728 0.54022898
1.00098386 0.09923728 0.54022898
1.00098386 0.09923728 0.54022898
1.00098386 0.09923728 0.54022898
1.00098386 0.09923728 0.54022898
1.00098386 0.09923728 0.54022898
1.00098386 0.09923728 0.54022898
0.00000000 0.00000000 0.00000000
0.00000000 0.00000000 0.00000000
0.00000000 0.00000000 0.00000000
0.00000000 0.00000000 0.00000000
0.03729087 0.00000000 0.00000000
0.15909761 0.00971306 0.01892124
0.20893762 0.00332713 0.01154601
0.34736560 0.00694272 0.02065116
0.45386686 0.00000000 0.01854677
0.61070484 0.00000000 0.03653851
0.76588804 0.00000000 0.18467809
0.85418984 0.15841589 0.14643488
0.97928148 0.08679351 0.21798561
0.99996837 0.04416300 0.41561095
1.00025309 0.00000500 0.55607083
0.99863019 0.03827477 0.59941390
0.99756191 0.20285636 0.60320943
1.00181337 0.13028732 0.58059674
1.00070013 0.10912514 0.54051730
1.00098386 0.09923728 0.54022898
1.00098386 0.09923728 0.54022898
1.00098386 0.09923728 0.54022898
1.00098386 0.09923728 0.54022898
1.00098386 0.09923728 0.54022898
1.00098386 0.09923728 0.54022898
1.00098386 0.09923728 0.54022898
1.00098386 0.09923728 0.54022898
1.00098386 0.09923728 0.54022898
1.00098386 0.09923728 0.54022898
1.00098386 0.09923728 0.54022898
1.00098386 0.09923728 0.54022898
1.00098386 0.09923728 0.54022898
1.00098386 0.09923728 0.54022898
0.00000000 0.00000000 0.00000000
0.00000000 0.00000000 0.00000000
0.00000000 0.00000000 0.00000000
0.00000000 0.00000000 0.00000000
0.05031888 0.14683596 0.00000000
0.04132959 0.00951440 0.00824963
0.15906898 0.00013711 0.00602537
0.27801393 0.00115239 0.01061297
0.35157118 0.00341046 0.00874945
0.49246934 0.00000000 0.00064435
0.62222876 0.00000647 0.00768233
0.73209284 0.00000000 0.01918958
0.83620942 0.00000000 0.12660149
0.97824983 0.00000000 0.27212964
0.99994961 0.00000000 0.41243721
0.99996742 0.00000000 0.50384084
1.00103687 0.00000000 0.54363541
1.00141266 0.06209005 0.56073846
1.00124361 0.11830338 0.56352232
1.00098386 0.09923728 0.54022898
1.00098386 0.09923728 0.54022898
1.00098386 0.09923728 0.54022898
1.00098386 0.09923728 0.54022898
1.00098386 0.09923728 0.54022898
1.00098386 0.09923728 0.54022898
1.00098386 0.09923728 0.54022898
1.00098386 0.09923728 0.54022898
1.00098386 0.09923728 0.54022898
1.00098386 0.09923728 0.54022898
1.00098386 0.09923728 0.54022898
1.00098386 0.09923728 0.54022898
1.00098386 0.09923728 0.54022898
1.00098386 0.09923728 0.54022898
0.06082690 0.20717902 0.00000000
0.01122008 0.06429931 0.00000000
0.00051200 0.03750479 0.00000000
0.00000000 0.02345444 0.00000000
0.00000000 0.00766336 0.00000000
0.11286112 0.00000000 0.13455410
0.13834398 0.00000000 0.03327415
0.16538203 0.00072772 0.00258302
0.24191373 0.00000000 0.02663992
0.38825776 0.00083517 0.01701274
0.49908953 0.00038297 0.02563668
0.62753984 0.00000000 0.11619582
0.75633888 0.00002797 0.25393881
0.86489349 0.06516562 0.20361524
0.95439126 0.09177628 0.26563377
0.99737788 0.01067419 0.41354282
1.00021384 0.00002965 0.53717803
1.00131779 0.01611820 0.57952378
1.00105221 0.10602881 0.56212559
0.99732147 0.18003085 0.55371441
1.00098386 0.09923728 0.54022898
1.00098386 0.09923728 0.54022898
1.00098386 0.09923728 0.54022898
1.00098386 0.09923728 0.54022898
1.00098386 0.09923728 0.54022898
1.00098386 0.09923728 0.54022898
1.00098386 0.09923728 0.54022898
1.00098386 0.09923728 0.54022898
1.00098386 0.09923728 0.54022898
1.00098386 0.09923728 0.54022898
1.00098386 0.09923728 0.54022898
1.00098386 0.09923728 0.54022898
1.00098386 0.09923728 0.54022898
0.03176416 0.34052630 0.00000000
0.00203772 0.13248097 0.00000000
0.00021542 0.08164310 0.00000000
0.00002490 0.05676619 0.00000000
0.00000000 0.01884575 0.00000000
0.13702519 0.00000000 0.00000000
0.09669663 0.00000000 0.00000000
0.15369219 0.00033086 0.00000000
0.19000430 0.00000000 0.00000000
0.28732851 0.00000000 0.00000000
0.39337654 0.00000000 0.03373660
0.54390918 0.00068931 0.06073699
0.67784819 0.00000000 0.07954166
0.79915129 0.00000000 0.11788078
0.92533567 0.00000000 0.20565755
0.99770433 0.00000000 0.34469745
1.00164969 0.00000000 0.47644985
0.99916830 0.00000000 0.55204775
1.00058053 0.14476802 0.55823766
1.00012431 0.09964945 0.55108080
1.00096120 0.09958000 0.54028136
1.00098320 0.09924728 0.54023051
1.00098386 0.09923728 0.54022898
1.00098386 0.09923728 0.54022898
1.00098386 0.09923728 0.54022898
1.00098386 0.09923728 0.54022898
1.00098386 0.09923728 0.54022898
1.00098386 0.09923728 0.54022898
1.00098386 0.09923728 0.54022898
1.00098386 0.09923728 0.54022898
1.00098386 0.09923728 0.54022898
1.00098386 0.09923728 0.54022898
1.00098386 0.09923728 0.54022898
0.63358803 0.33444609 0.00000000
0.29981564 0.16174974 0.00000000
0.17067368 0.11320740 0.00000000
0.06906183 0.08741991 0.00000000
0.14520642 0.05532087 0.00000000
0.19585687 0.01774084 0.00000000
0.05375171 0.02095362 0.00000000
0.15506190 0.01255111 0.00000000
0.16415825 0.00000000 0.00000000
0.22626796 0.00000000 0.00000000
0.33881345 0.00000000 0.13599018
0.49505466 0.00000000 0.03933795
0.62490339 0.00000000 0.03186625
0.74215272 0.00000000 0.06970243
0.85248195 0.00000000 0.14721113
0.95878500 0.00000000 0.26263307
1.00020401 0.00000000 0.41664320
1.00019650 0.00000000 0.54345252
1.00100895 0.04670212 0.57965525
1.00138548 0.04957492 0.54394969
0.99792585 0.12262378 0.54425419
1.00092067 0.10017340 0.54037188
1.00098386 0.09923728 0.54022898
1.00098386 0.09923728 0.54022898
1.00098386 0.09923728 0.54022898
1.00098386 0.09923728 0.54022898
1.00098386 0.09923728 0.54022898
1.00098386 0.09923728 0.54022898
1.00098386 0.09923728 0.54022898
1.00098386 0.09923728 0.54022898
1.00098386 0.09923728 0.54022898
1.00098386 0.09923728 0.54022898
1.00098386 0.09923728 0.54022898
0.82599883 0.28260665 0.00000000
0.73269185 0.15401838 0.00000000
0.67433578 0.11608442 0.00000000
0.37275361 0.10202887 0.00000000
0.00000000 0.09304019 0.00000000
0.38970986 0.04592696 0.00000000
0.03797296 0.02029652 0.12313302
0.09612836 0.01936832 0.00000000
0.16139481 0.01553869 0.00000000
0.21054556 0.00171687 0.00000000
0.32486695 0.02288228 0.37516241
0.45762673 0.01110216 0.00000000
0.57251512 0.00303994 0.00000000
0.69337140 0.00000000 0.01773771
0.81181506 0.00000000 0.12105012
0.94050452 0.00000000 0.26598486
1.00035715 0.00000000 0.39440653
1.00002956 0.00000000 0.52323571
0.99759146 0.00000000 0.57994887
0.99663390 0.05579960 0.55161604
0.99461520 0.15799506 0.54947501
1.00076077 0.10121239 0.54056950
1.00098386 0.09923728 0.54022898
1.00098386 0.09923728 0.54022898
1.00098386 0.09923728 0.54022898
1.00098386 0.09923728 0.54022898
1.00098386 0.09923728 0.54022898
1.00098386 0.09923728 0.54022898
1.00098386 0.09923728 0.54022898
1.00098386 0.09923728 0.54022898
1.00098386 0.09923728 0.54022898
1.00098386 0.09923728 0.54022898
1.00098386 0.09923728 0.54022898
0.93632938 0.32011262 0.00000000
0.80047582 0.17074191 0.00000000
0.67134071 0.12618097 0.00000000
0.27888901 0.11744128 0.00000000
0.00000000 0.12547945 0.00000000
0.24240747 0.07828986 0.36457107
0.00035843 0.05047572 0.09997070
0.01375296 0.04532519 0.00000000
0.13749375 0.03789219 0.00000000
0.22670895 0.03111426 0.00000000
0.27115124 0.03622401 0.27550443
0.37063132 0.03390418 0.00000000
0.50138157 0.02245063 0.00000000
0.64980827 0.01152826 0.00000000
0.77871187 0.00008645 0.22781166
0.88912935 0.00000000 0.43883244
0.97921604 0.00000000 0.39861003
1.00002965 0.00000000 0.47869506
1.00129897 0.00000000 0.55023119
0.98113473 0.04180770 0.55768459
0.98911439 0.15885737 0.54650864
1.00152169 0.10813794 0.54201557
0.99957830 0.09534754 0.53995116
1.00069170 0.09801489 0.54014653
1.00098386 0.09923728 0.54022898
1.00098386 0.09923728 0.54022898
1.00098386 0.09923728 0.54022898
1.00098386 0.09923728 0.54022898
1.00098386 0.09923728 0.54022898
1.00098386 0.09923728 0.54022898
1.00098386 0.09923728 0.54022898
1.00098386 0.09923728 0.54022898
1.00098386 0.09923728 0.54022898
0.90781082 0.50799867 0.00000000
0.66631701 0.30337047 0.00000000
0.44369906 0.22348492 0.00000000
0.11117442 0.18565191 0.00000000
0.16247346 0.20351838 0.06586328
0.04157065 0.14927235 0.03205622
0.00000000 0.09510682 0.13702933
0.00000000 0.08007726 0.02231434
0.06658877 0.07554593 0.00000000
0.16928004 0.07262981 0.00000000
0.23488029 0.05191223 0.03263419
0.34538051 0.05247636 0.00000000
0.47939375 0.05732530 0.00000000
0.61881555 0.03984396 0.00000000
0.75099144 0.02560486 0.54209485
0.85250441 0.01320349 0.67385246
0.95678462 0.00000000 0.36907000
1.00182440 0.00065966 0.41931201
1.00482626 0.00038151 0.53959731
1.00182659 0.03396058 0.58747247
1.00100360 0.15985553 0.53543933
1.00023651 0.13985327 0.54839131
0.99781080 0.08358006 0.53796334
0.99853592 0.09299408 0.53827379
1.00092470 0.09792345 0.53934947
1.00121958 0.09746494 0.54141930
1.00117582 0.09818286 0.54140128
1.00099223 0.09919026 0.54027364
1.00098386 0.09923728 0.54022898
1.00098386 0.09923728 0.54022898
1.00098386 0.09923728 0.54022898
1.00098386 0.09923728 0.54022898
1.00098386 0.09923728 0.54022898
0.99764532 0.65826988 0.93092569
0.84892537 0.44611645 0.74287995
0.71144154 0.34568484 0.55164359
0.06569777 0.27681518 0.06999600
0.00000000 0.26917880 0.08066501
0.00024541 0.20594326 0.00000000
0.03564544 0.16993691 0.47034299
0.00000000 0.13776723 0.50982825
0.03850674 0.12262602 0.44940333
0.15398383 0.10554608 0.58823239
0.21329573 0.08693762 0.71724067
0.33918514 0.08622913 0.02320979
0.44269741 0.08577349 0.06519940
0.56091081 0.07374544 0.01976837
0.68631022 0.06538000 0.02541094
0.80905601 0.05472645 0.52132993
0.92335148 0.03970885 0.66247249
1.00058805 0.02161861 0.36061675
1.00050783 0.00577513 0.49407984
1.00163600 0.01628462 0.58114646
0.99928472 0.08294876 0.55388915
1.00074356 0.14407002 0.55721681
0.99783051 0.09730524 0.53390244
0.99740656 0.09248157 0.52640078
0.99998352 0.08853076 0.52950088
1.00174293 0.08441271 0.54894101
1.00180340 0.08988628 0.55212389
1.00107373 0.09870460 0.54073521
1.00098386 0.09923728 0.54022898
1.00098386 0.09923728 0.54022898
1.00098386 0.09923728 0.54022898
1.00098386 0.09923728 0.54022898
1.00098386 0.09923728 0.54022898
0.61665355 0.74974290 0.77979509
0.27485256 0.54240677 0.35409887
0.15181641 0.43360140 0.16097245
0.02232875 0.35903523 0.03306008
0.00026812 0.33134440 0.20233730
0.66478129 0.27680266 0.00000000
0.18021278 0.24800253 0.02409353
0.06643220 0.21226236 0.04992128
0.20040585 0.18985461 0.30805985
0.05106344 0.16219054 0.27190073
0.18345447 0.14689124 0.06616831
0.27680237 0.12933690 0.36764611
0.39309216 0.13502373 0.00000000
0.50925489 0.12791067 0.00000000
0.63132001 0.11312392 0.00000000
0.76134215 0.10424713 0.41442686
0.87142120 0.08676736 0.54178100
0.96243326 0.06760194 0.18620645
1.00125985 0.05471661 0.41755711
1.00179921 0.04651911 0.53625678
0.99996067 0.06949979 0.55939606
0.99793009 0.15109571 0.52816393
0.99739616 0.15322644 0.53557969
0.99781089 0.11615715 0.54102014
0.99278907 0.09775741 0.53323785
1.00152281 0.09468927 0.53528739
1.00034656 0.09059768 0.55193385
1.00107590 0.08765483 0.56005576
0.99905288 0.08376937 0.55481571
0.99694518 0.06899232 0.55752627
1.00003865 0.09338153 0.54264668
1.00096174 0.09905414 0.54030357
1.00098386 0.09923728 0.54022898
0.00000000 0.81318494 0.00000000
0.00000000 0.63319142 0.00000000
0.00000000 0.52649385 0.00000000
0.00000000 0.45039435 0.00000000
0.00002695 0.42661397 0.00000000
0.43667172 0.37137108 0.00000000
0.08889997 0.33378587 0.00000000
0.01307824 0.30383723 0.00000105
0.07237978 0.27512534 0.00000000
0.08647181 0.24486449 0.00000000
0.14926376 0.21791459 0.00000000
0.21936835 0.19666139 0.02859738
0.35850847 0.19725559 0.00000000
0.47117690 0.18202509 0.00000000
0.57924944 0.17538274 0.00000000
0.70315587 0.16693560 0.00042944
0.81861182 0.15044714 0.38310601
0.91956439 0.12646697 0.68407878
1.00166195 0.10697491 0.34981863
1.00057937 0.09614877 0.48741003
1.00017756 0.09950946 0.53612946
1.00169417 0.16283423 0.47496443
1.00153897 0.20698402 0.51743312
0.99732263 0.15857744 0.52742854
0.98645196 0.13860791 0.51402709
0.99763610 0.13150857 0.52230809
1.00043365 0.11392834 0.54470050
1.00042331 0.10648872 0.55161600
0.99837586 0.10614901 0.54382558
0.99203501 0.07993008 0.54742204
1.00175045 0.09659680 0.53896914
1.00181245 0.09182970 0.56549752
0.99994115 0.10328973 0.55116994
0.00000000 0.86056650 0.00000000
0.00000000 0.72259031 0.00000000
0.00000000 0.62190397 0.00000000
0.00002376 0.54812352 0.00000000
0.00000000 0.52626006 0.00000000
0.03702708 0.47389835 0.00000000
0.09084354 0.41189803 0.01837130
0.00002418 0.38901518 0.00000000
0.00441128 0.36119121 0.00000000
0.03754138 0.33702296 0.00000000
0.05469607 0.31801350 0.00000000
0.17857229 0.29025472 0.08423420
0.31839112 0.27452828 0.00637594
0.43649598 0.25125779 0.00000000
0.53910751 0.24273455 0.00000000
0.65210676 0.24450393 0.00000000
0.77544257 0.22572160 0.00489709
0.88321936 0.19535223 0.38168598
0.99554969 0.17346087 0.80146742
0.99994719 0.16243842 0.58731137
0.99976394 0.15538198 0.49835845
1.00009821 0.18942442 0.41315939
1.00178195 0.23472424 0.46471255
1.00178510 0.20929742 0.47909949
0.99779600 0.18661079 0.48739550
0.99748450 0.16825353 0.50614214
1.00136423 0.15185617 0.52039218
1.00012693 0.14603983 0.52273745
1.00177357 0.14049240 0.52261247
0.99776925 0.11322281 0.53034804
1.00117109 0.11266722 0.52776967
0.99873535 0.09890354 0.56823770
1.00038032 0.10244478 0.55697265
0.00000000 0.92906589 0.00000000
0.00000000 0.80702140 0.00000000
0.00003078 0.69955432 0.00069215
0.00000000 0.61362951 0.04860506
0.00000000 0.62436557 0.00000000
0.00067846 0.58270286 0.03114545
0.03400322 0.50459777 0.02737128
0.00000000 0.47669921 0.00000718
0.06165812 0.45260909 0.00000000
0.03222460 0.43553656 0.00000000
0.05417164 0.42738852 0.00000000
0.06304940 0.39607831 0.00000000
0.27656709 0.36440894 0.00000000
0.40827731 0.33256905 0.00000000
0.50564334 0.32089183 0.00000000
0.61125098 0.31908893 0.00000000
0.73125024 0.30741781 0.00000000
0.84821692 0.28015694 0.00000000
0.95024746 0.26082999 0.46090941
1.00022539 0.24991515 0.83907844
1.00091050 0.22922488 0.50612017
0.99993004 0.22879507 0.39547499
0.99783562 0.26093042 0.40718030
1.00001426 0.25764627 0.45129058
1.00056743 0.23410156 0.47249687
1.00131321 0.21056471 0.48222839
1.00033284 0.19806209 0.48934917
1.00103281 0.19219512 0.49286680
0.99999126 0.18278044 0.49622917
0.99730615 0.16418052 0.50060043
0.99943558 0.14253696 0.51792326
1.00062403 0.12618137 0.54724895
1.00040544 0.12025284 0.54274242
0.03310170 1.00032915 0.00000000
0.01894491 0.90040141 0.00000000
0.01396455 0.82701604 0.00000000
0.01193081 0.74300172 0.00000000
0.01114231 0.72071808 0.03477856
0.00000000 0.68240248 0.00065167
0.00003087 0.60983191 0.00000000
0.00000000 0.57658467 0.00000000
0.19849044 0.55569860 0.03561879
0.03234445 0.54528668 0.01278592
0.03087636 0.53188621 0.20126890
0.00000000 0.50380442 0.00000000
0.14054495 0.46836134 0.00000000
0.38091542 0.43313336 0.00000000
0.47756152 0.40457500 0.00000000
0.57658582 0.39383472 0.00000000
0.69273644 0.38254898 0.00000000
0.80984988 0.36506502 0.00000000
0.90129023 0.35004095 0.00143481
1.00154789 0.34301476 0.65000135
1.00206057 0.31794200 0.81387497
1.00102838 0.29253065 0.40341151
0.99909149 0.31094153 0.36945729
1.00041126 0.30991169 0.43959165
1.00031044 0.28807307 0.44979602
1.00181885 0.26584289 0.44590863
1.00026068 0.25309457 0.45455041
1.00135659 0.24242161 0.45952264
1.00006293 0.23080501 0.45624826
0.99793547 0.22306909 0.46138419
0.99761199 0.19064941 0.49312015
1.00179749 0.17086462 0.50756285
1.00043370 0.15805466 0.50792443
0.00000000 1.00277610 0.00000000
0.00000000 0.98001856 0.00000000
0.00000000 0.91709724 0.00000000
0.00000000 0.87375586 0.00000000
0.02543202 0.82811921 0.41106477
0.00000000 0.77944408 0.00000000
0.00000000 0.69851848 0.00000000
0.00000000 0.67107937 0.00000000
0.04762879 0.65204864 0.00000000
0.00000000 0.64227019 0.00000000
0.00000000 0.62718381 0.01904127
0.00000000 0.60518487 0.00000000
0.03666688 0.57390521 0.00000000
0.29400691 0.54354758 0.00000000
0.44982446 0.50652535 0.00000000
0.54425214 0.47955363 0.00000000
0.65897912 0.46204306 0.00000000
0.77599811 0.44517926 0.00000959
0.86655796 0.43606167 0.00000000
0.97823642 0.43370078 0.01923493
1.00049438 0.42058569 0.82601147
1.00008405 0.39166302 0.30155432
1.00134711 0.38340223 0.30814557
1.00033234 0.37690964 0.40340087
1.00075190 0.35124347 0.41350390
1.00162831 0.33154973 0.40224162
1.00176771 0.31713421 0.41385102
1.00098979 0.29546359 0.41848735
1.00113567 0.27632645 0.41126788
1.00182487 0.27344032 0.42367254
0.99746893 0.25353569 0.44385783
1.00181456 0.23097526 0.45970459
1.00020004 0.20935985 0.46892067
0.00000000 1.00140461 0.00000000
0.00000000 0.99883006 0.00000000
0.00000000 0.97881989 0.00000000
0.00000000 0.96165074 0.00000000
0.00287290 0.90487215 0.23374920
0.00000000 0.86163995 0.00000000
0.00000000 0.80805775 0.00000000
0.00000000 0.78396016 0.00000000
0.00000000 0.76327077 0.00000000
0.00000000 0.72339781 0.00000000
0.00000000 0.70720330 0.00000000
0.00000000 0.68271674 0.00000000
0.00371624 0.65453672 0.38089835
0.17376638 0.63946427 0.07647264
0.39493003 0.61522170 0.00000000
0.51273654 0.58546642 0.00000000
0.62435896 0.56004822 0.00000000
0.73930852 0.54222712 0.01412904
0.83196979 0.52907819 0.00000000
0.92466648 0.52800028 0.00000000
1.00012941 0.52567889 0.04493702
1.00402497 0.50383976 0.05426948
1.00053165 0.46487449 0.40937961
0.99733440 0.44992340 0.43303801
0.99738184 0.41587491 0.40868505
1.00126940 0.39834965 0.37711522
1.00171549 0.38535416 0.36839031
1.00123103 0.35619158 0.37621119
0.99965155 0.32714068 0.38223981
1.00008739 0.32227525 0.39423896
0.99780821 0.31266945 0.38574812
1.00070666 0.30019605 0.41009329
1.00036306 0.26844603 0.43427510
0.00000000 1.00147273 0.00000000
0.00000000 1.00147273 0.00000000
0.00000000 1.00147273 0.00000000
0.00000000 1.00147273 0.00000000
0.00000000 0.96449976 0.08417729
0.00002937 0.94044717 0.00000000
0.00003090 0.90047673 0.00000000
0.00000000 0.86932066 0.00000000
0.00000000 0.86394965 0.00000000
0.00000000 0.82373692 0.00613639
0.00000000 0.79283035 0.00000000
0.00001986 0.75546095 0.00000000
0.00050758 0.73178255 0.33582015
0.09819553 0.72822109 0.03226188
0.35581663 0.70610461 0.00000000
0.49936782 0.68292842 0.00000000
0.58745425 0.65850385 0.00000000
0.69929926 0.63412366 0.00000000
0.80042487 0.62041546 0.00000000
0.87959473 0.61261576 0.00000000
0.99957568 0.60414080 0.00000000
1.00674560 0.58702023 0.00000000
1.00117260 0.55461780 0.67158648
0.98101223 0.52428473 0.64984151
0.99229847 0.48577767 0.52256286
1.00181457 0.46896921 0.39802422
1.00181908 0.45827776 0.31104568
0.99554878 0.42542055 0.32873642
0.99763604 0.39476922 0.35854353
1.00087481 0.39127955 0.35655636
0.98973204 0.36495387 0.33901466
0.99989956 0.36407540 0.35317883
0.99998690 0.32866789 0.38669595
0.00000000 1.00147273 0.00000000
0.00000000 1.00147273 0.00000000
0.00000000 1.00147273 0.00000000
0.00000000 1.00147273 0.00000000
0.00000000 1.00147273 0.00000000
0.00000000 1.00019408 0.00000000
0.00000000 0.96905154 0.00000000
0.00000000 0.92654768 0.00000000
0.00000000 0.94269611 0.00000000
0.00000000 0.92103911 0.00997985
0.00000000 0.89733481 0.04708175
0.01982648 0.85854155 0.60687429
0.00000000 0.84431831 0.45790441
0.15833843 0.82162687 0.03008013
0.50035129 0.79155565 0.01622297
0.53838378 0.75315873 0.02320005
0.55318250 0.71167807 0.05792854
0.65164501 0.68611828 0.07393194
0.76293734 0.67477237 0.00288159
0.85018208 0.65929106 0.00002908
0.95867865 0.65004764 0.00000000
1.00041567 0.63748037 0.01823441
0.99826584 0.65103552 0.01442978
0.98331690 0.61220882 0.70513453
0.98183221 0.58030755 0.72275722
0.99735608 0.55180085 0.31954255
0.99735733 0.53318329 0.19029484
0.99731113 0.50856689 0.27143487
1.00171356 0.47236339 0.29557698
0.99915837 0.45881258 0.29236197
0.96596977 0.42343241 0.31396123
0.99002389 0.41851174 0.28647223
1.00176989 0.38670258 0.31302160
0.00000000 1.00147273 0.00000000
0.00000000 1.00147273 0.00000000
0.00000000 1.00147273 0.00000000
0.00000000 1.00147273 0.00000000
0.00000000 1.00147273 0.00000000
0.00000000 1.00145164 0.00000000
0.00000000 1.00117464 0.00002846
0.00000000 1.00079222 0.00002672
0.00000000 1.00093057 0.00000000
0.00000000 1.00066727 0.00000000
0.00001752 0.99730426 0.00000000
0.12518617 0.93761882 0.06012152
0.03888009 0.92119843 0.45951482
0.00000000 0.90654222 0.06743279
0.09341181 0.88069098 0.22448802
0.44481006 0.84722232 0.14162107
0.54720698 0.79973415 0.08359794
0.59100923 0.75498677 0.16925434
0.70463819 0.73926032 0.06145651
0.81092882 0.71542804 0.00000000
0.89746007 0.69137568 0.00000000
0.99781949 0.69793796 0.00064685
1.00070633 0.68823750 0.40999265
0.99880479 0.68856816 0.00051950
0.98884632 0.68138276 0.00000000
0.98238439 0.63561810 0.00000000
0.98336980 0.59544244 0.00000000
