LUT/ASTIA.cube
TITLE "ASTIA"
LUT_3D_SIZE 5
# Apple Log/Rec2020 -> LA - :FLog2C_to_ASTIA/LA - :FLog2C_to_ASTIA, CineEI Shift 0.00, Black Level -0.01% IRE, Input 109% -> Output 100% - Created with LUTCalc v4.09 by Ben Turley February 2025
0.00000000 0.00000000 0.00000000
0.86825511 0.00000000 0.07532416
0.99339222 0.57203372 0.79824410
1.00098386 0.09923728 0.54022898
1.00098386 0.09923728 0.54022898
0.82599883 0.28260665 0.00000000
0.16139481 0.01553869 0.00000000
1.00035715 0.00000000 0.39440653
1.00098386 0.09923728 0.54022898
1.00098386 0.09923728 0.54022898
0.03310170 1.00032915 0.00000000
0.19849044 0.55569860 0.03561879
0.69273644 0.38254898 0.00000000
1.00031044 0.28807307 0.44979602
1.00043370 0.15805466 0.50792443
0.00000000 1.00147273 0.00000000
0.00000000 1.00147273 0.00000000
0.00000000 1.00064917 0.00000000
1.00004453 0.80728056 0.06085871
1.00180069 0.69090345 0.00492202
0.00000000 1.00147273 0.00000000
0.00000000 1.00147273 0.00000000
0.00000000 1.00147273 0.00000000
0.60778058 1.00065172 0.00000000
0.98353406 0.99780608 0.01840125
0.39500257 0.00000000 0.00363545
0.80850012 0.01003814 0.00000000
1.00103067 0.42289543 0.77304953
1.00098386 0.09923728 0.54022898
1.00098386 0.09923728 0.54022898
0.05915233 0.50060803 0.58053367
0.05246401 0.05246401 0.05246401
0.87818785 0.00000000 0.16703046
1.00098386 0.09923728 0.54022898
1.00098386 0.09923728 0.54022898
0.00000000 1.00267882 0.67549271
0.00000000 0.69783311 0.00000000
0.52507085 0.50004772 0.00000000
1.00117922 0.39701861 0.35067550
1.00123435 0.24518088 0.44324048
0.00000000 1.00147273 0.00000000
0.00000000 1.00147273 0.00000000
0.00000000 1.00147273 0.00000000
0.99089152 0.89777366 0.00000000
1.00056655 0.76360597 0.00000000
0.14886024 0.99998540 0.96164894
0.00000000 1.00147273 0.00000000
0.00000000 1.00147273 0.00000000
0.19450275 1.00138575 0.00000000
0.98176407 1.00133544 0.02097688
0.00499635 0.02493753 0.31760475
0.78529634 0.00000000 0.02252864
1.00182252 0.57645701 0.65428439
1.00162592 0.09675995 0.36913606
1.00098386 0.09923728 0.54022898
0.00000000 0.60554180 1.01089790
0.03438355 0.01169442 0.54132836
0.85654585 0.00000000 0.53083463
1.00130377 0.12111511 0.64322548
1.00107155 0.10043623 0.55046829
0.00000000 0.99025762 1.00516783
0.00000000 0.68220496 0.75175936
0.49478527 0.49478527 0.49478527
1.00100713 0.42695302 0.62506857
1.00126264 0.29225480 0.57430689
0.03553364 1.00135464 0.93313269
0.00000000 1.00118727 0.40540045
0.00000000 1.00121668 0.19835346
0.94946630 0.93812602 0.19232636
1.00109200 0.74915404 0.37222398
0.00000000 0.91422362 1.01238239
0.00000000 1.00122313 0.71773265
0.00003032 1.00142740 0.10088187
0.11332942 1.00125400 0.00000000
0.98178979 1.00144435 0.02107499
0.05969516 0.00000000 0.95099743
0.84226206 0.00000000 0.12609580
1.00533759 0.00000000 0.55397466
1.00099952 0.32198599 0.37777773
0.99907788 0.06486097 0.37951892
0.01633341 0.01933192 0.96920178
0.01577416 0.00000000 0.91462998
0.85864216 0.00000000 0.99766710
1.00140836 0.01186181 0.87189349
1.00132078 0.08631419 0.74445072
0.00000000 0.73711820 1.00167344
0.00021343 0.58282675 1.00143586
0.45418477 0.41848533 1.00122368
1.00143369 0.33514328 0.91842076
1.00136407 0.28063594 0.79817216
0.00000000 0.97653134 1.00147273
0.00068010 0.96936909 1.00147273
0.00000000 0.94467125 1.00134273
0.85762476 0.85762476 0.85762476
1.00141007 0.73038042 0.76353047
0.00000000 0.97388476 1.00147273
0.00000000 0.97388476 1.00147273
0.00000000 0.97860214 0.99890593
0.02388259 1.00125798 0.75685346
0.98947395 1.00120540 0.50783530
0.01566057 0.00525552 0.93642871
0.97002327 0.00000000 1.01670840
1.00676150 0.00000000 1.00180647
1.00152602 0.00000000 0.89485264
0.99613922 0.33806265 0.05710753
0.01566057 0.00525552 0.93642871
0.01566057 0.00525552 0.93642871
0.82873857 0.00000000 1.00118118
1.00147273 0.00000000 1.00124794
1.00147192 0.00000000 0.99734874
0.05857068 0.88154973 0.99839991
0.00000000 0.18952674 0.99755971
0.30672728 0.03486117 1.00139049
1.00147273 0.00000000 1.00123895
1.00147273 0.01264583 1.00126870
0.00000000 0.97388476 1.00147273
0.00029435 0.95994203 1.00146115
0.00003051 0.83381941 1.00138672
0.73044126 0.70494530 1.00133110
1.00124096 0.61425647 1.00105339
0.00000000 0.97388476 1.00147273
0.00000000 0.97388476 1.00147273
0.00000000 0.97388476 1.00147273
0.00066984 0.97309188 1.00146609
0.99319622 0.99319622 0.99319622
