LUT/ASTIA.cube
TITLE "ASTIA"
LUT_3D_SIZE 9
# Apple Log/Rec2020 -> LA - :FLog2C_to_ASTIA/LA - :FLog2C_to_ASTIA, CineEI Shift 0.00, Black Level -0.01% IRE, Input 109% -> Output 100% - Created with LUTCalc v4.09 by Ben Turley February 2025
0.00000000 0.00000000 0.00000000
0.58162381 0.00000000 0.00000000
0.86825511 0.00000000 0.07532416
1.02076548 0.29281931 0.81934238
0.99339222 0.57203372 0.79824410
1.00098386 0.09923728 0.54022898
1.00098386 0.09923728 0.54022898
1.00098386 0.09923728 0.54022898
1.00098386 0.09923728 0.54022898
0.00000000 0.00000000 0.00000000
0.05031888 0.14683596 0.00000000
0.35157118 0.00341046 0.00874945
0.83620942 0.00000000 0.12660149
1.00103687 0.00000000 0.54363541
1.00098386 0.09923728 0.54022898
1.00098386 0.09923728 0.54022898
1.00098386 0.09923728 0.54022898
1.00098386 0.09923728 0.54022898
0.82599883 0.28260665 0.00000000
0.00000000 0.09304019 0.00000000
0.16139481 0.01553869 0.00000000
0.57251512 0.00303994 0.00000000
1.00035715 0.00000000 0.39440653
0.99461520 0.15799506 0.54947501
1.00098386 0.09923728 0.54022898
1.00098386 0.09923728 0.54022898
1.00098386 0.09923728 0.54022898
0.61665355 0.74974290 0.77979509
0.00026812 0.33134440 0.20233730
0.20040585 0.18985461 0.30805985
0.39309216 0.13502373 0.00000000
0.87142120 0.08676736 0.54178100
0.99996067 0.06949979 0.55939606
0.99278907 0.09775741 0.53323785
0.99905288 0.08376937 0.55481571
1.00098386 0.09923728 0.54022898
0.03310170 1.00032915 0.00000000
0.01114231 0.72071808 0.03477856
0.19849044 0.55569860 0.03561879
0.14054495 0.46836134 0.00000000
0.69273644 0.38254898 0.00000000
1.00206057 0.31794200 0.81387497
1.00031044 0.28807307 0.44979602
1.00006293 0.23080501 0.45624826
1.00043370 0.15805466 0.50792443
0.00000000 1.00147273 0.00000000
0.00000000 1.00147273 0.00000000
0.00000000 0.94269611 0.00000000
0.00000000 0.84431831 0.45790441
0.55318250 0.71167807 0.05792854
0.95867865 0.65004764 0.00000000
0.98183221 0.58030755 0.72275722
1.00171356 0.47236339 0.29557698
1.00176989 0.38670258 0.31302160
0.00000000 1.00147273 0.00000000
0.00000000 1.00147273 0.00000000
0.00000000 1.00147273 0.00000000
0.00000000 1.00147273 0.00000000
0.00000000 1.00064917 0.00000000
0.77148583 0.92559941 0.03040178
1.00004453 0.80728056 0.06085871
0.99992968 0.73891289 0.00037622
1.00180069 0.69090345 0.00492202
0.00000000 1.00147273 0.00000000
0.00000000 1.00147273 0.00000000
0.00000000 1.00147273 0.00000000
0.00000000 1.00147273 0.00000000
0.00000000 1.00147273 0.00000000
0.28820252 1.00182029 0.00000000
0.92135108 0.99986443 0.01789989
0.99658131 0.88778000 0.00000000
1.00057717 0.84869559 0.32590236
0.00000000 1.00147273 0.00000000
0.00000000 1.00147273 0.00000000
0.00000000 1.00147273 0.00000000
0.00000000 1.00147273 0.00000000
0.00000000 1.00147273 0.00000000
0.00000000 1.00147405 0.00000000
0.60778058 1.00065172 0.00000000
1.00172319 1.00119709 0.03239476
0.98353406 0.99780608 0.01840125
0.00000000 0.00000000 0.00000000
0.18080046 0.47817464 0.50096012
0.84016440 0.00114449 0.04852951
1.01157856 0.00000000 0.79225888
1.00168722 0.27079869 0.76676437
1.00098386 0.09923728 0.54022898
1.00098386 0.09923728 0.54022898
1.00098386 0.09923728 0.54022898
1.00098386 0.09923728 0.54022898
0.00000000 0.00000000 0.00000000
0.00000000 0.00000000 0.00000000
0.21622740 0.00419471 0.00760316
0.70246773 0.00000000 0.06150819
1.00094341 0.00000000 0.47739360
1.00098386 0.09923728 0.54022898
1.00098386 0.09923728 0.54022898
1.00098386 0.09923728 0.54022898
1.00098386 0.09923728 0.54022898
0.02619509 0.45490266 0.00000000
0.00000000 0.10391058 0.00000000
0.06207773 0.05424545 0.00001877
0.40990712 0.02873013 0.00023968
0.91526640 0.00002505 0.20021238
1.00130880 0.05940808 0.53425751
1.00098386 0.09923728 0.54022898
1.00098386 0.09923728 0.54022898
1.00098386 0.09923728 0.54022898
0.00000000 0.83361807 0.00000000
0.00001658 0.40783706 0.00000095
0.00000000 0.25001252 0.00000000
0.24178834 0.19047433 0.00000987
0.75025023 0.14692468 0.00003062
1.00128156 0.08529070 0.40644995
1.00143053 0.14942619 0.50709190
1.00117862 0.10990314 0.53320508
1.00098386 0.09923728 0.54022898
0.00000000 1.00394357 0.01586550
0.00000134 0.81583055 0.00000000
0.00000000 0.65386199 0.00000000
0.03630709 0.54939179 0.00000000
0.56228870 0.47647425 0.00000000
0.98471577 0.42556440 0.00780670
1.00073098 0.37665099 0.34051848
1.00074059 0.29726425 0.40599421
1.00109124 0.22144357 0.45894591
0.00000000 1.00147273 0.00000000
0.00000000 1.00147273 0.00000000
0.00000000 0.97925561 0.00007124
0.00000000 0.90597529 0.00045112
0.28458811 0.82297539 0.00002834
0.83268525 0.73079699 0.00000000
1.00074636 0.67062831 0.00016123
1.00106082 0.56459301 0.14950174
1.00115550 0.47565568 0.25323044
0.00000000 1.00147273 0.00000000
0.00000000 1.00147273 0.00000000
0.00000000 1.00147273 0.00000000
0.00000000 1.00147273 0.00000000
0.00000000 1.00147273 0.00000000
0.60887461 0.97895461 0.00000000
0.99758763 0.88047845 0.00000000
1.00081909 0.78657115 0.00000000
1.00066863 0.74097703 0.00000000
0.00000000 1.00147273 0.00000000
0.00000000 1.00147273 0.00000000
0.00000000 1.00147273 0.00000000
0.00000000 1.00147273 0.00000000
0.00000000 1.00147273 0.00000000
0.03693313 1.00142443 0.00000000
0.80297804 1.00077489 0.00000000
0.98770882 0.95345351 0.00000000
0.99770148 0.89210138 0.00003089
0.00000000 1.00147273 0.00000000
0.00000000 1.00147273 0.00000000
0.00000000 1.00147273 0.00000000
0.00000000 1.00147273 0.00000000
0.00000000 1.00147273 0.00000000
0.00000000 1.00147273 0.00000000
0.29728211 1.00098437 0.00000000
0.90838272 1.00113762 0.00908969
0.98195920 1.00070929 0.02051091
0.39500257 0.00000000 0.00363545
0.06379579 0.01006153 0.00000000
0.80850012 0.01003814 0.00000000
1.00480555 0.00000000 0.78462729
1.00103067 0.42289543 0.77304953
1.00098386 0.09923728 0.54022898
1.00098386 0.09923728 0.54022898
1.00098386 0.09923728 0.54022898
1.00098386 0.09923728 0.54022898
0.00000000 0.00000000 0.50644530
0.00000000 0.00000000 0.05911897
0.18281886 0.00300496 0.02083788
0.64905454 0.00000000 0.04461591
1.00120241 0.00000000 0.44169919
1.00098386 0.09923728 0.54022898
1.00098386 0.09923728 0.54022898
1.00098386 0.09923728 0.54022898
1.00098386 0.09923728 0.54022898
0.05915233 0.50060803 0.58053367
0.00000000 0.10958559 0.11095378
0.05246401 0.05246401 0.05246401
0.37448485 0.03167160 0.03306701
0.87818785 0.00000000 0.16703046
1.00095540 0.03555728 0.52841689
1.00098386 0.09923728 0.54022898
1.00098386 0.09923728 0.54022898
1.00098386 0.09923728 0.54022898
0.00000000 0.83534415 0.77357297
0.00003078 0.44845670 0.05908843
0.00000000 0.27909192 0.01346641
0.21569955 0.20525614 0.00051405
0.70914865 0.15664030 0.01037852
1.00112964 0.09529326 0.38911326
1.00077513 0.16712874 0.49520337
1.00092275 0.11677345 0.52805931
1.00098386 0.09923728 0.54022898
0.00000000 1.00267882 0.67549271
0.00000000 0.83865495 0.00000000
0.00000000 0.69783311 0.00000000
0.02105612 0.58953879 0.00000000
0.52507085 0.50004772 0.00000000
0.96510846 0.44162264 0.03345958
1.00117922 0.39701861 0.35067550
1.00099023 0.32186458 0.38913063
1.00123435 0.24518088 0.44324048
0.00000000 1.00147273 0.00000000
0.00000000 1.00147273 0.00000000
0.00000000 0.99851172 0.00000000
0.00000000 0.93144677 0.00000000
0.19809839 0.84780572 0.00001321
0.79614466 0.75245607 0.00000000
0.99998263 0.68956355 0.02650041
1.00109017 0.58651273 0.17942065
1.00121422 0.50211793 0.22727150
0.00000000 1.00147273 0.00000000
0.00000000 1.00147273 0.00000000
0.00000000 1.00147273 0.00000000
0.00000000 1.00147273 0.00000000
0.00000000 1.00147273 0.00000000
0.53763658 0.99191477 0.00002691
0.99089152 0.89777366 0.00000000
1.00058746 0.81666340 0.00000000
1.00056655 0.76360597 0.00000000
0.00000000 1.00147273 0.00000000
0.00000000 1.00147273 0.00000000
0.00000000 1.00147273 0.00000000
0.00000000 1.00147273 0.00000000
0.00000000 1.00147273 0.00000000
0.01516051 1.00144057 0.00000000
0.74576662 1.00128378 0.00001589
0.98480119 0.97315470 0.00000000
0.99638110 0.90375050 0.00000000
0.14886024 0.99998540 0.96164894
0.00000000 1.00146088 0.00000000
0.00000000 1.00147273 0.00000000
0.00000000 1.00147273 0.00000000
0.00000000 1.00147273 0.00000000
0.00000000 1.00147273 0.00000000
0.19450275 1.00138575 0.00000000
0.86738356 1.00113149 0.00000000
0.98176407 1.00133544 0.02097688
0.00064229 0.01332156 0.12241462
0.00000000 0.00000000 0.00000000
0.76955283 0.00001258 0.00000000
1.00068621 0.00003006 0.12873329
0.99757508 0.89844752 0.66003938
1.00098386 0.09923728 0.54022898
1.00098386 0.09923728 0.54022898
1.00098386 0.09923728 0.54022898
1.00098386 0.09923728 0.54022898
0.02191005 0.00364450 0.70437381
0.00024668 0.00000000 0.20296758
0.17636046 0.00000000 0.11780675
0.62866310 0.00000000 0.12905578
0.99737065 0.00000726 0.44406533
1.00098386 0.09923728 0.54022898
1.00098386 0.09923728 0.54022898
1.00098386 0.09923728 0.54022898
1.00098386 0.09923728 0.54022898
0.00000000 0.54792646 0.86021690
0.00000000 0.09459277 0.39005076
0.04306257 0.03748956 0.22159140
0.37016587 0.01756403 0.18088125
0.86345031 0.00002914 0.31480952
1.00134664 0.02532505 0.58571753
1.00116894 0.09999919 0.55065057
1.00098386 0.09923728 0.54022898
1.00098386 0.09923728 0.54022898
0.01090932 0.82982595 0.89648375
0.00000000 0.45555202 0.49514440
0.00000000 0.29173537 0.29207926
0.20646765 0.20646765 0.20646765
0.69767764 0.14581707 0.21853908
1.00124377 0.08303600 0.50952630
1.00140700 0.19296593 0.55449586
1.00133338 0.12858790 0.53987664
1.00097661 0.09933612 0.54015706
0.21060165 1.00077973 0.87697865
0.00000000 0.81641366 0.49839761
0.00002810 0.69458355 0.28492533
0.00598204 0.59907360 0.16137161
0.50841488 0.50473266 0.08565567
0.94719858 0.43422827 0.24800230
1.00116608 0.41134778 0.48238583
1.00127719 0.34119530 0.47194156
1.00130630 0.26231040 0.46093512
0.00000000 0.99992921 0.72945793
0.00000000 1.00116624 0.26061544
0.00000000 0.99172157 0.08622134
0.00000000 0.93271332 0.02125978
0.12520674 0.85590247 0.00000000
0.77728166 0.77541458 0.00000000
1.00068564 0.68636118 0.25182753
1.00114570 0.59128603 0.35142817
1.00066777 0.51387768 0.34066413
0.00000000 1.00034005 0.81011927
0.00000000 1.00147273 0.00000000
0.00000000 1.00147273 0.00000000
0.00000000 1.00147273 0.00000000
0.00000000 1.00147273 0.00000000
0.47079650 0.99740803 0.00002333
0.97989842 0.91954015 0.00000000
1.00066873 0.82314362 0.09286674
1.00047052 0.76035616 0.10662909
0.12243439 1.00002076 0.99868799
0.00000000 1.00123875 0.13388007
0.00000000 1.00147273 0.00000000
0.00000000 1.00147273 0.00000000
0.00000000 1.00147273 0.00000000
0.00000000 1.00143115 0.00000000
0.69216423 1.00111567 0.00001224
0.98363684 0.97922896 0.00755439
0.99538351 0.91591696 0.00002564
0.00000000 1.00166964 1.00043270
0.00000000 1.00143888 0.56455658
0.00000000 1.00128831 0.10266427
0.00000000 1.00147273 0.00000000
0.00000000 1.00147273 0.00000000
0.00000000 1.00147273 0.00000000
0.13131024 1.00140703 0.00058325
0.83559339 1.00124580 0.00000000
0.98177253 1.00138857 0.02102181
0.00499635 0.02493753 0.31760475
0.00018466 0.00144818 0.01129017
0.78529634 0.00000000 0.02252864
1.00012678 0.03329381 0.17882271
1.00182252 0.57645701 0.65428439
0.99951537 0.05279414 0.33582584
1.00162592 0.09675995 0.36913606
1.00098386 0.09955596 0.53875736
1.00098386 0.09923728 0.54022898
0.00516351 0.00000000 0.91358383
0.00640921 0.00000000 0.48733875
0.17706676 0.00000000 0.33011162
0.62414595 0.00003090 0.32900114
0.99759818 0.00000000 0.56935741
1.00117339 0.11404577 0.61170554
1.00090000 0.10195951 0.56409285
1.00094929 0.09915562 0.54129908
1.00098386 0.09923728 0.54022898
0.00000000 0.60554180 1.01089790
0.00319022 0.05669679 0.78750796
0.03438355 0.01169442 0.54132836
0.37832054 0.00000000 0.46182760
0.85654585 0.00000000 0.53083463
1.00138878 0.01742026 0.70826354
1.00130377 0.12111511 0.64322548
1.00118936 0.10783587 0.59209415
1.00107155 0.10043623 0.55046829
0.00000000 0.80627291 1.00683960
0.00059368 0.44648737 0.88487405
0.00000000 0.28802371 0.70108376
0.19547951 0.18974470 0.56962760
0.69480442 0.11794179 0.51893923
1.00131677 0.05590087 0.68198689
1.00132698 0.23514930 0.65728878
1.00130168 0.16461503 0.63199878
1.00099466 0.11416898 0.59876040
0.00000000 0.99025762 1.00516783
0.00000000 0.79840500 0.89614592
0.00000000 0.68220496 0.75175936
0.00068709 0.59171034 0.63448300
0.49478527 0.49478527 0.49478527
0.93289402 0.41591236 0.52422779
1.00100713 0.42695302 0.62506857
1.00127081 0.36751081 0.59954779
1.00126264 0.29225480 0.57430689
0.00514483 1.00156050 0.96545268
0.00000000 0.99734761 0.79604272
0.00000000 0.96196111 0.69886905
0.00000000 0.90231658 0.60382960
0.07245354 0.83029931 0.48429314
0.75807630 0.75816082 0.38097685
1.00121802 0.67751912 0.50701596
1.00116854 0.59464838 0.53398455
1.00118344 0.52524343 0.50471020
0.03553364 1.00135464 0.93313269
0.00000477 1.00129975 0.53484493
0.00000000 1.00118727 0.40540045
0.00000000 1.00124375 0.30440059
0.00000000 1.00121668 0.19835346
0.38625967 0.99745688 0.11483119
0.94946630 0.93812602 0.19232636
1.00080661 0.80792227 0.39198295
1.00109200 0.74915404 0.37222398
0.00000000 0.95956131 1.00882012
0.00002565 1.00093952 0.74908999
0.00003055 1.00121993 0.38712648
0.00000000 1.00145546 0.03665798
0.00000000 1.00145797 0.00000000
0.00000000 1.00146981 0.00000000
0.63197012 1.00135885 0.00000000
0.98506252 1.00137468 0.03867744
0.99781998 0.95198277 0.05047362
0.00000000 0.91422362 1.01238239
0.00001189 0.99262267 0.93928792
0.00000000 1.00122313 0.71773265
0.00001791 1.00130739 0.47550655
0.00003032 1.00142740 0.10088187
0.00000000 1.00145558 0.00069353
0.11332942 1.00125400 0.00000000
0.79290260 1.00103718 0.00000386
0.98178979 1.00144435 0.02107499
0.00000000 0.43610063 0.27617982
0.00387536 0.00000000 0.00000000
0.79903974 0.00000000 0.03624509
1.00016347 0.00000000 0.20389910
1.00082560 0.02840004 0.72328278
0.99993481 0.24021929 0.44010667
0.99760877 0.08021165 0.35008324
1.00035488 0.05885645 0.34310977
1.00081158 0.09671263 0.40548460
0.01468842 0.00000000 0.99994503
0.01121981 0.00000497 0.83909779
0.17712738 0.00000000 0.65307356
0.63329246 0.00000000 0.60586526
0.99774162 0.00000000 0.74354171
1.00089858 0.10612962 0.70807703
1.00134356 0.12494208 0.66231428
1.00132844 0.11373778 0.61149420
1.00062553 0.09980727 0.56223316
0.00000000 0.67044938 1.00155699
0.01080341 0.01884592 0.94305495
0.02814768 0.00000000 0.88143254
0.39713552 0.00000441 0.80441785
0.85577948 0.00002339 0.79201647
1.00143850 0.00000000 0.85130577
1.00125370 0.08645216 0.74411744
1.00139469 0.11592325 0.68912255
1.00138034 0.12234485 0.64322759
0.01954818 0.77850974 1.00004228
0.00000000 0.39497261 1.00145503
0.00000000 0.24543379 1.00009830
0.18553444 0.14525647 0.93752984
0.70160649 0.06598117 0.84126994
1.00145478 0.01533246 0.88139424
1.00135052 0.20176402 0.76268391
1.00134217 0.15479203 0.72928963
1.00124993 0.12433805 0.69467189
0.03406535 0.87353795 1.00068033
0.00000000 0.74866444 1.00120722
0.00000000 0.66118635 1.00138390
0.00000000 0.57482768 0.96914957
0.47661726 0.47632916 0.83969706
0.92315726 0.38405138 0.78852209
1.00113904 0.41705808 0.75711720
1.00124465 0.38877160 0.71210376
1.00125373 0.32802646 0.68397518
0.01343551 0.99139129 1.00173003
0.00000000 0.93579911 1.00147273
0.00000000 0.90656114 0.99933192
0.00066044 0.86951510 0.95973260
0.05033166 0.81033744 0.87957783
0.73461956 0.73461956 0.73461956
1.00115893 0.66030287 0.72547185
1.00070046 0.60501977 0.68654966
1.00106032 0.54070223 0.65385251
0.03221096 0.91548195 1.00986530
0.00000000 0.99746929 0.91374587
0.00000000 0.99810870 0.85704839
0.00000000 0.99991548 0.81466633
0.00000000 0.99738874 0.76882947
0.26776244 0.97965697 0.66901352
0.90590318 0.90116188 0.58962181
1.00101608 0.79515939 0.62250514
1.00110975 0.73730463 0.59420319
0.28800090 0.94905926 0.99987510
0.00000000 0.97865372 1.00140703
0.00000000 0.99808531 0.86080817
0.00000000 1.00126829 0.68489909
0.00000000 1.00123178 0.50599363
0.00000000 1.00133706 0.44040227
0.57059333 1.00122339 0.35710863
0.99055493 1.00002192 0.38154624
0.99817563 0.92335079 0.42790397
0.00000000 0.97388476 1.00147273
0.00000000 0.97388476 1.00147273
0.00000000 0.97911819 1.00067942
0.00000000 0.99774053 0.90160766
0.00000000 1.00112645 0.72966891
0.00002623 1.00122721 0.50828106
0.12989963 1.00135123 0.26757204
0.75032195 1.00130027 0.03960407
0.98530697 1.00114602 0.09054504
0.05969516 0.00000000 0.95099743
0.00000000 0.21618308 0.79174095
0.84226206 0.00000000 0.12609580
0.99883383 0.30435727 0.00000000
1.00533759 0.00000000 0.55397466
1.00166522 0.51403375 0.21856726
1.00099952 0.32198599 0.37777773
0.99998345 0.26891148 0.44360404
0.99907788 0.06486097 0.37951892
0.00419538 0.00000000 0.96865644
0.01469886 0.00000000 0.90933846
0.17002189 0.00003084 0.95209152
0.65763504 0.00000000 0.92013703
0.99690595 0.00000000 0.92880292
1.00137105 0.03075752 0.83224505
1.00142343 0.07432013 0.76692111
1.00124680 0.10556674 0.71002577
1.00129375 0.12401740 0.66215682
0.01633341 0.01933192 0.96920178
0.01553826 0.00000000 0.93283709
0.01577416 0.00000000 0.91462998
0.40912541 0.00000496 1.00017989
0.85864216 0.00000000 0.99766710
1.00143768 0.00000000 0.99416817
1.00140836 0.01186181 0.87189349
1.00131076 0.05005289 0.80511686
1.00132078 0.08631419 0.74445072
0.00000000 0.49267789 1.00181960
0.00067318 0.27224656 1.00129845
0.00000000 0.16546670 1.00000546
0.16274508 0.06749700 0.99972092
0.70898910 0.00650036 1.00095588
1.00147273 0.00000000 1.00124548
1.00141288 0.11604336 0.89859921
1.00127721 0.08876296 0.85214845
1.00129889 0.06616346 0.80639117
0.00000000 0.73711820 1.00167344
0.00002626 0.63187286 1.00139485
0.00021343 0.58282675 1.00143586
0.00016274 0.51764834 1.00131857
0.45418477 0.41848533 1.00122368
0.91634770 0.31729376 0.99875335
1.00143369 0.33514328 0.91842076
1.00136818 0.33463640 0.83363860
1.00136407 0.28063594 0.79817216
0.00000000 0.95477156 0.99732897
0.00000000 0.85360829 1.00141040
0.00000000 0.82393381 1.00123547
0.00000000 0.80055853 1.00141535
0.01773547 0.76128025 1.00143523
0.69990126 0.69611489 0.99502012
1.00054491 0.61306826 0.92873697
1.00142835 0.58763756 0.80998240
1.00135373 0.53652942 0.77660308
0.00000000 0.97653134 1.00147273
0.00003056 0.97369346 1.00147273
0.00068010 0.96936909 1.00147273
0.00000000 0.95941472 1.00115948
0.00000000 0.94467125 1.00134273
0.11959128 0.92023976 0.97878185
0.85762476 0.85762476 0.85762476
1.00120713 0.78049672 0.80328837
1.00141007 0.73038042 0.76353047
0.00000000 0.97388476 1.00147273
0.00000000 0.97388476 1.00147273
0.00001777 0.97429280 1.00141912
0.00000000 0.98067988 0.99654920
0.00000000 0.99779312 0.89849925
0.00000000 0.99926800 0.85000948
0.44904271 1.00029943 0.74940983
0.97831076 0.97854296 0.68708217
1.00013526 0.89543786 0.68710890
0.00000000 0.97388476 1.00147273
0.00000000 0.97388476 1.00147273
0.00000000 0.97388476 1.00147273
0.00000000 0.97391567 1.00147122
0.00000000 0.97860214 0.99890593
0.00002745 0.99733091 0.91220012
0.02388259 1.00125798 0.75685346
0.71730899 1.00132620 0.58737439
0.98947395 1.00120540 0.50783530
0.01498610 0.06874776 0.97005398
0.00253346 0.00000000 0.87576901
0.89240867 0.00000000 1.02077002
1.00043013 0.00384244 0.99923797
1.00674834 0.00000000 1.00168990
1.00159666 0.00000000 0.04496069
0.99780560 0.52423865 0.07463209
1.00174325 0.53543343 0.26865455
1.00179658 0.28938504 0.42379770
0.01575649 0.00821668 0.93831351
0.01564192 0.00488290 0.93610138
0.11905562 0.00000000 0.96772206
0.66647538 0.00000000 1.00113110
0.99664235 0.00000000 1.00119629
1.00142732 0.00000000 0.97778877
1.00143886 0.00341725 0.89920839
1.00138178 0.03398292 0.82924440
1.00139908 0.07204833 0.76965872
0.01566057 0.00525552 0.93642871
0.01566057 0.00525552 0.93642871
0.01565279 0.00486097 0.93624777
0.37324356 0.00000000 1.00068145
0.85889674 0.00000000 1.00111852
1.00147273 0.00000000 1.00124794
1.00147174 0.00000000 0.99761051
1.00145353 0.00000000 0.94797660
1.00143228 0.01418518 0.87371652
0.00000000 0.11432329 0.96461562
0.01384322 0.03053657 0.96112180
0.01463024 0.01791008 0.95037030
0.11588035 0.00000000 0.97934344
0.70805825 0.00000000 1.00114032
1.00147273 0.00000000 1.00124794
1.00133301 0.00057604 1.00105487
1.00129880 0.00060815 0.99745533
1.00136340 0.00046683 0.94783040
0.15866279 0.82298597 1.00175688
0.00068959 0.44641710 1.00146126
0.00000000 0.38568396 1.00135142
0.00000000 0.35279788 1.00139866
0.40608826 0.27892806 1.00139156
0.90069223 0.14950454 1.00049253
1.00137814 0.15594461 1.00112750
1.00101697 0.22535028 0.98573437
1.00119850 0.18351136 0.94372833
0.00000000 1.00200269 1.00056774
0.00000000 0.82014561 1.00136338
0.00003085 0.70670171 1.00134191
0.00000000 0.67784175 1.00140024
0.02725416 0.65091068 1.00139154
0.63840432 0.60981727 1.00132085
0.99740022 0.51447178 1.00129180
1.00125887 0.51257732 0.95167090
1.00128476 0.46817929 0.91012422
0.00000000 0.97388476 1.00147273
0.00000002 0.97377169 1.00147273
0.00000188 0.95092762 1.00146640
0.00001817 0.89862530 1.00147083
0.00000000 0.86628159 1.00140161
0.09218931 0.83846219 1.00115798
0.79639640 0.79386915 1.00107606
1.00112623 0.73308455 0.95207229
1.00136535 0.69589368 0.88392529
0.00000000 0.97388476 1.00147273
0.00000000 0.97388476 1.00147273
0.00000000 0.97388476 1.00147273
0.00000000 0.97388476 1.00147273
0.00000000 0.97387011 1.00147273
0.00014084 0.97243258 1.00141951
0.25372334 0.98510464 0.99899321
0.92719611 0.92719611 0.92719611
1.00058418 0.86873484 0.87365624
0.00000000 0.97388476 1.00147273
0.00000000 0.97388476 1.00147273
0.00000000 0.97388476 1.00147273
0.00000000 0.97388476 1.00147273
0.00000000 0.97388476 1.00147273
0.00000000 0.97402933 1.00146265
0.00052338 0.97872574 0.99756527
0.64436534 1.00129061 0.85752061
0.99626552 1.00133224 0.78113525
0.01566057 0.00525552 0.93642871
0.01566057 0.00525552 0.93642871
0.97002327 0.00000000 1.01670840
1.00009976 0.01823982 0.99735316
1.00676150 0.00000000 1.00180647
1.00147273 0.00000000 1.00118318
1.00152602 0.00000000 0.89485264
1.00162876 0.00000000 0.04165823
0.99613922 0.33806265 0.05710753
0.01566057 0.00525552 0.93642871
0.01566057 0.00525552 0.93642871
0.04450203 0.00000000 0.95466846
0.64872236 0.00000000 1.00076797
0.99567099 0.00000000 1.00125802
1.00147273 0.00000000 1.00124794
1.00147182 0.00000000 1.00023739
1.00144714 0.00000839 0.97500697
1.00145947 0.00363427 0.90033965
0.01566057 0.00525552 0.93642871
0.01566057 0.00525552 0.93642871
0.01566057 0.00525552 0.93642871
0.24456648 0.00000000 0.99753755
0.82873857 0.00000000 1.00118118
1.00147273 0.00000000 1.00124794
1.00147273 0.00000000 1.00124794
1.00147273 0.00000000 1.00124794
1.00147192 0.00000000 0.99734874
0.00054891 0.83374674 1.00379694
0.01566057 0.00525552 0.93642871
0.01566057 0.00525552 0.93642871
0.03080831 0.00387747 0.94278535
0.60926138 0.00001108 1.00122150
0.99190600 0.00000000 1.00131476
1.00147273 0.00000000 1.00124794
1.00147273 0.00000000 1.00124794
1.00147273 0.00000000 1.00124794
0.05857068 0.88154973 0.99839991
0.00000000 0.45481660 1.00126421
0.00000000 0.18952674 0.99755971
0.00993672 0.06442612 0.98003161
0.30672728 0.03486117 1.00139049
0.83746086 0.00000000 1.00105521
1.00147273 0.00000000 1.00123895
1.00145725 0.01511787 1.00105424
1.00147273 0.01264583 1.00126870
0.00000000 1.00312227 1.00180079
0.00000000 0.84094203 1.00146715
0.00000000 0.71211001 1.00133829
0.00000000 0.59532523 1.00141991
0.03466673 0.47168419 1.00136781
0.55584861 0.44941984 1.00117818
0.95886906 0.38690210 1.00113513
1.00129816 0.35839828 1.00057625
1.00142509 0.32928687 1.00112856
0.00000000 0.97388476 1.00147273
0.00000000 0.97388476 1.00147273
0.00029435 0.95994203 1.00146115
0.00000000 0.90780140 1.00145901
0.00003051 0.83381941 1.00138672
0.13924033 0.74611384 1.00144496
0.73044126 0.70494530 1.00133110
0.99957381 0.64192742 1.00115339
1.00124096 0.61425647 1.00105339
0.00000000 0.97388476 1.00147273
0.00000000 0.97388476 1.00147273
0.00000000 0.97388476 1.00147273
0.00000000 0.97388476 1.00147273
0.00000000 0.97370678 1.00147273
0.00003085 0.96469573 1.00135526
0.30739115 0.92405484 1.00139956
0.86496397 0.86344478 1.00090449
1.00121426 0.81841124 1.00082542
0.00000000 0.97388476 1.00147273
0.00000000 0.97388476 1.00147273
0.00000000 0.97388476 1.00147273
0.00000000 0.97388476 1.00147273
0.00000000 0.97388476 1.00147273
0.00000000 0.97387639 1.00147273
0.00066984 0.97309188 1.00146609
0.53274182 1.00098922 1.00144466
0.99319622 0.99319622 0.99319622
