LUT/Classic Chrome.cube
TITLE "AppleLog_Rec2020-LA:FLog2C_to_CLASSICCHROME_LA:FLog2C_to_CLASSICCHROME"
LUT_3D_SIZE 5
# Apple Log/Rec2020 -> LA - :FLog2C_to_CLASSIC-CHROME/LA - :FLog2C_to_CLASSIC-CHROME, CineEI Shift 0.00, Black Level -0.01% IRE, Input 109% -> Output 100% - Created with LUTCalc v4.09 by Ben Turley February 2025
0.00000000 0.00000000 0.00000000
0.86726254 0.18557423 0.45922160
0.91522423 0.72828478 0.69774557
0.95886427 0.37365853 0.44863263
0.95886427 0.37365853 0.44863263
0.00000000 0.22631190 0.00000000
0.13816453 0.00919633 0.00247266
0.94256445 0.18154172 0.30462458
0.95886427 0.37365853 0.44863263
0.95886427 0.37365853 0.44863263
0.08683027 0.90056751 0.05927252
0.00000000 0.47458956 0.04893612
0.69394811 0.36847445 0.02420234
0.95852172 0.48556515 0.42249995
0.95312645 0.40475344 0.43559634
0.04748984 0.96703204 0.03304623
0.04748984 0.96703204 0.03304623
0.08229826 0.92706476 0.04612071
0.96806739 0.83113008 0.15549196
0.94063307 0.71664390 0.22989887
0.04748984 0.96703204 0.03304623
0.04748984 0.96703204 0.03304623
0.04748984 0.96703204 0.03304623
0.55927635 0.95301117 0.12467030
0.96421330 0.97199833 0.21054377
0.00000000 0.00665748 0.02924146
0.79965577 0.08526255 0.00000000
0.94651260 0.68839397 0.68723731
0.95886427 0.37365853 0.44863263
0.95886427 0.37365853 0.44863263
0.00000000 0.45168450 0.50798354
0.03409227 0.03409227 0.03409227
0.84210031 0.09859419 0.15908698
0.95886427 0.37365853 0.44863263
0.95886427 0.37365853 0.44863263
0.09801837 0.95313122 0.62248421
0.00974306 0.61267920 0.01159882
0.51258638 0.45078726 0.02311258
0.95517833 0.55001164 0.39264623
0.95788304 0.45763718 0.41535306
0.04748984 0.96703204 0.03304623
0.04748984 0.96703204 0.03304623
0.04668166 0.95954635 0.03240845
0.95519027 0.90157604 0.16918108
0.95175307 0.77732094 0.18705019
0.07632595 0.96756737 0.94964534
0.04748984 0.96703204 0.03304623
0.04748984 0.96703204 0.03304623
0.18250498 0.96575948 0.04976143
0.96447764 0.97286381 0.21094110
0.00000000 0.00000000 0.17867241
0.74881782 0.11746287 0.01630479
1.00029051 0.77270128 0.51569038
0.95072831 0.35702457 0.33852010
0.95886427 0.37365853 0.44863263
0.00685671 0.51639417 0.91056419
0.01998097 0.01909959 0.37872268
0.81896214 0.05911216 0.40338064
0.95961864 0.39152440 0.53602290
0.95902205 0.37493668 0.45640752
0.12100142 0.92608528 0.95016204
0.02748269 0.65943116 0.65894625
0.48904473 0.48904473 0.48904473
0.95406038 0.58444001 0.61723344
0.95771724 0.49156159 0.53163166
0.11331911 0.95169217 0.89590979
0.06795671 0.96302099 0.49622731
0.05776011 0.95797250 0.34952337
0.93442095 0.90620546 0.48039773
0.95744135 0.79404385 0.53853998
0.13032932 0.94575008 1.00179262
0.08314895 0.96004228 0.71349667
0.05658487 0.96594127 0.26841639
0.11598655 0.96647181 0.04015094
0.96452258 0.97291574 0.21098654
0.08703101 0.64104036 0.46293167
0.83788437 0.00000000 0.12764988
1.00045455 0.85646512 0.51756595
0.97057614 0.46773106 0.41368801
0.96674321 0.33013886 0.33515908
0.00728472 0.00000000 1.00573392
0.00685651 0.00000381 0.89420723
0.82269675 0.00685737 0.78681984
0.96015523 0.32637822 0.68546640
0.95950027 0.37489112 0.60691244
0.03539778 0.74036710 0.95959416
0.02929091 0.58335114 0.96607071
0.45190987 0.45047024 0.90343765
0.95563545 0.53599607 0.80141641
0.95705448 0.49442370 0.70436313
0.10771831 0.97349206 0.92447796
0.09135283 0.94069335 0.93570246
0.07906378 0.90958522 0.90547983
0.87987849 0.87987849 0.87987849
0.96336081 0.80792396 0.80932606
0.09878028 0.95606105 0.93171804
0.09878028 0.95606105 0.93171804
0.09666156 0.95780925 0.90828776
0.09159395 0.95902442 0.74508517
0.98208059 0.98753056 0.71738361
0.00568382 0.00000000 0.99803197
0.95540710 0.00000000 0.99706489
1.00103856 0.02420937 0.04657802
0.94823513 0.54977706 0.47765428
0.96991711 0.48860853 0.46167322
0.00568382 0.00000000 0.99803197
0.00568382 0.00000000 0.99803197
0.79471675 0.00760370 0.99306305
0.96788987 0.08729086 0.86668095
0.96307880 0.23190996 0.77624911
0.11905366 0.89314619 0.91774119
0.00656144 0.14479784 0.99816156
0.29696200 0.03013284 0.99889200
0.96392458 0.21432369 0.97255689
0.96076749 0.33529526 0.86567949
0.09994707 0.95726414 0.93265087
0.08870693 0.93184474 0.93900177
0.05939920 0.82571924 0.95628580
0.75991367 0.75993880 0.95899994
0.96178047 0.73703188 0.93343410
0.09878028 0.95606105 0.93171804
0.09878028 0.95606105 0.93171804
0.09878028 0.95606105 0.93171804
0.09813790 0.95712098 0.93364127
0.99151673 0.99151673 0.99151673
