LUT/Classic Neg.cube
TITLE "Classic Neg."
LUT_3D_SIZE 5
# Apple Log/Rec2020 -> LA - :FLog2C_to_CLASSIC-Neg./LA - :FLog2C_to_CLASSIC-Neg., CineEI Shift 0.00, Black Level -0.01% IRE, Input 109% -> Output 100% - Created with LUTCalc v4.09 by Ben Turley February 2025
0.00000000 0.00000000 0.00000000
0.90010572 0.03236572 0.12249927
0.97013935 0.67752429 0.70773974
0.95136136 0.27911240 0.27473191
0.95136136 0.27911240 0.27473191
0.00429332 0.28443156 0.06758621
0.14903831 0.01012906 0.00000000
0.91858200 0.14279838 0.10542202
0.95136136 0.27911240 0.27473191
0.95136136 0.27911240 0.27473191
0.05283806 0.91114592 0.14824118
0.01220231 0.40296926 0.06795328
0.69359054 0.33483696 0.00000000
0.95258404 0.39727217 0.27833730
0.94882483 0.31567885 0.27318771
0.02986659 0.94566151 0.15715994
0.02986659 0.94566151 0.15715994
0.03122990 0.90493802 0.16150190
0.96423005 0.83069263 0.03635917
0.95888193 0.69992428 0.16413392
0.04776310 0.93676516 0.15715994
0.02986659 0.94566151 0.15715994
0.02986659 0.94566151 0.15715994
0.05225991 0.94579105 0.15423391
0.93897265 0.99269461 0.03278196
0.00000000 0.54799834 0.06007327
0.83324057 0.04559413 0.00000000
0.98112121 0.71804409 0.81988689
0.95136136 0.27911240 0.27473191
0.95136136 0.27911240 0.27473191
0.02790900 0.50436380 0.63982726
0.05179978 0.06044483 0.04711179
0.84735566 0.10332435 0.01855839
0.95136136 0.27911240 0.27473191
0.95136136 0.27911240 0.27473191
0.09102984 0.94755188 0.83604048
0.02205566 0.58510322 0.20492535
0.41177736 0.40549538 0.07242042
0.95597901 0.47213077 0.26329354
0.95312893 0.36423559 0.26370418
0.03772629 0.94668408 0.35707214
0.02888709 0.94640557 0.15715994
0.02977777 0.94002378 0.15641893
0.94387454 0.93011201 0.03608357
0.96016240 0.78497663 0.16519567
0.09083660 0.95128791 0.95783677
0.03226443 0.94587169 0.26274686
0.02986659 0.94566151 0.15715994
0.02915383 0.94453165 0.15625486
0.93472594 0.99497217 0.03640400
0.03566748 0.01651253 0.14053918
0.67910054 0.00521487 0.00000000
0.99996434 0.74638924 0.36511275
0.94637649 0.25296413 0.17033189
0.95136136 0.27911240 0.27473191
0.45941726 0.71569049 0.93068816
0.12145436 0.08332473 0.31784697
0.84657517 0.10086933 0.21836654
0.95647735 0.30948932 0.38035721
0.95191691 0.28120415 0.28354963
0.08589783 0.93705444 1.00722441
0.04761047 0.68780656 0.82214106
0.50523793 0.49585012 0.49023230
0.96844479 0.53803565 0.53186110
0.96033341 0.41646224 0.40199303
0.05782056 0.93797382 1.00243917
0.05549292 0.94259542 0.83153469
0.05113293 0.93888058 0.73019671
0.94251613 0.93389967 0.52688860
0.97417926 0.80863501 0.50355261
0.07952244 0.95248006 0.99998320
0.06081973 0.94269082 0.96444783
0.04971386 0.94308366 0.68424666
0.03375800 0.94415127 0.29933093
0.94130295 0.99465702 0.16183961
0.20974628 0.09321268 0.80063050
0.57391703 0.00140581 0.12146544
1.00022923 0.72107141 0.40743658
0.95149598 0.35661921 0.28259382
0.94120755 0.23636611 0.18070871
0.89171050 0.57667307 0.96214953
0.42610976 0.17000222 0.83765953
0.89753326 0.11076479 0.65790164
0.96197436 0.27734239 0.56911783
0.95975798 0.30325505 0.47072265
0.38139237 0.81783228 0.99894010
0.42451426 0.73009158 1.00041302
0.76850316 0.59289434 0.90621605
0.97641794 0.52866147 0.75888063
0.96971629 0.45425439 0.63050203
0.06688087 0.94261596 1.00050693
0.06614816 0.93848802 1.00042514
0.06565450 0.91950278 1.00049362
0.94361270 0.92216994 0.91938838
0.98610645 0.83246344 0.81818330
0.06688087 0.94261596 1.00050693
0.06688087 0.94261596 1.00050693
0.06572816 0.94239822 1.00039525
0.06282924 0.94207729 0.98478995
0.97438998 0.99289521 0.77095811
0.63876292 0.29821707 0.92544431
0.91922640 0.22585061 0.78672766
0.96816924 0.00001454 0.42410748
0.96237399 0.39674224 0.43214689
0.95194241 0.36178565 0.31981716
0.68078133 0.29035648 0.92126138
0.66897741 0.29046189 0.92299721
0.94055227 0.27033133 0.88153744
0.96695572 0.17645276 0.74943019
0.96535615 0.23613988 0.66734900
0.21057816 0.90969267 1.00087253
0.66143119 0.47692911 0.95594668
0.82430303 0.39062066 0.91863746
0.97867049 0.40552399 0.89417713
0.97296733 0.36979361 0.79498874
0.06688087 0.94261596 1.00050693
0.06581441 0.93362878 1.00038873
0.22503280 0.87337586 1.00035170
0.92798290 0.84975156 0.98133103
0.98935880 0.78685581 0.92838492
0.06688087 0.94261596 1.00050693
0.06688087 0.94261596 1.00050693
0.06688087 0.94261596 1.00050693
0.07891405 0.94326390 1.00050693
0.99668750 0.99569258 0.99505420
