LUT/Classic Chrome.cube
TITLE "AppleLog_Rec2020-LA:FLog2C_to_CLASSICCHROME_LA:FLog2C_to_CLASSICCHROME"
LUT_3D_SIZE 33
# Apple Log/Rec2020 -> LA - :FLog2C_to_CLASSIC-CHROME/LA - :FLog2C_to_CLASSIC-CHROME, CineEI Shift 0.00, Black Level -0.01% IRE, Input 109% -> Output 100% - Created with LUTCalc v4.09 by Ben Turley February 2025
0.00000000 0.00000000 0.00000000
0.00000000 0.00000000 0.00000000
0.00000000 0.00000000 0.00000000
0.00000000 0.00000000 0.00000000
0.53704898 0.46409621 0.73047261
0.66485832 0.01963055 0.00000000
0.79898983 0.06508866 0.00424589
0.83625998 0.10405985 0.27697895
0.86726254 0.18557423 0.45922160
0.91613732 0.48447284 0.18183641
0.98174717 0.51258333 0.44648348
1.00008948 0.57878468 0.57197991
1.00911764 0.65512031 0.71130813
1.01963666 0.72205672 0.82993545
1.01113067 0.74177879 0.83687400
1.00156918 0.76139520 0.79061578
0.91522423 0.72828478 0.69774557
0.93599706 0.59430165 0.58864393
0.95285458 0.42229635 0.47928815
0.95886427 0.37365853 0.44863263
0.95886427 0.37365853 0.44863263
0.95886427 0.37365853 0.44863263
0.95886427 0.37365853 0.44863263
0.95886427 0.37365853 0.44863263
0.95886427 0.37365853 0.44863263
0.95886427 0.37365853 0.44863263
0.95886427 0.37365853 0.44863263
0.95886427 0.37365853 0.44863263
0.95886427 0.37365853 0.44863263
0.95886427 0.37365853 0.44863263
0.95886427 0.37365853 0.44863263
0.95886427 0.37365853 0.44863263
0.95886427 0.37365853 0.44863263
0.00000000 0.00000000 0.00000000
0.00000000 0.00000000 0.00000000
0.00000000 0.00000000 0.00000000
0.00000000 0.00000000 0.00000000
0.18653953 0.05929951 0.37165724
0.29206134 0.01453479 0.00000000
0.49111062 0.02700366 0.00000000
0.60187037 0.05235982 0.06676141
0.68389861 0.07735867 0.15124035
0.79743169 0.18817133 0.06025352
0.89099599 0.20583191 0.19014892
0.94404401 0.24793178 0.28138712
1.00061231 0.34608799 0.42139959
1.00682262 0.43460044 0.59800853
1.00326174 0.49106077 0.63683935
0.98367509 0.54439322 0.61049722
0.93442891 0.54704921 0.57223984
0.94638124 0.47507388 0.51919654
0.95526488 0.39074888 0.45935156
0.95886427 0.37365853 0.44863263
0.95886427 0.37365853 0.44863263
0.95886427 0.37365853 0.44863263
0.95886427 0.37365853 0.44863263
0.95886427 0.37365853 0.44863263
0.95886427 0.37365853 0.44863263
0.95886427 0.37365853 0.44863263
0.95886427 0.37365853 0.44863263
0.95886427 0.37365853 0.44863263
0.95886427 0.37365853 0.44863263
0.95886427 0.37365853 0.44863263
0.95886427 0.37365853 0.44863263
0.95886427 0.37365853 0.44863263
0.95886427 0.37365853 0.44863263
0.00000000 0.00000000 0.00000000
0.00000000 0.00000000 0.00000000
0.00000000 0.00000000 0.00000000
0.00000000 0.00000000 0.00000000
0.09246785 0.01277380 0.21760204
0.15584811 0.01268055 0.00000000
0.32981054 0.01768878 0.00000000
0.45222149 0.03749687 0.02906285
0.54730261 0.05040329 0.07584855
0.67523423 0.10480772 0.03358757
0.82793619 0.11509382 0.11486467
0.89624866 0.13871059 0.17622308
0.98369246 0.22092225 0.29227298
1.00151486 0.30335960 0.45399975
1.00000719 0.36753662 0.50918695
0.97253875 0.43180103 0.51464050
0.94256085 0.45660227 0.51232323
0.95032306 0.42245353 0.48881101
0.95624941 0.37832412 0.45102565
0.95886427 0.37365853 0.44863263
0.95886427 0.37365853 0.44863263
0.95886427 0.37365853 0.44863263
0.95886427 0.37365853 0.44863263
0.95886427 0.37365853 0.44863263
0.95886427 0.37365853 0.44863263
0.95886427 0.37365853 0.44863263
0.95886427 0.37365853 0.44863263
0.95886427 0.37365853 0.44863263
0.95886427 0.37365853 0.44863263
0.95886427 0.37365853 0.44863263
0.95886427 0.37365853 0.44863263
0.95886427 0.37365853 0.44863263
0.95886427 0.37365853 0.44863263
0.00000000 0.00000000 0.00000000
0.00000000 0.00000000 0.00000000
0.00000000 0.00000000 0.00000000
0.00000000 0.00000000 0.00000000
0.02809311 0.00695771 0.04362779
0.09883383 0.00845997 0.00980379
0.21476853 0.00697730 0.00001698
0.33573935 0.01614676 0.01232245
0.43147922 0.02028661 0.03601336
0.55574344 0.04340155 0.02586890
0.72556533 0.05991140 0.08129681
0.83573007 0.07055774 0.12011049
0.91274399 0.14123335 0.20816205
0.98561448 0.21741676 0.32774961
0.99706599 0.28782184 0.40273700
0.97120701 0.35064731 0.44624418
0.95064279 0.39413425 0.47234682
0.95637415 0.39861785 0.47380204
0.95881705 0.37833008 0.45191737
0.95886427 0.37365853 0.44863263
0.95886427 0.37365853 0.44863263
0.95886427 0.37365853 0.44863263
0.95886427 0.37365853 0.44863263
0.95886427 0.37365853 0.44863263
0.95886427 0.37365853 0.44863263
0.95886427 0.37365853 0.44863263
0.95886427 0.37365853 0.44863263
0.95886427 0.37365853 0.44863263
0.95886427 0.37365853 0.44863263
0.95886427 0.37365853 0.44863263
0.95886427 0.37365853 0.44863263
0.95886427 0.37365853 0.44863263
0.95886427 0.37365853 0.44863263
0.00000000 0.00000000 0.00000000
0.00000000 0.00000000 0.00000000
0.00000000 0.00000000 0.00000000
0.00000000 0.00000000 0.00000000
0.00000000 0.00000680 0.00000251
0.02880200 0.00138695 0.07255140
0.12521831 0.00000000 0.00361836
0.23888617 0.00311514 0.00655038
0.31383467 0.00990561 0.01480894
0.45247483 0.00912329 0.04601366
0.57759013 0.02026990 0.05493308
0.68916398 0.05306452 0.06680907
0.81326499 0.10125646 0.11443673
0.90943047 0.13715877 0.19798547
0.96680156 0.19680859 0.30513385
0.97570616 0.26406933 0.38391745
0.96786875 0.31857094 0.43047591
0.96978091 0.36018744 0.45667313
0.96654431 0.37989045 0.46266227
0.95886427 0.37365853 0.44863263
0.95886427 0.37365853 0.44863263
0.95886427 0.37365853 0.44863263
0.95886427 0.37365853 0.44863263
0.95886427 0.37365853 0.44863263
0.95886427 0.37365853 0.44863263
0.95886427 0.37365853 0.44863263
0.95886427 0.37365853 0.44863263
0.95886427 0.37365853 0.44863263
0.95886427 0.37365853 0.44863263
0.95886427 0.37365853 0.44863263
0.95886427 0.37365853 0.44863263
0.95886427 0.37365853 0.44863263
0.95886427 0.37365853 0.44863263
0.31385679 0.29340235 0.00000000
0.03767324 0.06513036 0.00000000
0.00871175 0.02628257 0.00000000
0.00000000 0.01161527 0.00000000
0.00000000 0.00145393 0.00000000
0.07526282 0.14168514 0.00000000
0.10054195 0.00018011 0.00000000
0.13714540 0.00000000 0.00597817
0.20231860 0.00062560 0.01142512
0.32492441 0.00943703 0.01038351
0.44560950 0.02909829 0.02848043
0.61084509 0.01752904 0.07701008
0.73240330 0.05177877 0.13465196
0.82206833 0.09942687 0.17338855
0.91370571 0.15255305 0.24608761
0.96196369 0.22281597 0.33215411
0.96589547 0.30457212 0.39598228
0.95214898 0.36544741 0.43355757
0.96413991 0.39703217 0.45431361
0.96628968 0.39926805 0.47023973
0.95886427 0.37365853 0.44863263
0.95886427 0.37365853 0.44863263
0.95886427 0.37365853 0.44863263
0.95886427 0.37365853 0.44863263
0.95886427 0.37365853 0.44863263
0.95886427 0.37365853 0.44863263
0.95886427 0.37365853 0.44863263
0.95886427 0.37365853 0.44863263
0.95886427 0.37365853 0.44863263
0.95886427 0.37365853 0.44863263
0.95886427 0.37365853 0.44863263
0.95886427 0.37365853 0.44863263
0.95886427 0.37365853 0.44863263
0.06278373 0.31831382 0.00000000
0.00848060 0.10292676 0.00000000
0.00071251 0.05549026 0.00000000
0.00000000 0.03165417 0.00000000
0.00000000 0.00468883 0.00000000
0.02029984 0.00419535 0.00000000
0.06685483 0.00002047 0.00572426
0.11300091 0.00000000 0.07659756
0.15863883 0.00319311 0.04917515
0.24568642 0.00609586 0.02939517
0.36561785 0.00652777 0.10652633
0.51780046 0.01102049 0.10570990
0.64910030 0.03232945 0.09045809
0.77216419 0.07074310 0.10831787
0.86935209 0.10573215 0.17562348
0.95046281 0.15082105 0.27308069
0.99675797 0.21548864 0.35423417
0.98811657 0.29255695 0.40857782
0.96539017 0.35628882 0.43942281
0.95703656 0.38947072 0.46451896
0.95885726 0.37387046 0.44871050
0.95886407 0.37366472 0.44863491
0.95886427 0.37365853 0.44863263
0.95886427 0.37365853 0.44863263
0.95886427 0.37365853 0.44863263
0.95886427 0.37365853 0.44863263
0.95886427 0.37365853 0.44863263
0.95886427 0.37365853 0.44863263
0.95886427 0.37365853 0.44863263
0.95886427 0.37365853 0.44863263
0.95886427 0.37365853 0.44863263
0.95886427 0.37365853 0.44863263
0.95886427 0.37365853 0.44863263
0.00000000 0.27794854 0.00000000
0.00000714 0.11371967 0.00000000
0.00245978 0.07202737 0.00007672
0.01043971 0.05227696 0.00114376
0.00000000 0.03130072 0.00000000
0.00000000 0.00701748 0.00000000
0.00846819 0.00886029 0.01790643
0.06528384 0.00508943 0.10550716
0.12768317 0.00537481 0.14723627
0.18489072 0.00682626 0.02717514
0.31155952 0.01181961 0.10751952
0.46111087 0.01349941 0.08682602
0.59555636 0.01746963 0.06384434
0.72161100 0.03277227 0.08344910
0.82440260 0.06434239 0.13758830
0.91856864 0.12345337 0.22515853
0.98058626 0.20041178 0.32943117
0.99368808 0.26690062 0.41059061
0.96502729 0.31853208 0.45007101
0.96307263 0.36696662 0.45231338
0.95822297 0.38866805 0.45253102
0.95884515 0.37423679 0.44884482
0.95886427 0.37365853 0.44863263
0.95886427 0.37365853 0.44863263
0.95886427 0.37365853 0.44863263
0.95886427 0.37365853 0.44863263
0.95886427 0.37365853 0.44863263
0.95886427 0.37365853 0.44863263
0.95886427 0.37365853 0.44863263
0.95886427 0.37365853 0.44863263
0.95886427 0.37365853 0.44863263
0.95886427 0.37365853 0.44863263
0.95886427 0.37365853 0.44863263
0.00000000 0.22631190 0.00000000
0.00000000 0.10727417 0.00000000
0.00374978 0.07446125 0.00000000
0.04083840 0.06191086 0.00000000
0.02643582 0.05881262 0.00000000
0.00000000 0.01449138 0.00000000
0.01813888 0.01293127 0.03164123
0.04453652 0.01119406 0.16185105
0.13816453 0.00919633 0.00247266
0.17436092 0.01266159 0.00531182
0.27005919 0.02212938 0.03884549
0.40867070 0.01890280 0.05210406
0.54440199 0.02156419 0.07086422
0.67497493 0.02351739 0.08391170
0.79061577 0.04465464 0.11441927
0.87980503 0.09902130 0.18991907
0.94256445 0.18154172 0.30462458
0.97426035 0.25292879 0.40024795
0.96057642 0.30302545 0.43853111
0.95557597 0.35742210 0.43108861
0.95431407 0.40736467 0.45011042
0.95872971 0.37486706 0.44880264
0.95886427 0.37365853 0.44863263
0.95886427 0.37365853 0.44863263
0.95886427 0.37365853 0.44863263
0.95886427 0.37365853 0.44863263
0.95886427 0.37365853 0.44863263
0.95886427 0.37365853 0.44863263
0.95886427 0.37365853 0.44863263
0.95886427 0.37365853 0.44863263
0.95886427 0.37365853 0.44863263
0.95886427 0.37365853 0.44863263
0.95886427 0.37365853 0.44863263
0.00000000 0.28773867 0.00000000
0.00000000 0.13592280 0.00000000
0.00000000 0.09358266 0.00000000
0.00922537 0.07954988 0.00000000
0.21886853 0.07846956 0.00000000
0.00000000 0.04435744 0.00000000
0.06850676 0.03490034 0.00000000
0.01015372 0.03418508 0.00000000
0.14001737 0.02661742 0.00001543
0.19950039 0.02332643 0.00000000
0.21309185 0.02701762 0.02047072
0.33197639 0.02448062 0.01817705
0.48111836 0.02391905 0.03807728
0.63466752 0.03662759 0.06146828
0.75718499 0.06025489 0.09577840
0.84373180 0.10098117 0.16684638
0.91643223 0.15318861 0.27374748
0.96921843 0.20561888 0.36980582
0.97789346 0.26435895 0.42414758
0.95632423 0.33550395 0.42221507
0.94967386 0.40043406 0.43403679
0.95893727 0.37790559 0.45038480
0.95746610 0.37245271 0.45006334
0.95852542 0.37321927 0.44890278
0.95886427 0.37365853 0.44863263
0.95886427 0.37365853 0.44863263
0.95886427 0.37365853 0.44863263
0.95886427 0.37365853 0.44863263
0.95886427 0.37365853 0.44863263
0.95886427 0.37365853 0.44863263
0.95886427 0.37365853 0.44863263
0.95886427 0.37365853 0.44863263
0.95886427 0.37365853 0.44863263
0.61365906 0.42411761 0.00000000
0.47949759 0.21726551 0.00000000
0.41944619 0.14922144 0.00000000
0.39123626 0.12046993 0.00000000
0.02968252 0.13912187 0.02470529
0.00000546 0.10666092 0.00000000
0.00000000 0.06858021 0.00000000
0.00000000 0.06586486 0.00000000
0.06501736 0.05849913 0.00000000
0.15325519 0.04097100 0.00000000
0.21648675 0.03714883 0.00001799
0.29390458 0.04247496 0.01541418
0.43437754 0.05287468 0.00284173
0.58205702 0.05121036 0.02892450
0.71577632 0.06814435 0.05943804
0.81858331 0.09967745 0.10813575
0.90044582 0.13532070 0.21191915
0.96256849 0.18020638 0.33096604
0.98520123 0.24682285 0.40171824
0.95829077 0.32399041 0.43063874
0.95911989 0.38397520 0.43485748
0.96157466 0.39226395 0.45936773
0.95239582 0.36965077 0.45575023
0.95669418 0.37054552 0.45082420
0.95899782 0.37224759 0.44923020
0.95924006 0.37215631 0.44921860
0.95904002 0.37278978 0.44898088
0.95887091 0.37362570 0.44864580
0.95886427 0.37365853 0.44863263
0.95886427 0.37365853 0.44863263
0.95886427 0.37365853 0.44863263
0.95886427 0.37365853 0.44863263
0.95886427 0.37365853 0.44863263
0.00794027 0.52397358 0.95267310
0.00000000 0.30931643 0.95506898
0.00000000 0.22626637 0.95604971
0.00000000 0.18763994 0.71974228
0.00000000 0.19286402 0.00000000
0.00000000 0.16268731 0.00000000
0.00000000 0.11835099 0.00000000
0.00000000 0.10394026 0.00000000
0.01257087 0.08773525 0.00000000
0.12208402 0.06501103 0.00000000
0.17648313 0.05625999 0.00000000
0.28579473 0.06683057 0.00000000
0.39313878 0.07939318 0.00000000
0.52357880 0.08267466 0.01565385
0.66076761 0.09877437 0.03249001
0.78619265 0.12591675 0.07391132
0.87738877 0.15745631 0.18752308
0.94333905 0.19640874 0.30819988
0.97619467 0.25769735 0.36019062
0.95545681 0.32352952 0.41780767
0.96305431 0.36914313 0.44297293
0.97001003 0.40911530 0.46619008
0.95581952 0.38315796 0.46111687
0.95373130 0.36242650 0.45830594
0.95971850 0.36069570 0.45446989
0.96262687 0.36002513 0.45385667
0.96094658 0.36523783 0.45192142
0.95893958 0.37328631 0.44878185
0.95886427 0.37365853 0.44863263
0.95886427 0.37365853 0.44863263
0.95886427 0.37365853 0.44863263
0.95886427 0.37365853 0.44863263
0.95886427 0.37365853 0.44863263
0.00000000 0.64826174 0.94632608
0.00000000 0.41334318 0.90408995
0.00000000 0.31426521 0.88352024
0.00000000 0.25610756 0.22231822
0.00000000 0.25324586 0.00000000
0.00000000 0.21818177 0.00000000
0.00000000 0.17575351 0.00000000
0.00000000 0.15382768 0.00000000
0.01077483 0.13999584 0.33885294
0.04406893 0.10431734 0.00000000
0.15181105 0.10039416 0.00000000
0.25968150 0.10064994 0.00000000
0.36701054 0.10884273 0.00000000
0.48694717 0.11106906 0.01877582
0.61399375 0.12276392 0.01599343
0.73782761 0.15712043 0.04598265
0.83184807 0.19747541 0.13680687
0.91145607 0.24029178 0.22187404
0.97277287 0.29160337 0.31792595
0.98011095 0.33873265 0.41682629
0.96061723 0.36711224 0.45908361
0.97055149 0.40357092 0.45940867
0.95928125 0.40863299 0.45579340
0.95786510 0.38263353 0.45031968
0.96186839 0.37351727 0.44861327
0.95937537 0.36454014 0.44565826
0.95725605 0.37026213 0.44434608
0.95958954 0.37676390 0.44729646
0.95988147 0.36296768 0.45015649
0.95574216 0.35798785 0.44681065
0.95842217 0.37148083 0.44845944
0.95885066 0.37359141 0.44862730
0.95886427 0.37365853 0.44863263
0.00000000 0.75437742 0.96070623
0.00000000 0.53809780 0.91607235
0.00000000 0.42673437 0.89438891
0.00001620 0.35497625 0.55582075
0.00000000 0.33641315 0.00000000
0.00000000 0.30391439 0.00000000
0.00724579 0.24746589 0.00000000
0.01273616 0.21905556 0.00000000
0.13287629 0.19958646 0.00717680
0.02656253 0.16501744 0.00000000
0.17685965 0.15537613 0.00000000
0.19869717 0.15126546 0.00000000
0.33279314 0.15738814 0.00000000
0.45957237 0.15696618 0.03794073
0.57717674 0.16278584 0.01083658
0.69402706 0.18635316 0.00831297
0.79282960 0.22427704 0.05457152
0.87425941 0.26433999 0.14998592
0.95003221 0.31029745 0.25285502
0.99576816 0.35876848 0.36425542
0.96390588 0.38737605 0.43902861
0.97007532 0.40399621 0.44302341
0.95709205 0.43398410 0.45337114
0.95683913 0.40645287 0.45199786
0.96695673 0.39432189 0.44302006
0.96340356 0.38696401 0.43800222
0.95888351 0.38572152 0.44399498
0.96066716 0.38759065 0.45279037
0.95967917 0.38013613 0.45405705
0.95671950 0.37114805 0.45219490
0.96061973 0.36968780 0.45082019
0.96648372 0.37169052 0.45623245
0.96100617 0.37404421 0.44981982
0.00000000 0.81840133 0.78932770
0.00000000 0.64046815 0.55904558
0.00000000 0.53723121 0.43453637
0.00000000 0.46444335 0.11883322
0.00196079 0.43524295 0.00001093
0.00000000 0.39668053 0.00000000
0.00000000 0.33314785 0.00000000
0.00000000 0.30074899 0.00000000
0.00000000 0.27107496 0.00161866
0.02130399 0.24699631 0.00000000
0.11190712 0.23633589 0.00000000
0.17186972 0.21919098 0.00000000
0.29207515 0.21228486 0.00000000
0.40992680 0.20520260 0.00000000
0.53699140 0.21207167 0.00669444
0.65978983 0.23212922 0.01834439
0.76309293 0.25802110 0.03760200
0.84627013 0.29114186 0.08726850
0.92354572 0.33571880 0.18677800
0.98234176 0.38339229 0.30457686
0.96445482 0.41037270 0.39082217
0.96663298 0.41096096 0.41165099
0.96309559 0.44156098 0.44540369
0.95915021 0.43466482 0.44331255
0.97186710 0.42106948 0.43733955
0.96984117 0.41104929 0.43004770
0.96053644 0.40368547 0.43193757
0.96075026 0.40441757 0.44741898
0.96283360 0.40339034 0.45777968
0.95660731 0.38723775 0.45121591
0.96373611 0.37359084 0.44208011
0.96999687 0.37091538 0.44072050
0.96036220 0.36886625 0.45547039
0.02560257 0.86108706 0.32104137
0.01240922 0.73686358 0.11077377
0.00862363 0.64750726 0.06216767
0.00764927 0.57713208 0.01915320
0.00209425 0.54344377 0.00000000
0.00398786 0.49459380 0.01097812
0.00000000 0.43036100 0.00000000
0.00000000 0.39559453 0.10194578
0.00000000 0.36406186 0.04958813
0.00562350 0.34741339 0.00000000
0.02264475 0.33633800 0.00000000
0.12489474 0.31437121 0.00000000
0.24636280 0.29463670 0.00000000
0.36346664 0.27829213 0.00000000
0.48469780 0.27664885 0.00879308
0.61482887 0.29093573 0.02060193
0.73026320 0.31008524 0.03683352
0.82139977 0.33370079 0.04730559
0.89435014 0.37253818 0.10391135
0.96145920 0.42003687 0.24693444
0.97546564 0.44526004 0.34308160
0.95929365 0.44537803 0.37264964
0.96325355 0.45606898 0.43166013
0.96018008 0.46891123 0.44227465
0.96665799 0.45438864 0.43655646
0.96832369 0.44217443 0.42071107
0.96143363 0.43397749 0.41840320
0.96159007 0.42707949 0.43579366
0.96495878 0.41979163 0.44950223
0.95423642 0.40314677 0.44207557
0.96030779 0.38943347 0.42782318
0.96382847 0.38138595 0.42737964
0.95507322 0.38006897 0.45000203
0.08683027 0.90056751 0.05927252
0.04942949 0.81412631 0.02136181
0.03776908 0.74058126 0.01332111
0.02895038 0.67497551 0.00938406
0.01205001 0.64501244 0.00000000
0.00902156 0.58845891 0.00332127
0.00443438 0.54028605 0.00000000
0.00000000 0.50436938 0.11330446
0.00000000 0.47458956 0.04893612
0.00263194 0.45653948 0.00000000
0.00527490 0.43583946 0.00000000
0.04477810 0.41510927 0.00000000
0.17083046 0.39097515 0.00000000
0.33442199 0.37167182 0.01546816
0.44894983 0.35545882 0.01144007
0.57203830 0.35587888 0.00964812
0.69394811 0.36847445 0.02420234
0.79446046 0.38540839 0.03554063
0.86602485 0.41251701 0.04616368
0.93899252 0.45525468 0.12916266
0.98263219 0.48744347 0.27264092
0.95426492 0.50089932 0.33250159
0.95517693 0.48908496 0.39547301
0.96063258 0.50071558 0.43571720
0.95852172 0.48556515 0.42249995
0.96187317 0.47581004 0.40194287
0.96125972 0.46954356 0.40848923
0.95964623 0.45586625 0.42452644
0.96149756 0.44084203 0.43047379
0.95198703 0.42916014 0.42903186
0.95593715 0.42067825 0.42180646
0.95486737 0.40560106 0.43134614
0.95312645 0.40475344 0.43559634
0.07891938 0.95913058 0.00878642
0.05483071 0.88133221 0.00498324
0.04661227 0.82923555 0.00385443
0.04176569 0.76447335 0.00501814
0.02932295 0.72630923 0.00832531
0.01656332 0.67328138 0.00374368
0.01152198 0.63850864 0.00004651
0.00965178 0.61009007 0.00323840
0.00718040 0.58202873 0.00777203
0.00671873 0.56399952 0.00000000
0.00564977 0.53624743 0.00000000
0.01124608 0.51265240 0.00002058
0.09118003 0.48992137 0.00000000
0.28329912 0.46885699 0.00900990
0.42627989 0.44460984 0.00725441
0.53965334 0.43027823 0.00814070
0.66148598 0.43404713 0.01965616
0.76649126 0.44606031 0.02929573
0.84490118 0.46027166 0.03482398
0.91878295 0.48891296 0.05321100
0.98042793 0.52835204 0.16008407
0.96090152 0.55600625 0.28325604
0.94806197 0.53426216 0.34257321
0.96186675 0.53410385 0.39543109
0.95827641 0.51817178 0.39313220
0.95783546 0.50968180 0.38107579
0.95813755 0.50358853 0.39999414
0.95553687 0.49010297 0.41771274
0.95548366 0.47542981 0.41215098
0.95266953 0.46633608 0.41780404
0.95759145 0.45908561 0.41642455
0.95297880 0.44251884 0.43232301
0.95610828 0.43231530 0.42710207
0.04854901 1.00033477 0.01853768
0.04156345 0.94800599 0.01363763
0.03884993 0.90067216 0.01181842
0.03739369 0.84313730 0.01292322
0.03439830 0.79153183 0.01709698
0.02493038 0.74477549 0.00700609
0.01928481 0.71636210 0.00341137
0.01494450 0.69550456 0.00485064
0.01578508 0.67495421 0.01287451
0.01200755 0.65568312 0.00860231
0.00635827 0.63215303 0.00430271
0.00780974 0.60436203 0.00501060
0.03899092 0.58470197 0.00180253
0.18223044 0.56361328 0.01228299
0.35878190 0.54107324 0.01592583
0.49967746 0.52216123 0.01468652
0.62723869 0.51576725 0.02046302
0.73817941 0.51916367 0.03386104
0.82513871 0.52348134 0.03843983
0.89684461 0.53897522 0.05078548
0.96836890 0.57119238 0.08122907
0.98214941 0.59855211 0.19382670
0.94529312 0.58443225 0.27927772
0.95997979 0.57705023 0.33726904
0.96435529 0.56096022 0.36692127
0.95802435 0.54861373 0.37291328
0.95424205 0.53950652 0.39327068
0.95314803 0.53021558 0.40999859
0.95253701 0.52077440 0.40144372
0.95344490 0.50689102 0.41125074
0.96227207 0.49265948 0.39913574
0.95865367 0.48358480 0.40800481
0.95556818 0.46141389 0.42320345
0.04648385 1.00405788 0.06171319
0.04219393 0.99709344 0.04406210
0.04048617 0.95148154 0.03770882
0.03804581 0.90547525 0.02986604
0.03832320 0.85025331 0.02312087
0.03079394 0.81617425 0.01589392
0.02668682 0.79058183 0.01522405
0.01996706 0.77272522 0.00932844
0.02078870 0.75057052 0.01689815
0.01636480 0.72969904 0.01296164
0.00686255 0.71468841 0.00065295
0.00904166 0.68920743 0.00443812
0.01711777 0.67220983 0.00414907
0.06450743 0.65744853 0.01096487
0.22597434 0.63930474 0.02148870
0.43507753 0.62184992 0.02088730
0.58294148 0.60935334 0.02069164
0.70154300 0.60196111 0.02977447
0.79960635 0.59901518 0.04328424
0.86544808 0.60302336 0.06040959
0.94351659 0.62458314 0.07980511
0.99794406 0.63738767 0.09970715
0.94155146 0.63971344 0.19207960
0.95117039 0.62641272 0.28270435
0.96314486 0.60872876 0.34886100
0.95716549 0.59483212 0.36938423
0.95109686 0.58283118 0.38034993
0.95280452 0.57188713 0.39169396
0.95045007 0.56275132 0.38719700
0.94811762 0.54668127 0.40402098
0.96165391 0.52463385 0.38145945
0.96269727 0.52172455 0.37495107
0.94793760 0.49874969 0.40266195
0.08768850 1.00206374 0.10674143
0.06692833 1.00074299 0.06828150
0.05960916 0.97894664 0.05603192
0.05182812 0.95394511 0.04008596
0.04849244 0.91774639 0.02592804
0.03565992 0.89295889 0.03136277
0.02861332 0.85783918 0.02876106
0.02718131 0.84127907 0.01335907
0.03011662 0.80998550 0.01684976
0.02840228 0.78718525 0.00823823
0.01630840 0.78726458 0.00000000
0.01233613 0.74962827 0.00000000
0.01844166 0.74768471 0.00609546
0.01713771 0.72829826 0.01150453
0.11543545 0.71140898 0.01589533
0.35442028 0.69741286 0.01699264
0.53918006 0.68772793 0.02127929
0.66470325 0.67810219 0.03415072
0.76888158 0.66661027 0.05066694
0.83967942 0.66330186 0.06161379
0.90869853 0.67019657 0.07910318
0.97599028 0.67978727 0.09796981
0.93928391 0.68812778 0.10063982
0.95197394 0.66581173 0.19358531
0.95365124 0.64955160 0.28821535
0.95233789 0.64014348 0.32604023
0.95181266 0.62356700 0.33791413
0.94863636 0.60442184 0.34689568
0.94272108 0.59379082 0.35561450
0.93686570 0.58063409 0.37934894
0.95426645 0.56595539 0.37557865
0.96131243 0.55827130 0.36432083
0.94513081 0.53892991 0.36886195
0.04852367 0.97086765 0.03462975
0.04805075 0.96839071 0.03395918
0.04785566 0.96740357 0.03368356
0.04766084 0.96680677 0.03331042
0.04759650 0.96608856 0.03288626
0.04504439 0.95708987 0.03255098
0.03271100 0.92027765 0.03009799
0.03038927 0.89776278 0.02975702
0.03768900 0.86627416 0.02794202
0.03633710 0.85510975 0.01983657
0.03123608 0.84090244 0.01743721
0.02340718 0.81986374 0.00517102
0.02760404 0.81881379 0.01195851
0.02309074 0.79735777 0.01233645
0.04751731 0.76168464 0.01072614
0.20527007 0.73934088 0.01548314
0.46597429 0.74297336 0.02752695
0.61544812 0.74955158 0.04101585
0.72447657 0.73991396 0.05143392
0.81634900 0.72858009 0.06905202
0.87667287 0.72782181 0.09176244
0.94635629 0.70857839 0.10272194
0.94696160 0.71475469 0.10270972
0.95750713 0.70035377 0.08472735
0.94727818 0.68793441 0.17668020
