LUT/Classic Neg.cube
TITLE "Classic Neg."
LUT_3D_SIZE 9
# Apple Log/Rec2020 -> LA - :FLog2C_to_CLASSIC-Neg./LA - :FLog2C_to_CLASSIC-Neg., CineEI Shift 0.00, Black Level -0.01% IRE, Input 109% -> Output 100% - Created with LUTCalc v4.09 by Ben Turley February 2025
0.00000000 0.00000000 0.00000000
0.41119490 0.77461076 0.00000000
0.90010572 0.03236572 0.12249927
1.00112918 0.44086815 0.22813253
0.97013935 0.67752429 0.70773974
0.95136136 0.27911240 0.27473191
0.95136136 0.27911240 0.27473191
0.95136136 0.27911240 0.27473191
0.95136136 0.27911240 0.27473191
0.00000000 0.00000000 0.00000000
0.00000000 0.00000000 0.00000000
0.26461520 0.03876015 0.00000000
0.82784275 0.10535321 0.00000000
0.94679902 0.23792460 0.23084894
0.95136136 0.27911240 0.27473191
0.95136136 0.27911240 0.27473191
0.95136136 0.27911240 0.27473191
0.95136136 0.27911240 0.27473191
0.00429332 0.28443156 0.06758621
0.00021047 0.08036199 0.00945947
0.14903831 0.01012906 0.00000000
0.50873425 0.06133003 0.00000000
0.91858200 0.14279838 0.10542202
0.94990694 0.30342289 0.31543996
0.95136136 0.27911240 0.27473191
0.95136136 0.27911240 0.27473191
0.95136136 0.27911240 0.27473191
0.03134893 0.68601703 0.06787161
0.00000000 0.22267398 0.04773683
0.01857933 0.13322271 0.02598566
0.31575443 0.12382534 0.00000000
0.84898299 0.17644155 0.11921905
0.95741261 0.26358574 0.26082822
0.95337016 0.26494200 0.28250128
0.93984918 0.26621018 0.27254634
0.95136136 0.27911240 0.27473191
0.05283806 0.91114592 0.14824118
0.02277699 0.60783006 0.09514761
0.01220231 0.40296926 0.06795328
0.03444730 0.33312341 0.05130571
0.69359054 0.33483696 0.00000000
0.96128855 0.39219630 0.11672376
0.95258404 0.39727217 0.27833730
0.95454031 0.34108590 0.27389987
0.94882483 0.31567885 0.27318771
0.04960266 0.99889766 0.19990744
0.03019180 0.91192553 0.14922842
0.02690755 0.82946251 0.14246974
0.01235755 0.74538602 0.12448454
0.25490688 0.67068732 0.07267954
0.91658089 0.68019046 0.00000000
0.95428702 0.59695269 0.21435921
0.95346360 0.52450576 0.24425214
0.95640675 0.46184468 0.22906398
0.02986659 0.94566151 0.15715994
0.02986659 0.94566151 0.15715994
0.02986659 0.94566151 0.15715994
0.03048276 0.94207622 0.15142981
0.03122990 0.90493802 0.16150190
0.83302705 0.90599769 0.06315464
0.96423005 0.83069263 0.03635917
0.96812704 0.75266767 0.11371439
0.95888193 0.69992428 0.16413392
0.02986659 0.94566151 0.15715994
0.02986659 0.94566151 0.15715994
0.02986659 0.94566151 0.15715994
0.02986659 0.94566151 0.15715994
0.02986659 0.94566151 0.15715994
0.02973490 0.94461786 0.15586174
0.91258826 0.99861826 0.03322267
0.96431130 0.92955230 0.03053229
0.94905476 0.90407892 0.03545099
0.04776310 0.93676516 0.15715994
0.03018260 0.94540682 0.15715994
0.02986659 0.94566151 0.15715994
0.02986659 0.94566151 0.15715994
0.02986659 0.94566151 0.15715994
0.02985874 0.94564923 0.15714959
0.05225991 0.94579105 0.15423391
0.94290470 1.00046682 0.02372788
0.93897265 0.99269461 0.03278196
0.00000000 0.00000000 0.00000000
0.08307460 0.66667439 0.08053461
0.87356146 0.07307700 0.00000000
1.00058710 0.29390371 0.13047412
0.96637076 0.69011350 0.77866948
0.95136136 0.27911240 0.27473191
0.95136136 0.27911240 0.27473191
0.95136136 0.27911240 0.27473191
0.95136136 0.27911240 0.27473191
0.00000000 0.00000000 0.00000000
0.00000000 0.00000000 0.00000000
0.15647573 0.01144273 0.00000000
0.69061196 0.06110046 0.00001466
0.94278242 0.16930640 0.15861588
0.95136136 0.27911240 0.27473191
0.95136136 0.27911240 0.27473191
0.95136136 0.27911240 0.27473191
0.95136136 0.27911240 0.27473191
0.01338520 0.41828014 0.12492793
0.00167409 0.09007094 0.01366558
0.04814074 0.04991729 0.00000043
0.30939519 0.05009823 0.00000000
0.87437042 0.10510119 0.02574466
0.95025262 0.25711072 0.25424517
0.95136136 0.27911240 0.27473191
0.95136136 0.27911240 0.27473191
0.95136136 0.27911240 0.27473191
0.02903393 0.78247360 0.25852505
0.00783259 0.28040913 0.04577566
0.00423819 0.17738333 0.02883949
0.15008709 0.15333857 0.00367154
0.72749234 0.18737115 0.00000094
0.94683685 0.26069067 0.16556482
0.95244632 0.30854706 0.27010844
0.95163033 0.28522584 0.27341413
0.95136136 0.27911240 0.27473191
0.03628452 0.94015608 0.20517419
0.02178186 0.70512949 0.11494875
0.01573731 0.51674969 0.08500745
0.01661183 0.40472130 0.06642918
0.45121479 0.37814912 0.00000000
0.92949095 0.43582912 0.04552681
0.95473662 0.45320081 0.24537420
0.95391636 0.39691878 0.25834790
0.95264113 0.35167293 0.26466467
0.03201573 1.00057173 0.16763198
0.02966398 0.93304607 0.15519889
0.02762079 0.87181182 0.14494809
0.02608961 0.80515244 0.13289635
0.08209623 0.73641001 0.11094615
0.84945747 0.73535774 0.00650091
0.95576123 0.69120005 0.11753865
0.95741093 0.60461676 0.20607259
0.95673557 0.52931733 0.22960392
0.02986659 0.94566151 0.15715994
0.02986659 0.94566151 0.15715994
0.02986659 0.94566151 0.15715994
0.02974974 0.94519953 0.15704199
0.02937661 0.93642104 0.15496002
0.24233690 0.91542579 0.11475640
0.95166660 0.91682622 0.02300609
0.95757472 0.82921484 0.06646405
0.95881663 0.76664231 0.12488813
0.02986659 0.94566151 0.15715994
0.02986659 0.94566151 0.15715994
0.02986659 0.94566151 0.15715994
0.02986659 0.94566151 0.15715994
0.02986659 0.94566151 0.15715994
0.02920459 0.94465904 0.15631092
0.68158122 0.97943282 0.07409364
0.94501640 0.96753988 0.03223748
0.95310750 0.92898639 0.02629509
0.02350374 0.94957627 0.15715994
0.02926229 0.94613147 0.15715994
0.02986659 0.94566151 0.15715994
0.02986659 0.94566151 0.15715994
0.02986659 0.94566151 0.15715994
0.02985874 0.94564923 0.15714959
0.02934424 0.94432326 0.15655538
0.87434743 0.99159656 0.04747360
0.93537050 0.99390158 0.03664434
0.00000000 0.54799834 0.06007327
0.00000000 0.00000000 0.00000000
0.83324057 0.04559413 0.00000000
0.99830775 0.26964325 0.00000000
0.98112121 0.71804409 0.81988689
0.95136136 0.27911240 0.27473191
0.95136136 0.27911240 0.27473191
0.95136136 0.27911240 0.27473191
0.95136136 0.27911240 0.27473191
0.07432650 0.00804185 0.29461708
0.00484894 0.00197493 0.03318330
0.13888651 0.01035638 0.00000000
0.62324373 0.05297742 0.00001702
0.93929224 0.15378695 0.13366074
0.95136136 0.27911240 0.27473191
0.95136136 0.27911240 0.27473191
0.95136136 0.27911240 0.27473191
0.95136136 0.27911240 0.27473191
0.02790900 0.50436380 0.63982726
0.00623258 0.10838003 0.11314334
0.05179978 0.06044483 0.04711179
0.28073179 0.05780976 0.01412930
0.84735566 0.10332435 0.01855839
0.94913720 0.23972077 0.23652405
0.95136136 0.27911240 0.27473191
0.95136136 0.27911240 0.27473191
0.95136136 0.27911240 0.27473191
0.05281850 0.85005378 0.80661776
0.01589918 0.34200239 0.21439981
0.00771143 0.20520086 0.10911780
0.14791974 0.16914610 0.06295995
0.69102483 0.19446185 0.02197577
0.94669010 0.26167947 0.15846393
0.95217769 0.32005938 0.26921156
0.95187723 0.29002733 0.27275710
0.95136136 0.27911240 0.27473191
0.09102984 0.94755188 0.83604048
0.03151565 0.75776409 0.35607724
0.02205566 0.58510322 0.20492535
0.02062929 0.45441584 0.13535740
0.41177736 0.40549538 0.07242042
0.92124445 0.45280113 0.10183162
0.95597901 0.47213077 0.26329354
0.95465521 0.41343811 0.25704904
0.95312893 0.36423559 0.26370418
0.05484123 0.98029539 0.72758114
0.03421024 0.93884081 0.32340936
0.02948473 0.88928230 0.21087397
0.02677869 0.82963756 0.15784721
0.06042739 0.75987402 0.13024791
0.82042491 0.75281241 0.06334026
0.95985143 0.72013456 0.19868690
0.95944420 0.63092668 0.23991449
0.95721993 0.55123389 0.22445681
0.03772629 0.94668408 0.35707214
0.03013393 0.94644241 0.18495027
0.02888709 0.94640557 0.15715994
0.02936091 0.94605651 0.15715994
0.02977777 0.94002378 0.15641893
0.14167663 0.91861444 0.13146799
0.94387454 0.93011201 0.03608357
0.96139678 0.84253589 0.17437774
0.96016240 0.78497663 0.16519567
0.07064747 0.92942139 0.91003236
0.03312948 0.94531563 0.27903796
0.02959593 0.94587485 0.15715994
0.02986659 0.94566151 0.15715994
0.02986659 0.94566151 0.15715994
0.02923215 0.94469923 0.15634523
0.50870584 0.97144316 0.09413101
0.94111927 0.97868123 0.03358166
0.95180153 0.93803118 0.02818978
0.09083660 0.95128791 0.95783677
0.04359660 0.94387248 0.54743786
0.03226443 0.94587169 0.26274686
0.02935837 0.94613343 0.16104476
0.02986659 0.94566151 0.15715994
0.02986659 0.94566151 0.15715994
0.02915383 0.94453165 0.15625486
0.81905972 0.98904798 0.05563254
0.93472594 0.99497217 0.03640400
0.00000000 0.00393276 0.03350050
0.00000000 0.00000000 0.00000000
0.77091383 0.03752779 0.00000000
0.98195073 0.27825052 0.00000000
0.99893132 0.67242967 0.52005799
0.95136136 0.27911240 0.27473191
0.95136136 0.27911240 0.27473191
0.95136136 0.27911240 0.27473191
0.95136136 0.27911240 0.27473191
0.22581865 0.04469761 0.58350472
0.02918264 0.00880185 0.11592811
0.15060782 0.01022040 0.05778308
0.60230146 0.04700934 0.02102619
0.93739204 0.14276458 0.13676857
0.95136136 0.27911240 0.27473191
0.95136136 0.27911240 0.27473191
0.95136136 0.27911240 0.27473191
0.95136136 0.27911240 0.27473191
0.11273685 0.59186323 0.82734668
0.03109940 0.12540340 0.25746675
0.07553027 0.06844673 0.14073690
0.29875627 0.06279874 0.09442910
0.84157334 0.10215762 0.08785202
0.95061523 0.23503585 0.27778285
0.95166731 0.28133145 0.28393251
0.95136136 0.27911240 0.27473191
0.95136136 0.27911240 0.27473191
0.10211527 0.86301508 0.92544798
0.02796208 0.39875726 0.47489407
0.01700702 0.23988317 0.26759805
0.17058032 0.19120024 0.18075657
0.69477732 0.20506283 0.12219113
0.95066927 0.26657277 0.25731117
0.95493825 0.34471940 0.33450587
0.95225479 0.29942786 0.28921458
0.95136300 0.27916158 0.27471139
0.06865481 0.94511024 0.97335395
0.04648172 0.78356926 0.71236551
0.03278109 0.64093659 0.48039504
0.03061000 0.51127555 0.33902300
0.43652342 0.44531318 0.22930462
0.92164266 0.46993022 0.23772814
0.96123689 0.50138243 0.38054813
0.95815048 0.44043184 0.33514655
0.95440987 0.37761125 0.28377938
0.06327963 0.97315179 0.93943231
0.05228543 0.93626384 0.75562451
0.04456641 0.89815638 0.60192325
0.03703815 0.84776612 0.46531607
0.07121382 0.78596482 0.36428874
0.81849312 0.77410036 0.25825704
0.96685083 0.73873533 0.36140958
0.96525829 0.65339753 0.37563650
0.96104299 0.57727729 0.32151268
0.05578592 0.93973590 0.79450217
0.04321032 0.94381029 0.54262891
0.03861509 0.94425025 0.44559748
0.03586443 0.94513330 0.36680048
0.03313046 0.94097209 0.29287242
0.12849252 0.92413894 0.25262358
0.94145426 0.93369095 0.23142599
0.96908356 0.85038835 0.34686058
0.96662519 0.79690424 0.30811161
0.08630116 0.93935742 0.99899198
0.05059087 0.94288703 0.69869350
0.03734345 0.94470510 0.40807137
0.03123518 0.94591810 0.21815201
0.02940071 0.94619969 0.16766260
0.02965232 0.94583094 0.15715994
0.38687065 0.96670431 0.10749495
0.94415984 0.98258400 0.10886897
0.95783754 0.93992987 0.16693248
0.07682717 0.94818159 1.00897750
0.05817082 0.94197796 0.90047977
0.04953678 0.94322472 0.67704895
0.04018480 0.94395592 0.46525880
0.03248726 0.94584541 0.26036909
0.02939181 0.94603287 0.15715994
0.02920351 0.94465747 0.15630957
0.74977844 0.98328567 0.06533578
0.93468026 0.99500350 0.03646624
0.03566748 0.01651253 0.14053918
0.00000000 0.00001651 0.00000000
0.67910054 0.00521487 0.00000000
0.97516355 0.21927485 0.00000000
0.99996434 0.74638924 0.36511275
0.94121374 0.22188962 0.14184728
0.94637649 0.25296413 0.17033189
0.95130929 0.27901898 0.27373060
0.95136136 0.27911240 0.27473191
0.31033893 0.14501449 0.80812024
0.07892691 0.02995803 0.26958799
0.17899088 0.01952007 0.16372416
0.61411211 0.04048345 0.11329034
0.93876736 0.12976979 0.22740354
0.95457578 0.29964313 0.34850327
0.95211324 0.28419887 0.29701690
0.95137300 0.27926356 0.27559008
0.95136136 0.27911240 0.27473191
0.45941726 0.71569049 0.93068816
0.12468340 0.15225812 0.52704576
0.12145436 0.08332473 0.31784697
0.35124690 0.07067365 0.22974182
0.84657517 0.10086933 0.21836654
0.95418128 0.22565099 0.37423364
0.95647735 0.30948932 0.38035721
0.95336379 0.29256867 0.32703065
0.95191691 0.28120415 0.28354963
0.27723670 0.88170151 1.00022086
0.09963801 0.46971568 0.79030539
0.06685231 0.28700295 0.55102911
0.22948136 0.21956943 0.39585905
0.72629768 0.22137782 0.30382331
0.95582098 0.26749702 0.40231815
0.96103193 0.38819142 0.45777449
0.95730108 0.33925700 0.39263469
0.95420713 0.29839745 0.33655029
0.08589783 0.93705444 1.00722441
0.05650612 0.80478770 0.96008322
0.04761047 0.68780656 0.82214106
0.06724719 0.57178402 0.66796301
0.50523793 0.49585012 0.49023230
0.92864086 0.49120300 0.44914243
0.96844479 0.53803565 0.53186110
0.96425492 0.48296224 0.47137417
0.96033341 0.41646224 0.40199303
0.06660204 0.96724880 1.00050794
0.06164126 0.93066860 0.99188290
0.05800822 0.89922864 0.92937405
0.05344367 0.85955293 0.84001855
0.10566192 0.80712414 0.71597299
0.83118568 0.79325073 0.54991838
0.97442650 0.75432058 0.57126630
0.97205032 0.68081734 0.54494528
0.96794801 0.61036733 0.47295648
0.05782056 0.93797382 1.00243917
0.05757325 0.94258575 0.88772097
0.05549292 0.94259542 0.83153469
0.05392822 0.94289848 0.78768555
0.05113293 0.93888058 0.73019671
0.14322474 0.92339597 0.64544489
0.94251613 0.93389967 0.52688860
0.97730477 0.85793236 0.56193454
0.97417926 0.80863501 0.50355261
0.07601045 0.93991171 1.00537800
0.06108917 0.94301478 0.97270527
0.05539843 0.94240978 0.82232634
0.04815378 0.94295519 0.64251285
0.04248428 0.94379683 0.51234980
0.04143594 0.94340522 0.49831411
0.33601215 0.96170883 0.41727184
0.95728815 0.98387591 0.38606824
0.96965229 0.93987234 0.40789465
0.07952244 0.95248006 0.99998320
0.06533452 0.94261652 1.00040525
0.06081973 0.94269082 0.96444783
0.05654724 0.94222019 0.86253493
0.04971386 0.94308366 0.68424666
0.04119331 0.94368074 0.49902043
0.03375800 0.94415127 0.29933093
0.68278075 0.98035131 0.14592449
0.94130295 0.99465702 0.16183961
0.10260441 0.06255721 0.39075346
0.00000000 0.00000000 0.06155144
0.63682882 0.00000000 0.03313376
0.96399112 0.08085717 0.05192548
0.99732077 0.70676813 0.34706812
0.95918819 0.33991802 0.26154708
0.93706077 0.24444525 0.19402808
0.94265441 0.22476931 0.13721627
0.95049933 0.25714971 0.18565202
0.58957944 0.28283933 0.92199761
0.16263273 0.07667528 0.56420523
0.24275664 0.04870178 0.37215160
0.66139254 0.04634014 0.28335965
0.94205987 0.11172257 0.38022772
0.95907951 0.31038798 0.44436565
0.95778609 0.31579507 0.40119007
0.95442497 0.29941046 0.34860260
0.95210073 0.28306743 0.29382321
0.77803217 0.73268452 0.98291807
0.28504470 0.18476036 0.79538833
0.22019828 0.10036985 0.60959725
0.46101546 0.08336579 0.47342068
0.86715095 0.09716598 0.42801686
0.95799305 0.19612915 0.49998732
0.95958418 0.30365929 0.47043016
0.95856923 0.31400670 0.42767711
0.95686471 0.30987937 0.38089906
0.70369557 0.88298906 1.00609447
0.31263943 0.53281456 0.95116531
0.21649751 0.34991975 0.82666418
0.35979210 0.26250525 0.68959361
0.78487813 0.24378626 0.56355453
0.96213218 0.26494007 0.58779391
0.96541193 0.38561849 0.55207675
0.96131122 0.34924843 0.49157976
0.95870672 0.32156560 0.43753372
0.20125124 0.91147402 1.00007428
0.17252757 0.81316719 1.00043971
0.13711413 0.72475639 0.98866012
0.19692062 0.63072836 0.91044986
0.62671490 0.55169718 0.76000379
0.93965655 0.51173937 0.68014994
0.97317646 0.55630924 0.65969491
0.97015256 0.52285737 0.60424043
0.96703798 0.46592469 0.53804842
0.06092233 0.95242479 1.00001991
0.06522647 0.91494650 1.00038904
0.06324964 0.89025779 1.00050664
0.06099730 0.86188785 1.00032410
0.19319034 0.82551332 0.94954296
0.85633724 0.80958052 0.80210563
0.98213412 0.76774664 0.75560041
0.97917330 0.71527538 0.70121642
0.97479727 0.64982782 0.63246022
0.06403646 0.94882128 1.00039419
0.06462466 0.94268715 1.00035033
0.06344527 0.94298856 1.00028791
0.06289729 0.94130775 0.99860546
0.06148444 0.93420921 0.98447586
0.17594131 0.92094547 0.92462177
0.94316900 0.93116138 0.78477223
0.98460071 0.86490546 0.74657362
0.98135615 0.82017622 0.69251427
0.07539699 0.93915125 1.00049958
0.06514949 0.94229622 1.00031750
0.06315845 0.94303465 1.00018376
0.05993292 0.94266768 0.95358211
0.05708333 0.94242431 0.87232410
0.05605805 0.94213703 0.83978465
0.34753821 0.96018671 0.79277523
0.97303616 0.98143182 0.68521476
0.98140672 0.93837020 0.66633782
0.06688087 0.94261596 1.00050693
0.06688087 0.94261596 1.00050693
0.06591301 0.94276260 1.00046654
0.06486139 0.94284295 1.00040254
0.06112331 0.94260850 0.97154939
0.05715437 0.94212568 0.87016447
0.05363888 0.94165814 0.76096439
0.67494902 0.97795628 0.56450566
0.95881964 0.99388504 0.48690169
0.20974628 0.09321268 0.80063050
0.02813061 0.00000000 0.19001438
0.57391703 0.00140581 0.12146544
0.95185095 0.00000000 0.15127961
1.00022923 0.72107141 0.40743658
0.95212215 0.36749024 0.30545605
0.95149598 0.35661921 0.28259382
0.95948177 0.35369757 0.26409072
0.94120755 0.23636611 0.18070871
0.84484915 0.51732549 0.96943279
0.34065263 0.15512883 0.82767354
0.38483379 0.10817063 0.67549686
0.74928941 0.09438327 0.55295501
0.94974199 0.08805304 0.56589725
0.96157114 0.28425172 0.53689616
0.95999156 0.29912081 0.48779511
0.95900589 0.31051950 0.44380950
0.95760483 0.31498237 0.40049490
0.89171050 0.57667307 0.96214953
0.59695738 0.25127636 0.90878440
0.42610976 0.17000222 0.83765953
0.64250036 0.14156745 0.73501577
0.89753326 0.11076479 0.65790164
0.96222005 0.16343233 0.64557119
0.96197436 0.27734239 0.56911783
0.96115686 0.29177397 0.51811711
0.95975798 0.30325505 0.47072265
0.60713285 0.67416193 0.99839156
0.60815480 0.51989585 0.96948194
0.50914981 0.40138111 0.93938951
0.59770695 0.30709416 0.86251247
0.85234882 0.26113071 0.76899005
0.96872699 0.26141151 0.73936295
0.96791807 0.36306532 0.64987432
0.96497779 0.33184316 0.59090381
0.96165003 0.30340590 0.52957852
0.38139237 0.81783228 0.99894010
0.41623090 0.76518806 1.00040686
0.42451426 0.73009158 1.00041302
0.46441417 0.67232800 0.99179401
0.76850316 0.59289434 0.90621605
0.95234927 0.52914589 0.83694944
0.97641794 0.52866147 0.75888063
0.97311439 0.50611792 0.69047344
0.96971629 0.45425439 0.63050203
0.06404641 0.91445282 1.00056019
0.12574327 0.87854501 1.00032790
0.14736057 0.86557065 1.00048584
0.16161920 0.85255357 1.00043047
0.42220868 0.83683910 0.99951528
0.88465239 0.81545367 0.93215492
0.98632013 0.76155559 0.87124527
0.98225149 0.72222629 0.78782534
0.97887390 0.66714600 0.73790546
0.06688087 0.94261596 1.00050693
0.06679299 0.94221810 1.00050693
0.06614816 0.93848802 1.00042514
0.06557215 0.93109400 0.99977736
0.06565450 0.91950278 1.00049362
0.35548807 0.91812853 0.99899621
0.94361270 0.92216994 0.91938838
0.98981620 0.87178870 0.86230375
0.98610645 0.83246344 0.81818330
0.06688087 0.94261596 1.00050693
0.06688087 0.94261596 1.00050693
0.06659490 0.94235960 1.00045432
0.06473812 0.94237904 1.00029163
0.06338274 0.94290646 1.00026003
0.06321637 0.94287708 1.00023379
0.34369379 0.95853882 0.97292136
0.97677773 0.97671940 0.86664642
0.98984629 0.93555231 0.83470594
0.06688087 0.94261596 1.00050693
0.06688087 0.94261596 1.00050693
0.06688087 0.94261596 1.00050693
0.06688622 0.94261342 1.00050693
0.06572816 0.94239822 1.00039525
0.06393716 0.94305187 1.00003326
0.06282924 0.94207729 0.98478995
0.72633282 0.98070214 0.86243621
0.97438998 0.99289521 0.77095811
0.69424869 0.30404433 0.97276964
0.12270813 0.06629935 0.51950726
0.60014992 0.02928187 0.24861364
0.95562497 0.01516442 0.27865483
0.98442992 0.15425928 0.40517332
0.95978804 0.35580449 0.36012783
0.96231553 0.35836720 0.30994401
0.95312798 0.37965374 0.31260675
0.94823978 0.34277673 0.27988119
0.75991659 0.35941668 0.92609328
0.62960461 0.27602902 0.92298215
0.62167413 0.20278216 0.85411405
0.83659725 0.16583798 0.76855550
0.95837011 0.09906299 0.72427370
0.96451796 0.24132677 0.64082080
0.96294807 0.27087986 0.58999207
0.96149909 0.28630436 0.53697427
0.95964761 0.29911907 0.48802124
0.68562110 0.28479730 0.92084779
0.67303814 0.29097986 0.92260273
0.67808287 0.28764180 0.92080770
0.79657783 0.24231695 0.87312075
0.92889876 0.18654005 0.81281510
0.96598433 0.12294030 0.75821987
0.96542096 0.23755961 0.66721606
0.96378577 0.25990824 0.62030516
0.96194071 0.27731663 0.56915951
0.70232228 0.42095964 0.94860259
0.68448686 0.34541475 0.93069730
0.68114189 0.32291015 0.92682678
0.77636701 0.30941645 0.91034975
0.90265357 0.27026711 0.87448025
0.97165227 0.24738515 0.83908528
0.97031759 0.31726461 0.73995272
0.96811395 0.29689905 0.68737700
0.96561403 0.27657360 0.63285754
0.28221815 0.87623580 1.00030510
0.58341584 0.64466131 0.99163143
0.59803203 0.60301063 0.98445927
0.64328444 0.58182952 0.97532108
0.84458582 0.57124503 0.94585314
0.96420412 0.51995286 0.91427466
0.97850049 0.48338713 0.84570252
0.97566907 0.47003382 0.76974713
0.97183292 0.42471308 0.72056558
0.00000000 0.96085305 1.00001484
0.20071789 0.86335194 1.00047343
0.36770407 0.80711358 1.00043602
0.38739711 0.79242787 1.00043621
0.63082562 0.79224040 0.99945935
0.90230425 0.79003679 0.97532894
0.98884646 0.73968268 0.94389843
0.98400863 0.68882218 0.84982058
0.98052084 0.64070869 0.80714419
0.06688087 0.94261596 1.00050693
0.06679299 0.94221810 1.00050693
0.06590078 0.92780501 1.00046351
0.08333959 0.89972828 1.00032952
0.16652552 0.88777726 1.00044116
0.59259094 0.90106904 1.00045411
0.94418190 0.90133665 0.98353577
0.99121536 0.85618904 0.92113525
0.98918750 0.82193730 0.87780059
0.06688087 0.94261596 1.00050693
0.06688087 0.94261596 1.00050693
0.06688087 0.94261596 1.00050693
0.06688087 0.94261596 1.00050693
0.06686173 0.94259816 1.00050378
0.06676273 0.94164063 1.00050693
0.49388433 0.95812834 0.99986344
0.97172816 0.96273837 0.96160409
0.99297172 0.93168752 0.92544314
0.06688087 0.94261596 1.00050693
0.06688087 0.94261596 1.00050693
0.06688087 0.94261596 1.00050693
0.06688087 0.94261596 1.00050693
0.06688087 0.94261596 1.00050693
0.06686864 0.94260458 1.00050492
0.07085062 0.94273960 1.00040099
0.72728610 0.98221122 0.97971732
0.98816526 0.99521455 0.91891781
0.63876292 0.29821707 0.92544431
0.64918314 0.29256275 0.92544431
0.91922640 0.22585061 0.78672766
0.95733226 0.05870356 0.43804164
0.96816924 0.00001454 0.42410748
0.96550450 0.57357259 0.43550474
0.96237399 0.39674224 0.43214689
0.96166104 0.36136857 0.36364271
0.95194241 0.36178565 0.31981716
0.66303115 0.28703017 0.92014973
0.65524239 0.29014143 0.92597038
0.74780761 0.29002192 0.91145697
0.89121031 0.26652975 0.88148141
0.96852437 0.18505053 0.83939082
0.96665338 0.17540994 0.73343066
0.96626518 0.22572696 0.68687934
0.96482314 0.25203870 0.63974626
0.96304321 0.27102004 0.59076273
0.68078133 0.29035648 0.92126138
0.66845574 0.29086148 0.92354361
0.66897741 0.29046189 0.92299721
0.81263886 0.29081213 0.90356986
0.94055227 0.27033133 0.88153744
0.97020881 0.17318106 0.84612424
0.96695572 0.17645276 0.74943019
0.96641767 0.20807655 0.71241390
0.96535615 0.23613988 0.66734900
0.70268993 0.74102160 0.96648794
0.68725406 0.29083469 0.92025164
0.67889730 0.29063386 0.92184005
0.74537834 0.29197558 0.91233245
0.89189137 0.28457535 0.89019768
0.97318700 0.24352568 0.87191133
0.97129348 0.24677050 0.81057793
0.96951621 0.24319897 0.76688503
0.96737343 0.23256182 0.72387486
0.21057816 0.90969267 1.00087253
0.57735347 0.65169358 0.99202324
0.66143119 0.47692911 0.95594668
0.69956502 0.38876529 0.93645789
0.82430303 0.39062066 0.91863746
0.94614752 0.39804345 0.90290523
0.97867049 0.40552399 0.89417713
0.97612130 0.39914200 0.83406136
0.97296733 0.36979361 0.79498874
0.00000000 0.96190136 0.99924623
0.16686723 0.87252748 1.00030581
0.36133024 0.81048660 1.00001873
0.48755505 0.74245319 1.00039214
0.70378890 0.67499328 0.98258248
0.88145814 0.68657781 0.96075943
0.98182521 0.67779443 0.94434324
0.98434419 0.62681630 0.90262597
0.98156489 0.58447852 0.86583942
0.06688087 0.94261596 1.00050693
0.06688087 0.94261596 1.00050693
0.06581441 0.93362878 1.00038873
0.08072093 0.90525361 1.00036783
0.22503280 0.87337586 1.00035170
0.68308721 0.85175860 0.99986645
0.92798290 0.84975156 0.98133103
0.99152214 0.82407002 0.96506115
0.98935880 0.78685581 0.92838492
0.06688087 0.94261596 1.00050693
0.06688087 0.94261596 1.00050693
0.06688087 0.94261596 1.00050693
0.06688087 0.94261596 1.00050693
0.06687753 0.94246334 1.00050693
0.07968467 0.93678745 1.00032130
0.63524416 0.94169266 0.99953798
0.96583136 0.93956419 0.99144118
0.99471555 0.91323270 0.96842842
0.06688087 0.94261596 1.00050693
0.06688087 0.94261596 1.00050693
0.06688087 0.94261596 1.00050693
0.06688087 0.94261596 1.00050693
0.06688087 0.94261596 1.00050693
0.06688087 0.94261596 1.00050693
0.07891405 0.94326390 1.00050693
0.72228416 0.98115514 1.00048120
0.99668750 0.99569258 0.99505420
