LUT/Classic Neg.cube
TITLE "Classic Neg."
LUT_3D_SIZE 33
# Apple Log/Rec2020 -> LA - :FLog2C_to_CLASSIC-Neg./LA - :FLog2C_to_CLASSIC-Neg., CineEI Shift 0.00, Black Level -0.01% IRE, Input 109% -> Output 100% - Created with LUTCalc v4.09 by Ben Turley February 2025
0.00000000 0.00000000 0.00000000
0.00000000 0.00000000 0.00000000
0.00000000 0.00000000 0.00000000
0.00000000 0.00000000 0.00000000
0.41119490 0.77461076 0.00000000
0.87917655 0.00077405 0.01618675
0.76215821 0.00392234 0.00000000
0.82615839 0.00000000 0.00000000
0.90010572 0.03236572 0.12249927
0.93876930 0.19219126 0.95915872
0.98199379 0.44950110 0.51790178
1.00005321 0.50370961 0.00000000
1.00112918 0.44086815 0.22813253
1.00287526 0.46997250 0.89998775
1.00232051 0.53760884 0.92115864
0.99998837 0.66307308 0.86369473
0.97013935 0.67752429 0.70773974
0.96388172 0.52260618 0.47654709
0.95359285 0.33954353 0.31206972
0.95136136 0.27911240 0.27473191
0.95136136 0.27911240 0.27473191
0.95136136 0.27911240 0.27473191
0.95136136 0.27911240 0.27473191
0.95136136 0.27911240 0.27473191
0.95136136 0.27911240 0.27473191
0.95136136 0.27911240 0.27473191
0.95136136 0.27911240 0.27473191
0.95136136 0.27911240 0.27473191
0.95136136 0.27911240 0.27473191
0.95136136 0.27911240 0.27473191
0.95136136 0.27911240 0.27473191
0.95136136 0.27911240 0.27473191
0.95136136 0.27911240 0.27473191
0.00000000 0.00000000 0.00000000
0.00000000 0.00000000 0.00000000
0.00000000 0.00000000 0.00000000
0.00000000 0.00000000 0.00000000
0.13908067 0.11066647 0.00000000
0.42573088 0.00000000 0.01179432
0.32661682 0.00000000 0.00000000
0.47680303 0.00000000 0.00000000
0.68137139 0.02126348 0.05497664
0.81344136 0.10063043 0.81272694
0.92337088 0.19036751 0.19104378
0.96278473 0.22411842 0.00000000
0.99037737 0.21819545 0.06922314
1.00004938 0.23802878 0.41458252
1.00016437 0.28431405 0.55773972
0.98066657 0.37765889 0.50004273
0.95632485 0.42533996 0.41835449
0.95650032 0.37186444 0.34394328
0.95222780 0.30194611 0.28588823
0.95136136 0.27911240 0.27473191
0.95136136 0.27911240 0.27473191
0.95136136 0.27911240 0.27473191
0.95136136 0.27911240 0.27473191
0.95136136 0.27911240 0.27473191
0.95136136 0.27911240 0.27473191
0.95136136 0.27911240 0.27473191
0.95136136 0.27911240 0.27473191
0.95136136 0.27911240 0.27473191
0.95136136 0.27911240 0.27473191
0.95136136 0.27911240 0.27473191
0.95136136 0.27911240 0.27473191
0.95136136 0.27911240 0.27473191
0.95136136 0.27911240 0.27473191
0.00000000 0.00000000 0.00000000
0.00000000 0.00000000 0.00000000
0.00000000 0.00000000 0.00000000
0.00000000 0.00000000 0.00000000
0.08465252 0.02359429 0.00000000
0.21860561 0.00000000 0.01022741
0.19554284 0.00000000 0.00001650
0.30866586 0.00000000 0.00000000
0.49356277 0.01629343 0.03284675
0.66982851 0.07301914 0.57996226
0.86387482 0.13274669 0.12375848
0.93207255 0.15843322 0.00000000
0.95945085 0.16276393 0.03115162
0.98891748 0.17821197 0.19085858
0.99058593 0.21328632 0.28115706
0.96462582 0.27870948 0.30134607
0.94992977 0.32871454 0.30773801
0.95297094 0.31817939 0.29639952
0.95166727 0.28749363 0.27575835
0.95136136 0.27911240 0.27473191
0.95136136 0.27911240 0.27473191
0.95136136 0.27911240 0.27473191
0.95136136 0.27911240 0.27473191
0.95136136 0.27911240 0.27473191
0.95136136 0.27911240 0.27473191
0.95136136 0.27911240 0.27473191
0.95136136 0.27911240 0.27473191
0.95136136 0.27911240 0.27473191
0.95136136 0.27911240 0.27473191
0.95136136 0.27911240 0.27473191
0.95136136 0.27911240 0.27473191
0.95136136 0.27911240 0.27473191
0.95136136 0.27911240 0.27473191
0.00000000 0.00000000 0.00000000
0.00000000 0.00000000 0.00000000
0.00000000 0.00000000 0.00000000
0.00000000 0.00000000 0.00000000
0.03629789 0.00000000 0.00000000
0.12344978 0.00000000 0.04688227
0.14110338 0.00000000 0.00000000
0.23628768 0.00190233 0.00000000
0.36650130 0.01883282 0.00000000
0.51541574 0.04903682 0.10840547
0.75681634 0.08820319 0.02398995
0.86903303 0.10545932 0.00000000
0.91839232 0.12625160 0.00412663
0.95225064 0.14816792 0.09848167
0.96405238 0.17798756 0.17882438
0.95417559 0.23097392 0.23550307
0.94463232 0.28656222 0.27457817
0.95068704 0.29978608 0.29034361
0.95156226 0.28389366 0.27891508
0.95136136 0.27911240 0.27473191
0.95136136 0.27911240 0.27473191
0.95136136 0.27911240 0.27473191
0.95136136 0.27911240 0.27473191
0.95136136 0.27911240 0.27473191
0.95136136 0.27911240 0.27473191
0.95136136 0.27911240 0.27473191
0.95136136 0.27911240 0.27473191
0.95136136 0.27911240 0.27473191
0.95136136 0.27911240 0.27473191
0.95136136 0.27911240 0.27473191
0.95136136 0.27911240 0.27473191
0.95136136 0.27911240 0.27473191
0.95136136 0.27911240 0.27473191
0.00000000 0.00000000 0.00000000
0.00000000 0.00000000 0.00000000
0.00000000 0.00000000 0.00000000
0.00000000 0.00000000 0.00000000
0.00000000 0.00000000 0.00000000
0.03392905 0.00267723 0.00000000
0.11529704 0.00609585 0.00270881
0.21497673 0.02416720 0.00000000
0.26461520 0.03876015 0.00000000
0.39031075 0.03089954 0.00000000
0.55959781 0.03339613 0.00000000
0.70756505 0.07462952 0.00000000
0.82784275 0.10535321 0.00000000
0.89790334 0.11971926 0.01636935
0.93478251 0.13669744 0.12189017
0.94665345 0.17696145 0.18007465
0.94679902 0.23792460 0.23084894
0.94668346 0.28582065 0.27629602
0.95012157 0.29073837 0.29210707
0.95136136 0.27911240 0.27473191
0.95136136 0.27911240 0.27473191
0.95136136 0.27911240 0.27473191
0.95136136 0.27911240 0.27473191
0.95136136 0.27911240 0.27473191
0.95136136 0.27911240 0.27473191
0.95136136 0.27911240 0.27473191
0.95136136 0.27911240 0.27473191
0.95136136 0.27911240 0.27473191
0.95136136 0.27911240 0.27473191
0.95136136 0.27911240 0.27473191
0.95136136 0.27911240 0.27473191
0.95136136 0.27911240 0.27473191
0.95136136 0.27911240 0.27473191
0.00000000 0.13264885 0.00152635
0.00000000 0.05367372 0.00000000
0.00000000 0.03023270 0.00000000
0.00000000 0.01464142 0.00001338
0.00000000 0.00043289 0.00000000
0.05050563 0.11324233 0.00000000
0.10843416 0.00000000 0.00000000
0.11330144 0.01346084 0.00000000
0.15830609 0.02427475 0.00000000
0.29136069 0.02276481 0.00000000
0.38962667 0.03745411 0.07156784
0.58759778 0.05895881 0.00000000
0.72783588 0.08260341 0.00000000
0.83354462 0.10237248 0.20140611
0.89989207 0.12718638 0.16314368
0.93625764 0.15585633 0.12317766
0.95200810 0.19548601 0.20406525
0.95248976 0.25510862 0.25568877
0.94460057 0.31243579 0.28330382
0.94409882 0.31281378 0.29632301
0.95136136 0.27911240 0.27473191
0.95136136 0.27911240 0.27473191
0.95136136 0.27911240 0.27473191
0.95136136 0.27911240 0.27473191
0.95136136 0.27911240 0.27473191
0.95136136 0.27911240 0.27473191
0.95136136 0.27911240 0.27473191
0.95136136 0.27911240 0.27473191
0.95136136 0.27911240 0.27473191
0.95136136 0.27911240 0.27473191
0.95136136 0.27911240 0.27473191
0.95136136 0.27911240 0.27473191
0.95136136 0.27911240 0.27473191
0.11526210 0.42141141 0.06431037
0.02391808 0.14102520 0.02822714
0.00245715 0.08549155 0.01588215
0.00000000 0.05274533 0.00819971
0.00000000 0.00257641 0.00000000
0.00000000 0.00000000 0.00000000
0.07573742 0.00000000 0.00000000
0.12306368 0.00000000 0.00023086
0.14213991 0.00463263 0.00000000
0.19668351 0.00063882 0.00000000
0.28314409 0.01746813 0.00000000
0.50026639 0.03120719 0.00000000
0.66703521 0.06328381 0.02500621
0.78249542 0.09226580 0.00000000
0.86520078 0.11044414 0.01587182
0.91680734 0.12954622 0.07465843
0.94972898 0.15834301 0.14652642
0.96483757 0.20364617 0.22244431
0.96029745 0.26328202 0.26990695
0.95261361 0.29388680 0.29414417
0.95135515 0.27929006 0.27497358
0.95136118 0.27911758 0.27473895
0.95136136 0.27911240 0.27473191
0.95136136 0.27911240 0.27473191
0.95136136 0.27911240 0.27473191
0.95136136 0.27911240 0.27473191
0.95136136 0.27911240 0.27473191
0.95136136 0.27911240 0.27473191
0.95136136 0.27911240 0.27473191
0.95136136 0.27911240 0.27473191
0.95136136 0.27911240 0.27473191
0.95136136 0.27911240 0.27473191
0.95136136 0.27911240 0.27473191
0.01222467 0.34807172 0.06923374
0.00571155 0.15388128 0.03906860
0.00347180 0.10785476 0.03060635
0.00188928 0.08154406 0.02124898
0.00000000 0.04026684 0.00743533
0.00000000 0.01886020 0.01432110
0.02378524 0.00698278 0.00061776
0.09463636 0.00383066 0.00303680
0.13935908 0.00464615 0.09584587
0.17440859 0.00000000 0.05113923
0.22360592 0.01732695 0.01271842
0.43608151 0.03426266 0.00000000
0.60505032 0.04688947 0.00000000
0.72967646 0.05027134 0.00000000
0.82529570 0.07474042 0.04750356
0.89569890 0.11666389 0.09194171
0.93932057 0.15609760 0.12079240
0.95517511 0.18345390 0.20598080
0.95311971 0.22267960 0.25326085
0.95211709 0.27246003 0.28479211
0.95058609 0.29106109 0.29365374
0.95134442 0.27959741 0.27539181
0.95136136 0.27911240 0.27473191
0.95136136 0.27911240 0.27473191
0.95136136 0.27911240 0.27473191
0.95136136 0.27911240 0.27473191
0.95136136 0.27911240 0.27473191
0.95136136 0.27911240 0.27473191
0.95136136 0.27911240 0.27473191
0.95136136 0.27911240 0.27473191
0.95136136 0.27911240 0.27473191
0.95136136 0.27911240 0.27473191
0.95136136 0.27911240 0.27473191
0.00429332 0.28443156 0.06758621
0.00268656 0.14971806 0.04433820
0.00204210 0.11301538 0.03532102
0.00194221 0.09502975 0.02822592
0.00021047 0.08036199 0.00945947
0.00075770 0.03855785 0.01320878
0.00000000 0.01361311 0.00067993
0.03959928 0.01496536 0.00484638
0.14903831 0.01012906 0.00000000
0.18579151 0.00664360 0.00000000
0.20048324 0.02782397 0.00000000
0.35283310 0.05226439 0.00000000
0.50873425 0.06133003 0.00000000
0.68327530 0.04500176 0.01341453
0.79764753 0.05952404 0.23739392
0.87099429 0.10076063 0.14781322
0.91858200 0.14279838 0.10542202
0.94159497 0.16787774 0.20377093
0.94552101 0.19609387 0.24881243
0.94714643 0.25229155 0.28133986
0.94990694 0.30342289 0.31543996
0.95132284 0.28002004 0.27609620
0.95136136 0.27911240 0.27473191
0.95136136 0.27911240 0.27473191
0.95136136 0.27911240 0.27473191
0.95136136 0.27911240 0.27473191
0.95136136 0.27911240 0.27473191
0.95136136 0.27911240 0.27473191
0.95136136 0.27911240 0.27473191
0.95136136 0.27911240 0.27473191
0.95136136 0.27911240 0.27473191
0.95136136 0.27911240 0.27473191
0.95136136 0.27911240 0.27473191
0.00000000 0.29320598 0.02926965
0.00000000 0.15267192 0.01899814
0.00013868 0.11479651 0.01469907
0.00137808 0.10243631 0.01384854
0.00000000 0.10061678 0.00701448
0.00000000 0.07846760 0.00801798
0.00000000 0.04268481 0.00676775
0.02518399 0.03776648 0.01883829
0.12270786 0.03199994 0.00000000
0.17510744 0.03095708 0.00000000
0.17133938 0.03535731 0.00000000
0.25030964 0.04092234 0.00000000
0.41806437 0.05951054 0.00000000
0.62051527 0.06769047 0.13702807
0.77206049 0.08008781 0.34543033
0.86009207 0.10533176 0.14515080
0.91574965 0.12898084 0.09979742
0.94771994 0.14475648 0.17400010
0.95770926 0.17255910 0.25018060
0.94833668 0.23323011 0.28027727
0.94992448 0.29154943 0.30222108
0.95226227 0.28208771 0.27935630
0.95193318 0.27734282 0.27390168
0.95148260 0.27855506 0.27441207
0.95136136 0.27911240 0.27473191
0.95136136 0.27911240 0.27473191
0.95136136 0.27911240 0.27473191
0.95136136 0.27911240 0.27473191
0.95136136 0.27911240 0.27473191
0.95136136 0.27911240 0.27473191
0.95136136 0.27911240 0.27473191
0.95136136 0.27911240 0.27473191
0.95136136 0.27911240 0.27473191
0.00000000 0.44785324 0.05524181
0.00012632 0.22556337 0.02982220
0.00055683 0.16921362 0.02115193
0.00261714 0.14087951 0.01539656
0.00360241 0.14497531 0.01858217
0.00104719 0.12239079 0.01841241
0.00405644 0.08870718 0.01413577
0.00731347 0.08094862 0.01378336
0.03626880 0.07057858 0.00865331
0.12288497 0.05681497 0.00000000
0.16618472 0.05350485 0.00000000
0.21473169 0.06078734 0.00000000
0.35786313 0.08504894 0.00000000
0.55634363 0.09719251 0.00000000
0.72058553 0.10824262 0.00000000
0.82890111 0.12389314 0.00000000
0.89500192 0.13785106 0.08922915
0.93339951 0.14936290 0.11435845
0.94698569 0.17221179 0.20719875
0.94326217 0.22246956 0.26129601
0.94703227 0.27758968 0.28820605
0.95602710 0.29230288 0.29395869
0.95447354 0.27156810 0.27030356
0.95227670 0.27593571 0.27326463
0.95162236 0.27795563 0.27531901
0.95049952 0.27732398 0.27574742
0.95057958 0.27798459 0.27536929
0.95133187 0.27906963 0.27475604
0.95136136 0.27911240 0.27473191
0.95136136 0.27911240 0.27473191
0.95136136 0.27911240 0.27473191
0.95136136 0.27911240 0.27473191
0.95136136 0.27911240 0.27473191
0.02873916 0.59901213 0.07079600
0.01542056 0.32191542 0.03460223
0.01035471 0.23719049 0.02505528
0.00688825 0.18763182 0.01946076
0.00821197 0.17987559 0.03197566
0.00586967 0.15800530 0.02244569
0.00000000 0.13111859 0.01834223
0.00078593 0.11720031 0.00784054
0.01418814 0.10226167 0.01198976
0.07019417 0.07961172 0.00357591
0.14244978 0.07999420 0.00000000
0.21768555 0.08608752 0.00000000
0.32008857 0.09403999 0.00000000
0.47587573 0.11119503 0.00000000
0.65074368 0.12649357 0.00000000
0.78624842 0.13995281 0.00000000
0.87343879 0.15209211 0.00000000
0.92788857 0.16461736 0.10137350
0.95569502 0.18413082 0.16742861
0.96350142 0.22559533 0.24086574
0.95623393 0.28217879 0.27507915
0.95743157 0.29959817 0.29788325
0.95655307 0.27808364 0.26750271
0.95539012 0.27255897 0.27563410
0.95418323 0.26890692 0.28043701
0.94207618 0.26292556 0.28480729
0.94140899 0.26819033 0.28180213
0.95102583 0.27862786 0.27500572
0.95136136 0.27911240 0.27473191
0.95136136 0.27911240 0.27473191
0.95136136 0.27911240 0.27473191
0.95136136 0.27911240 0.27473191
0.95136136 0.27911240 0.27473191
0.03134893 0.68601703 0.06787161
0.01814286 0.40791324 0.03950183
0.01249466 0.30473837 0.03126108
0.00711806 0.23952761 0.03108320
0.00000000 0.22267398 0.04773683
0.01385483 0.19690792 0.03094097
0.00078150 0.17785962 0.02674135
0.00319190 0.15342020 0.02101176
0.01857933 0.13322271 0.02598566
0.05091909 0.11599848 0.02907462
0.12958947 0.11359636 0.00574063
0.22993626 0.11300327 0.00000000
0.31575443 0.12382534 0.00000000
0.42721945 0.13855494 0.00000000
0.58948656 0.14812054 0.00000000
0.74454141 0.16154414 0.00000000
0.84898299 0.17644155 0.11921905
0.91532704 0.19124020 0.70139208
0.95503022 0.21028746 0.13089577
0.97104576 0.23302997 0.22216546
0.95741261 0.26358574 0.26082822
0.95740437 0.30226341 0.30134657
0.95332587 0.31739151 0.28893940
0.95537216 0.28802870 0.28873362
0.95337016 0.26494200 0.28250128
0.94826712 0.26487737 0.27532345
0.94578649 0.26862010 0.27232890
0.94314533 0.26745997 0.27195328
0.93984918 0.26621018 0.27254634
0.94711785 0.26372061 0.27321653
0.95096631 0.27695050 0.27457255
0.95134924 0.27904553 0.27472700
0.95136136 0.27911240 0.27473191
0.02986470 0.74781778 0.11745937
0.02139442 0.48999445 0.07485745
0.01781825 0.37312624 0.05975173
0.01236167 0.30074723 0.04940239
0.00514499 0.28175027 0.05588643
0.01137077 0.25137732 0.04762668
0.00207054 0.22707726 0.02941767
0.00464682 0.20000895 0.02445072
0.01028195 0.17694992 0.02971459
0.02182352 0.16393592 0.03125758
0.06645829 0.16030503 0.02077677
0.15923463 0.15216564 0.00774554
0.27701078 0.15636710 0.00000000
0.39716984 0.16244101 0.00000000
0.53601333 0.16961842 0.00000000
0.70128002 0.18178489 0.00000000
0.82816821 0.19993893 0.00000000
0.89986866 0.22058021 0.02313656
0.93942754 0.24199383 0.10062901
0.95523847 0.26240688 0.19261720
0.94289786 0.27311401 0.24120586
0.94780264 0.30304307 0.26997509
0.94518130 0.34017162 0.29938513
0.95420714 0.31934495 0.29639167
0.95104786 0.28944753 0.27721743
0.94882511 0.28556816 0.26076636
0.94710529 0.28133620 0.26513793
0.94246127 0.28140476 0.27681839
0.93956632 0.28939830 0.27883918
0.94331639 0.27049596 0.28440676
0.95244693 0.27341131 0.27888720
0.94884779 0.26543646 0.28224895
0.95661132 0.27204876 0.28403310
0.03852199 0.81480515 0.15279592
0.02858077 0.59628100 0.09703446
0.02413378 0.47092998 0.07811472
0.01798234 0.38943690 0.06447138
0.01452811 0.36443391 0.06342249
0.01552813 0.33339052 0.06096274
0.00534702 0.28670781 0.03638098
0.00719910 0.25769606 0.02686848
0.01094288 0.23185453 0.03129046
0.01151665 0.21811132 0.03325223
0.02405940 0.21545121 0.02239761
0.06411373 0.20239395 0.02712807
0.19365653 0.19513753 0.01500463
0.34401529 0.19121218 0.00391655
0.48052632 0.20133834 0.00000000
0.64392654 0.21706440 0.00000000
0.79091201 0.22888743 0.00000000
0.87756620 0.24232977 0.13163912
0.92318473 0.26642383 0.78408731
0.94613297 0.29399754 0.14205255
0.94706197 0.30711618 0.20437306
0.94353919 0.32167676 0.23121402
0.94049963 0.35021954 0.28578856
0.95083808 0.34607249 0.29242953
0.95222575 0.32934642 0.27297281
0.95240786 0.31682338 0.26287526
0.95186762 0.30861521 0.26778943
0.94989608 0.31076904 0.28083400
0.94725679 0.31392946 0.28497891
0.94447352 0.28916697 0.28276609
0.95426718 0.28392244 0.27976023
0.95139214 0.27110879 0.28334658
0.95458356 0.26989918 0.28258802
0.05298636 0.87498588 0.14869071
0.03365427 0.72046206 0.10328658
0.02871160 0.60828581 0.08781726
0.02190564 0.51738848 0.08076485
0.02031919 0.47683373 0.07569942
0.02096767 0.43168867 0.07503438
0.00742373 0.37397871 0.05805832
0.00820753 0.33721532 0.04207996
0.01159869 0.30441114 0.04331374
0.00913701 0.29003228 0.04675504
0.01050862 0.28606565 0.03337336
0.02040991 0.27027684 0.03988334
0.09202781 0.25270870 0.03446369
0.25089503 0.23876215 0.01989480
0.41807986 0.24497656 0.00000000
0.58598063 0.26346489 0.00000000
0.74408700 0.27629112 0.00000000
0.84788482 0.28148734 0.34864404
0.90396472 0.29784246 0.91055684
0.94040329 0.32951812 0.09750224
0.95980630 0.34767643 0.16586643
0.94705370 0.35349212 0.20890071
0.94394963 0.36964902 0.26347129
0.94943315 0.37725776 0.29768262
0.95356921 0.36404889 0.27646724
0.95601611 0.34318614 0.27054000
0.95534009 0.33162552 0.27863292
0.95382052 0.32914674 0.28412092
0.95269681 0.32732946 0.28103232
0.94903266 0.31602852 0.27336589
0.94966145 0.30414056 0.26934670
0.95150746 0.29393589 0.27423419
0.94861880 0.28807395 0.27573508
0.05283806 0.91114592 0.14824118
0.03376500 0.81561493 0.11527643
0.02891825 0.73603219 0.10377852
0.02481689 0.66090672 0.10160995
0.02277699 0.60783006 0.09514761
0.02552826 0.54020819 0.08860683
0.00988966 0.49039478 0.07795073
0.00858608 0.44340375 0.07119083
0.01220231 0.40296926 0.06795328
0.00969295 0.38821073 0.06514010
0.01128667 0.37556509 0.05801574
0.01169622 0.35604299 0.05765527
0.03444730 0.33312341 0.05130571
0.17251436 0.31147047 0.03321466
0.39215218 0.30584600 0.01438073
0.54268948 0.31787494 0.00000000
0.69359054 0.33483696 0.00000000
0.81608789 0.34144495 0.01551201
0.88801860 0.34591720 0.26182791
0.93306380 0.36967389 0.04521939
0.96128855 0.39219630 0.11672376
0.95165373 0.39811170 0.18974885
0.95016614 0.40095534 0.24885403
0.95032850 0.41397102 0.30293689
0.95258404 0.39727217 0.27833730
0.95168802 0.37447543 0.26827049
0.95166144 0.36032726 0.28296800
0.95245783 0.34936485 0.28371437
0.95454031 0.34108590 0.27389987
0.95463708 0.34129551 0.26587609
0.94044817 0.33141885 0.25828448
0.95068718 0.32017252 0.26687831
0.94882483 0.31567885 0.27318771
0.03634747 0.94197801 0.16775147
0.02818410 0.88080024 0.13978031
0.02428156 0.82857909 0.12907015
0.02416786 0.76809380 0.12477868
0.02625277 0.71221949 0.11336596
0.02992526 0.65677034 0.09998686
0.01671639 0.61067772 0.09172085
0.01266213 0.56987439 0.09604118
0.01679030 0.52496785 0.09466673
0.01532083 0.50300252 0.08558532
0.01784202 0.48308358 0.08482380
0.01779964 0.45285337 0.07692807
0.01890991 0.42841689 0.06526552
0.13056925 0.40661976 0.04896599
0.31369844 0.39020497 0.03228706
0.51957170 0.38636022 0.01442385
0.64787784 0.39565604 0.00000000
0.78062658 0.40640911 0.00000000
0.87475368 0.40883132 0.00000000
0.92385095 0.42001465 0.00000000
0.95343278 0.44321813 0.06328576
0.95918159 0.45380826 0.15638913
0.95303815 0.43993499 0.22591295
0.95081798 0.44682734 0.28494116
0.95189949 0.43398263 0.27742701
0.94568923 0.41836911 0.25695833
0.94609778 0.40724175 0.26286977
0.95238159 0.38995017 0.27405975
0.95709994 0.37204931 0.27055039
0.96039412 0.36829144 0.26263096
0.94003672 0.36580889 0.25308414
0.95365625 0.35091279 0.26810183
0.95458294 0.34245892 0.27456855
0.02786615 0.96974368 0.18721395
0.02334190 0.92422218 0.16191779
0.02142426 0.88461120 0.15209179
0.02165382 0.83953197 0.14428623
0.03001065 0.78802611 0.12449001
0.03195122 0.75622203 0.11668277
0.02186866 0.71145798 0.10482285
0.02087361 0.68539765 0.11584502
0.02189393 0.65090311 0.11734351
0.02144939 0.61730027 0.10999307
0.02509018 0.60142512 0.11199317
0.02059247 0.56308399 0.09655622
0.01897255 0.53711186 0.08518206
0.06904794 0.51439505 0.07337443
0.18755667 0.49968090 0.06257639
0.41814039 0.48549845 0.03873135
0.61333789 0.47855870 0.01239024
0.74138162 0.48233469 0.00000000
0.85208266 0.48704672 0.00000000
0.90988308 0.49145500 0.00000000
0.94382402 0.50400898 0.02813236
0.96644596 0.51409700 0.11262251
0.95450751 0.49107990 0.18134966
0.95285759 0.48203010 0.24293044
0.95286149 0.47375868 0.27839391
0.94850498 0.46797287 0.24826235
0.95034923 0.46210979 0.23520899
0.95786621 0.44760674 0.25350611
0.96081020 0.42325583 0.26702667
0.96331871 0.40793346 0.26149993
0.95080445 0.40537587 0.24783009
0.95841230 0.39417675 0.26753787
0.95637797 0.37586156 0.27021469
0.03548603 0.99115091 0.19686276
0.03112190 0.94714844 0.17292627
0.02939479 0.91979376 0.16391825
0.02607641 0.88469970 0.15545595
0.03093155 0.86057571 0.13649388
0.03061146 0.81978312 0.14342826
0.01638362 0.78607042 0.12292348
0.02407446 0.77302698 0.13787708
0.02317709 0.75425912 0.13761542
0.01852262 0.72170287 0.13059018
0.02394570 0.70176450 0.13477034
0.01390788 0.67860481 0.11813974
0.01644854 0.65042020 0.10566724
0.02326191 0.62151115 0.10124147
0.06498649 0.61039265 0.09459156
0.20736776 0.59742483 0.07220982
0.52372555 0.58273567 0.03526079
0.70658137 0.57493901 0.00689555
0.82384233 0.57628477 0.00000000
0.89093590 0.58320752 0.00000000
0.93196957 0.59399638 0.01345238
0.96076891 0.58902745 0.07668143
0.95343272 0.57124355 0.13769062
0.95874075 0.54490181 0.20180681
0.95507088 0.52601466 0.26159859
0.95323223 0.51846344 0.24222404
0.95729952 0.51008474 0.22318406
0.96072046 0.49466097 0.24215349
0.96066880 0.47616632 0.25475344
0.95933265 0.45821039 0.26231666
0.95505686 0.44233725 0.23740337
0.95740325 0.43857656 0.25064917
0.95238102 0.42200836 0.25176833
0.04960266 0.99889766 0.19990744
0.03961702 0.96361027 0.17994772
0.03607559 0.94599801 0.17260231
0.03212025 0.92648675 0.16462258
0.03019180 0.91192553 0.14922842
0.03622942 0.86629022 0.15300854
0.02262433 0.83250242 0.14064561
0.02068184 0.84304660 0.14554066
0.02690755 0.82946251 0.14246974
0.01960250 0.79644575 0.13370525
0.01852740 0.76383338 0.13739699
0.00975014 0.76587568 0.13318520
0.01235755 0.74538602 0.12448454
0.02178088 0.71664656 0.11746985
0.02316672 0.69831445 0.11160381
0.07584502 0.68080904 0.10139432
0.25490688 0.67068732 0.07267954
0.61725505 0.67121813 0.03379454
0.77797550 0.67092321 0.00655083
0.87563606 0.66774820 0.00000000
0.91658089 0.68019046 0.00000000
0.94972515 0.67784734 0.04354177
0.95464632 0.66825562 0.09191805
0.96274058 0.62962670 0.16905428
0.95428702 0.59695269 0.21435921
0.95208462 0.57940926 0.22041281
0.95493888 0.56315130 0.22502586
0.95481921 0.54234119 0.23732979
0.95346360 0.52450576 0.24425214
0.95053699 0.50624850 0.25769709
0.94112142 0.48081779 0.23013996
0.95154399 0.47166826 0.23244751
0.95640675 0.46184468 0.22906398
0.03030986 0.94812670 0.15840105
0.03013232 0.94640858 0.15786380
0.03005817 0.94567228 0.15764162
0.02995592 0.94517896 0.15743550
0.02988085 0.94504725 0.15700265
0.03997331 0.92765780 0.16848721
0.03303771 0.89542861 0.14846019
0.03339319 0.88365032 0.14866245
0.03276184 0.88105512 0.14439604
0.03252255 0.85151219 0.14429514
0.02543820 0.84124840 0.14347228
0.02798990 0.82606726 0.13083170
0.02719315 0.81711308 0.12735691
0.02760973 0.79486262 0.13221301
0.02907366 0.76240751 0.12635661
0.02972734 0.75075169 0.12252758
0.08649912 0.75364894 0.11327734
0.30641748 0.75863206 0.08376989
0.68416777 0.76044345 0.04251170
0.84023676 0.74964055 0.01554784
0.90903363 0.73949222 0.00090666
0.94849172 0.73917156 0.00642489
0.97842766 0.74520147 0.06644805
0.97088843 0.70020951 0.08440446
0.94869498 0.66372775 0.13674543
0.94823139 0.63480530 0.20608666
