LUT/Classic Chrome.cube
TITLE "AppleLog_Rec2020-LA:FLog2C_to_CLASSICCHROME_LA:FLog2C_to_CLASSICCHROME"
LUT_3D_SIZE 9
# Apple Log/Rec2020 -> LA - :FLog2C_to_CLASSIC-CHROME/LA - :FLog2C_to_CLASSIC-CHROME, CineEI Shift 0.00, Black Level -0.01% IRE, Input 109% -> Output 100% - Created with LUTCalc v4.09 by Ben Turley February 2025
0.00000000 0.00000000 0.00000000
0.53704898 0.46409621 0.73047261
0.86726254 0.18557423 0.45922160
1.00911764 0.65512031 0.71130813
0.91522423 0.72828478 0.69774557
0.95886427 0.37365853 0.44863263
0.95886427 0.37365853 0.44863263
0.95886427 0.37365853 0.44863263
0.95886427 0.37365853 0.44863263
0.00000000 0.00000000 0.00000000
0.00000000 0.00000680 0.00000251
0.31383467 0.00990561 0.01480894
0.81326499 0.10125646 0.11443673
0.96786875 0.31857094 0.43047591
0.95886427 0.37365853 0.44863263
0.95886427 0.37365853 0.44863263
0.95886427 0.37365853 0.44863263
0.95886427 0.37365853 0.44863263
0.00000000 0.22631190 0.00000000
0.02643582 0.05881262 0.00000000
0.13816453 0.00919633 0.00247266
0.54440199 0.02156419 0.07086422
0.94256445 0.18154172 0.30462458
0.95431407 0.40736467 0.45011042
0.95886427 0.37365853 0.44863263
0.95886427 0.37365853 0.44863263
0.95886427 0.37365853 0.44863263
0.00000000 0.64826174 0.94632608
0.00000000 0.25324586 0.00000000
0.01077483 0.13999584 0.33885294
0.36701054 0.10884273 0.00000000
0.83184807 0.19747541 0.13680687
0.96061723 0.36711224 0.45908361
0.96186839 0.37351727 0.44861327
0.95988147 0.36296768 0.45015649
0.95886427 0.37365853 0.44863263
0.08683027 0.90056751 0.05927252
0.01205001 0.64501244 0.00000000
0.00000000 0.47458956 0.04893612
0.17083046 0.39097515 0.00000000
0.69394811 0.36847445 0.02420234
0.98263219 0.48744347 0.27264092
0.95852172 0.48556515 0.42249995
0.96149756 0.44084203 0.43047379
0.95312645 0.40475344 0.43559634
0.08768850 1.00206374 0.10674143
0.04849244 0.91774639 0.02592804
0.03011662 0.80998550 0.01684976
0.01844166 0.74768471 0.00609546
0.53918006 0.68772793 0.02127929
0.90869853 0.67019657 0.07910318
0.95365124 0.64955160 0.28821535
0.94272108 0.59379082 0.35561450
0.94513081 0.53892991 0.36886195
0.04748984 0.96703204 0.03304623
0.04748984 0.96703204 0.03304623
0.04748984 0.96703204 0.03304623
0.04610116 0.96017885 0.03272039
0.08229826 0.92706476 0.04612071
0.79686698 0.87805028 0.09593716
0.96806739 0.83113008 0.15549196
0.95595112 0.75601613 0.11977688
0.94063307 0.71664390 0.22989887
0.04748984 0.96703204 0.03304623
0.04748984 0.96703204 0.03304623
0.04748984 0.96703204 0.03304623
0.04748984 0.96703204 0.03304623
0.04748984 0.96703204 0.03304623
0.22726111 0.96470445 0.04655578
0.92960358 0.97979715 0.16532889
0.94940406 0.89561064 0.18742783
0.95198703 0.86002088 0.15489918
0.04748984 0.96703204 0.03304623
0.04748984 0.96703204 0.03304623
0.04748984 0.96703204 0.03304623
0.04748984 0.96703204 0.03304623
0.04748984 0.96703204 0.03304623
0.04756713 0.96702799 0.03305493
0.55927635 0.95301117 0.12467030
0.98933717 0.97862363 0.24437011
0.96421330 0.97199833 0.21054377
0.00000000 0.00000000 0.00000000
0.04553482 0.76639089 0.00000251
0.83057320 0.05694142 0.19757902
1.00274981 0.50622421 0.64435540
0.94700569 0.69077117 0.68099366
0.95886427 0.37365853 0.44863263
0.95886427 0.37365853 0.44863263
0.95886427 0.37365853 0.44863263
0.95886427 0.37365853 0.44863263
0.00000000 0.00000000 0.00000000
0.00000000 0.00000000 0.00000000
0.18180093 0.00549598 0.00831603
0.67918464 0.04078959 0.07816449
0.96264500 0.24344869 0.36079218
0.95886427 0.37365853 0.44863263
0.95886427 0.37365853 0.44863263
0.95886427 0.37365853 0.44863263
0.95886427 0.37365853 0.44863263
0.00000000 0.37934271 0.00001587
0.00000000 0.06876701 0.00001124
0.04377444 0.03202274 0.00000000
0.37175053 0.03215434 0.01496800
0.87704441 0.10999310 0.17569431
0.95890809 0.34997129 0.43262367
0.95886427 0.37365853 0.44863263
0.95886427 0.37365853 0.44863263
0.95886427 0.37365853 0.44863263
0.00000000 0.80180121 0.00000000
0.00000000 0.32497829 0.00090037
0.00004566 0.18744826 0.00001994
0.21025474 0.15296598 0.00000000
0.71801166 0.19649090 0.03917551
0.95872411 0.35965147 0.34374328
0.95861792 0.40274991 0.43612417
0.95871184 0.38022349 0.44574470
0.95886427 0.37365853 0.44863263
0.07092215 0.93997872 0.07070298
0.01743605 0.71888239 0.00791428
0.00662007 0.56488317 0.00000000
0.03759080 0.46671092 0.00000000
0.55052750 0.42965559 0.01387873
0.93711714 0.50724825 0.12214591
0.95617514 0.53459349 0.37836735
0.95732230 0.48755613 0.40221456
0.95827666 0.44531635 0.42033152
0.07109134 1.00159985 0.04248516
0.04560182 0.95000262 0.03195496
0.03470316 0.87513445 0.02191548
0.02800737 0.80805707 0.01664765
0.28432073 0.74377723 0.02595370
0.83079227 0.72162824 0.08092841
0.95071866 0.71148661 0.16954726
0.95252146 0.64964823 0.30227681
0.95354397 0.59598199 0.34812512
0.04748984 0.96703204 0.03304623
0.04748984 0.96703204 0.03304623
0.04748984 0.96703204 0.03304623
0.04748984 0.96703204 0.03304623
0.04571703 0.95414215 0.03174943
0.63141073 0.91387647 0.10430487
0.95680608 0.89138759 0.16544499
0.95235848 0.81140951 0.13362137
0.95160816 0.76331640 0.15090849
0.04748984 0.96703204 0.03304623
0.04748984 0.96703204 0.03304623
0.04748984 0.96703204 0.03304623
0.04748984 0.96703204 0.03304623
0.04748984 0.96703204 0.03304623
0.07393833 0.96700143 0.03548658
0.82672579 0.96691981 0.16718137
0.96171907 0.94375953 0.19003276
0.95769246 0.89928149 0.16940803
0.04748984 0.96703204 0.03304623
0.04748984 0.96703204 0.03304623
0.04748984 0.96703204 0.03304623
0.04748984 0.96703204 0.03304623
0.04748984 0.96703204 0.03304623
0.04748984 0.96703204 0.03304623
0.27900380 0.96425909 0.06168870
0.91343240 0.97061310 0.18973387
0.96448732 0.97278854 0.21079371
0.00000000 0.00665748 0.02924146
0.00000000 0.00000000 0.00000000
0.79965577 0.08526255 0.00000000
0.99996927 0.40890148 0.62595095
0.94651260 0.68839397 0.68723731
0.95886427 0.37365853 0.44863263
0.95886427 0.37365853 0.44863263
0.95886427 0.37365853 0.44863263
0.95886427 0.37365853 0.44863263
0.40883307 0.51938510 0.43051781
0.00001302 0.00001641 0.02646059
0.15321463 0.00384394 0.01451588
0.62447722 0.03149682 0.06313422
0.95979520 0.21692853 0.33669145
0.95886427 0.37365853 0.44863263
0.95886427 0.37365853 0.44863263
0.95886427 0.37365853 0.44863263
0.95886427 0.37365853 0.44863263
0.00000000 0.45168450 0.50798354
0.00001493 0.08161820 0.08258771
0.03409227 0.03409227 0.03409227
0.33825905 0.03443108 0.04204093
0.84210031 0.09859419 0.15908698
0.95913502 0.33095321 0.41933992
0.95886427 0.37365853 0.44863263
0.95886427 0.37365853 0.44863263
0.95886427 0.37365853 0.44863263
0.13810728 0.82042823 0.67824395
0.00000000 0.37921167 0.12355981
0.00004118 0.21841267 0.03927430
0.19099870 0.16970564 0.02899989
0.68361419 0.20021016 0.08160437
0.95905013 0.35881932 0.33580565
0.95782107 0.41407524 0.43268922
0.95823187 0.38486439 0.44446839
0.95886427 0.37366165 0.44861550
0.09801837 0.95313122 0.62248421
0.02321542 0.75394131 0.09662189
0.00974306 0.61267920 0.01159882
0.02088417 0.50575874 0.00000000
0.51258638 0.45078726 0.02311258
0.91804653 0.51023188 0.17998123
0.95517833 0.55001164 0.39264623
0.95690547 0.50179240 0.39701479
0.95788304 0.45763718 0.41535306
0.04240726 1.00000713 0.02403104
0.04704864 0.95829873 0.03259183
0.03758959 0.89361591 0.02520529
0.02953558 0.82738737 0.01714263
0.20277524 0.76437969 0.02213741
0.80311236 0.73292846 0.07947975
0.95200438 0.73035039 0.25735175
0.95212914 0.66636986 0.33339327
0.95327328 0.61157181 0.33757951
0.04748984 0.96703204 0.03304623
0.04748984 0.96703204 0.03304623
0.04748984 0.96703204 0.03304623
0.04748984 0.96703204 0.03304623
0.04668166 0.95954635 0.03240845
0.55250371 0.92283857 0.09392722
0.95519027 0.90157604 0.16918108
0.95300279 0.82129414 0.17748618
0.95175307 0.77732094 0.18705019
0.05121536 0.96545539 0.07149131
0.04748984 0.96703204 0.03304623
0.04748984 0.96703204 0.03304623
0.04748984 0.96703204 0.03304623
0.04748984 0.96703204 0.03304623
0.05195223 0.96708351 0.03351314
0.77735959 0.96549041 0.15277404
0.96272246 0.95699497 0.19772680
0.95859600 0.90911611 0.17351451
0.07632595 0.96756737 0.94964534
0.04978541 0.96681680 0.08135146
0.04748984 0.96703204 0.03304623
0.04748984 0.96703204 0.03304623
0.04748984 0.96703204 0.03304623
0.04748984 0.96703204 0.03304623
0.18250498 0.96575948 0.04976143
0.88211884 0.96903566 0.18141841
0.96447764 0.97286381 0.21094110
0.58586757 0.00000000 0.07019053
0.55364994 0.00470356 0.00002014
0.75099967 0.00000000 0.00177792
0.99696789 0.49276431 0.20480875
0.98514904 0.68177130 0.55012736
0.95886427 0.37365853 0.44863263
0.95886427 0.37365853 0.44863263
0.95886427 0.37365853 0.44863263
0.95886427 0.37365853 0.44863263
0.00000000 0.00000000 0.58291553
0.00000285 0.00000000 0.12546328
0.14853443 0.00000000 0.07913582
0.60185313 0.01989738 0.11853983
0.95704883 0.19239812 0.33981634
0.95886427 0.37365853 0.44863263
0.95886427 0.37365853 0.44863263
0.95886427 0.37365853 0.44863263
0.95886427 0.37365853 0.44863263
0.00348776 0.51406159 0.78788811
0.00000000 0.08487768 0.27996539
0.02636500 0.03064770 0.14880513
0.33756738 0.02733189 0.14052912
0.82663834 0.08233999 0.25305649
0.96010483 0.32003649 0.45938108
0.95929046 0.37475712 0.45626663
0.95886427 0.37365853 0.44863263
0.95886427 0.37365853 0.44863263
0.19440776 0.82829684 0.84552356
0.00541974 0.41211186 0.42178286
0.00012815 0.24930384 0.24544504
0.18648367 0.18648367 0.18648367
0.67291444 0.19992007 0.22054878
0.95926438 0.34702693 0.42620748
0.95946037 0.43136194 0.48688735
0.95861702 0.39199942 0.45777591
0.95886610 0.37371100 0.44859313
0.10300294 0.95958232 0.85947366
0.03659561 0.76962716 0.50712337
0.01870014 0.64150199 0.32995223
0.01698914 0.53885394 0.22180412
0.49890944 0.47261677 0.20839346
0.90569125 0.51210961 0.33831710
0.95487106 0.56577668 0.49814542
0.95709310 0.51782045 0.46656887
0.95751287 0.46869535 0.43360332
0.11129216 1.00098674 0.73610386
0.05885534 0.95299701 0.39391605
0.04720855 0.90185245 0.25155859
0.03419315 0.84202364 0.14369883
0.14120032 0.78182908 0.10957278
0.78789225 0.74364008 0.21185986
0.95378636 0.74247677 0.42858863
0.95265543 0.67911680 0.46279931
0.95267212 0.62584833 0.42747660
0.06555383 0.96456798 0.60707092
0.04980579 0.96683495 0.08118271
0.04796425 0.96701541 0.03756492
0.04748984 0.96703204 0.03304623
0.04719450 0.96177712 0.03264335
0.47650471 0.92917878 0.08212867
0.94858791 0.90379601 0.17994572
0.95649275 0.82855193 0.36289644
0.95422675 0.78647453 0.35086314
0.14108214 0.94515123 0.94504188
0.05743039 0.96550871 0.29316543
0.04748984 0.96703204 0.03304623
0.04748984 0.96703204 0.03304623
0.04748984 0.96703204 0.03304623
0.04774041 0.96703384 0.03306320
0.72518333 0.96455609 0.14367986
0.96340857 0.96197959 0.19942278
0.95831368 0.91291742 0.17575797
0.12064903 0.95926406 0.94214213
0.07608018 0.96113254 0.60711792
0.05646237 0.96544621 0.25580958
0.04780394 0.96701510 0.04041037
0.04748984 0.96703204 0.03304623
0.04748984 0.96703204 0.03304623
0.13518300 0.96625323 0.04343879
0.85425271 0.96844945 0.17405738
0.96449612 0.97288516 0.21095978
0.00000000 0.00000000 0.17867241
0.00000000 0.00000000 0.00418676
0.74881782 0.11746287 0.01630479
0.97821054 0.52877490 0.18506772
1.00029051 0.77270128 0.51569038
0.94912670 0.32365906 0.28723632
0.95072831 0.35702457 0.33852010
0.95876645 0.37369396 0.44781680
0.95886427 0.37365853 0.44863263
0.01199420 0.00000000 0.80892157
0.00176838 0.00000000 0.33246836
0.15454863 0.00000000 0.22242437
0.59705993 0.00680344 0.25052593
0.95325185 0.15869405 0.43230699
0.95983263 0.38625601 0.50875289
0.95972691 0.37655388 0.46737306
0.95890396 0.37374436 0.44925575
0.95886427 0.37365853 0.44863263
0.00685671 0.51639417 0.91056419
0.00306261 0.07269062 0.57009268
0.01998097 0.01909959 0.37872268
0.35006445 0.01563266 0.33384557
0.81896214 0.05911216 0.40338064
0.96146864 0.29485452 0.54671887
0.95961864 0.39152440 0.53602290
0.95940696 0.38188860 0.49154281
0.95902205 0.37493668 0.45640752
0.05171537 0.81627096 0.92850124
0.01082345 0.42631985 0.71089015
0.00353072 0.26776155 0.54375286
0.18220718 0.19353131 0.44140556
0.67080159 0.19417967 0.42645019
0.96057632 0.32488413 0.55562263
0.95809130 0.46070816 0.58326780
0.95965162 0.41751292 0.54089190
0.95949337 0.38600819 0.49776988
0.12100142 0.92608528 0.95016204
0.04565438 0.77538170 0.78764211
0.02748269 0.65943116 0.65894625
0.02178439 0.56258315 0.55589230
0.48904473 0.48904473 0.48904473
0.89631080 0.50890312 0.53393596
0.95406038 0.58444001 0.61723344
0.95497076 0.54252768 0.57769359
0.95771724 0.49156159 0.53163166
0.12746298 0.99371503 0.87156024
0.07705901 0.93459952 0.76152872
0.06054636 0.89800671 0.68880333
0.05181153 0.85032793 0.60518656
0.11319169 0.79361774 0.51631051
0.77297271 0.75501041 0.52074523
0.95589040 0.75239728 0.61493976
0.95424689 0.69247857 0.60280706
0.95380424 0.64318956 0.55614218
0.11331911 0.95169217 0.89590979
0.07416121 0.96165364 0.58743015
0.06795671 0.96302099 0.49622731
0.06380560 0.96383472 0.42513941
0.05776011 0.95797250 0.34952337
0.38347803 0.92707361 0.34281096
0.93442095 0.90620546 0.48039773
0.96072951 0.83659093 0.57373513
0.95744135 0.79404385 0.53853998
0.10891852 0.95449726 0.97991910
0.08456547 0.95966764 0.72950157
0.06669009 0.96313322 0.47981438
0.05488793 0.96572021 0.18793285
0.04964670 0.96678919 0.05713884
0.04884738 0.96687685 0.05448586
0.66039518 0.96296853 0.14056059
0.96574298 0.96522378 0.26847923
0.96298026 0.91596076 0.36144214
0.13032932 0.94575008 1.00179262
0.09210321 0.95887016 0.85607194
0.08314895 0.96004228 0.71349667
0.07061878 0.96250231 0.54422740
0.05658487 0.96594127 0.26841639
0.04996749 0.96681055 0.06806440
0.11598655 0.96647181 0.04015094
0.81999764 0.96693260 0.16401698
0.96452258 0.97291574 0.21098654
0.00000000 0.00000000 0.44692720
0.01285351 0.00000000 0.02989768
0.79312811 0.00000000 0.05390120
0.96351311 0.27266457 0.23430095
1.00065072 0.78781415 0.53166977
0.95599340 0.45248093 0.40731637
0.95424114 0.35187214 0.33698991
0.95577310 0.32566066 0.28443338
0.95229598 0.35955887 0.35766381
0.00801816 0.00000000 0.92772496
0.00335773 0.00001503 0.62798263
0.16245868 0.00000541 0.46861138
0.60935827 0.00000000 0.45426453
0.95194177 0.10514762 0.56958943
0.95995675 0.38437605 0.58530038
0.95948591 0.39522631 0.55142866
0.95978394 0.38608249 0.50878488
0.95992221 0.37559340 0.46415923
0.00460665 0.38185274 1.00328880
0.00484454 0.01609634 0.82349692
0.01571834 0.00000000 0.66888232
0.37404991 0.00000000 0.59229980
0.81789199 0.02253918 0.59993217
0.96306213 0.22912769 0.65205514
0.95973779 0.37454852 0.60756772
0.95982378 0.39026968 0.57335764
0.95948802 0.39216984 0.53558297
0.05730836 0.78379646 1.00436467
0.01246312 0.38764958 0.90572258
0.00509221 0.24552734 0.80109271
0.17687507 0.17296727 0.71358704
0.67502028 0.16817147 0.66082805
0.96022436 0.28013514 0.69704687
0.95869794 0.44410987 0.65704086
0.95888478 0.41558689 0.61608695
0.95963744 0.39593495 0.57927723
0.06568292 0.85500015 1.00008174
0.04701789 0.74683800 0.93551162
0.03448507 0.65504401 0.86519516
0.02514837 0.56453881 0.79868618
0.47520474 0.49210889 0.73306012
0.88612965 0.49390886 0.71897111
0.95549951 0.58411594 0.71348662
0.95532020 0.56239362 0.67230889
0.95613806 0.52045919 0.63194690
0.11775427 0.95789423 0.99686747
0.07778042 0.90240815 0.91445372
0.06520799 0.87185554 0.87701334
0.05731873 0.83997665 0.83691965
0.09937703 0.79593756 0.78767471
0.75873716 0.75873716 0.75873716
0.95875610 0.75228652 0.76630348
0.95672967 0.70862643 0.72211057
0.95454780 0.66275447 0.67759298
0.11072259 0.95608125 1.00156697
0.09073620 0.95902809 0.83758479
0.08959642 0.95848027 0.80597968
0.08588210 0.95428575 0.78135499
0.07916042 0.94074635 0.74520810
0.28871243 0.91395538 0.71174239
0.91450841 0.90121851 0.73965416
0.96499032 0.84170680 0.73899511
0.96131591 0.80071069 0.69839046
0.10985532 0.94907095 0.99996562
0.09656230 0.95771608 0.90855202
0.08969916 0.95903979 0.80729426
0.08158491 0.96033231 0.69234037
0.07241873 0.96222149 0.56591391
0.06907790 0.96255169 0.51624128
0.60505608 0.96360089 0.56030487
0.97708646 0.97096687 0.62576845
0.97133721 0.91864422 0.64223126
0.09878028 0.95606105 0.93171804
0.09878028 0.95606105 0.93171804
0.09652036 0.95780678 0.90292364
0.08991924 0.95923910 0.83095029
0.08421485 0.95953815 0.72367462
0.07233862 0.96208464 0.56541438
0.14153535 0.96263102 0.41194466
0.78789863 0.96773299 0.34330098
0.96925601 0.97828624 0.36437128
0.08703101 0.64104036 0.46293167
0.00109540 0.01994959 0.03055243
0.83788437 0.00000000 0.12764988
0.94874008 0.11689287 0.26762719
1.00045455 0.85646512 0.51756595
0.96032477 0.47885085 0.40743017
0.97057614 0.46773106 0.41368801
0.95191128 0.45503914 0.41620897
0.96674321 0.33013886 0.33515908
0.00834288 0.00000000 1.00775564
0.00517905 0.00001184 0.86886391
0.15938762 0.00000000 0.74349358
0.63071030 0.00031400 0.69035532
0.95266260 0.03905283 0.71758492
0.95978882 0.34202937 0.66274253
0.95943733 0.36756728 0.62163909
0.96028021 0.38424566 0.58563393
0.95888830 0.39439730 0.55136579
0.00728472 0.00000000 1.00573392
0.00572892 0.00000000 0.99173663
0.00685651 0.00000381 0.89420723
0.38811257 0.00000104 0.82841019
0.82269675 0.00685737 0.78681984
0.96616727 0.13873650 0.77337622
0.96015523 0.32637822 0.68546640
0.95947646 0.35452102 0.64691515
0.95950027 0.37489112 0.60691244
0.02920669 0.50442387 0.95567212
0.00678097 0.22757281 0.99711411
0.00561001 0.12919123 0.97765512
0.15573888 0.08408594 0.91448562
0.68073656 0.09099444 0.84978386
0.96094251 0.19879430 0.83139834
0.96093490 0.39678064 0.73734847
0.95973383 0.37961054 0.69396450
0.96000556 0.36368709 0.65375481
0.03539778 0.74036710 0.95959416
0.03458046 0.63650488 0.96312419
0.02929091 0.58335114 0.96607071
0.02244504 0.51816419 0.95489002
0.45190987 0.45047024 0.90343765
0.87971855 0.44881851 0.86734035
0.95563545 0.53599607 0.80141641
0.95586291 0.53092498 0.74385795
0.95705448 0.49442370 0.70436313
0.11153133 0.89949065 0.93048499
0.06139671 0.84092530 0.95622456
0.05782105 0.81778105 0.95733209
0.05481880 0.79753313 0.95304870
0.06725046 0.76177596 0.93144288
0.72582295 0.73792608 0.89881922
0.95917839 0.72529047 0.87149478
0.95681802 0.70376553 0.79764288
0.95490690 0.66573264 0.75939626
0.10771831 0.97349206 0.92447796
0.09713245 0.95384794 0.93221066
0.09135283 0.94069335 0.93570246
0.08672660 0.92768569 0.93050912
0.07906378 0.90958522 0.90547983
0.19737146 0.88641353 0.87938280
0.87987849 0.87987849 0.87987849
0.96842356 0.84378513 0.84648206
0.96336081 0.80792396 0.80932606
0.09878028 0.95606105 0.93171804
0.09878028 0.95606105 0.93171804
0.09878028 0.95636358 0.93045272
0.09488616 0.95801959 0.89463124
0.09047714 0.95858511 0.82903271
0.08910778 0.95854569 0.80082474
0.47621627 0.95996321 0.80321909
0.97422438 0.96508839 0.83075017
0.97635762 0.91684592 0.81292039
0.09878028 0.95606105 0.93171804
0.09878028 0.95606105 0.93171804
0.09878028 0.95606105 0.93171804
0.09876870 0.95607650 0.93159783
0.09666156 0.95780925 0.90828776
0.09040322 0.95918101 0.83620656
0.09159395 0.95902442 0.74508517
0.77088544 0.97254905 0.74019385
0.98208059 0.98753056 0.71738361
0.00714228 0.00000000 0.99994334
0.01538420 0.00000000 0.57955719
0.89335813 0.01375189 0.00429148
0.96001521 0.02252962 0.10778142
1.00034852 0.59096219 0.33852602
0.95340667 0.50418606 0.46260551
0.96521965 0.49199903 0.45105387
0.96328635 0.46638153 0.43291622
0.97766448 0.45008685 0.41733684
0.00546750 0.00000000 1.00053045
0.00565593 0.00000000 0.99707121
0.11682170 0.00000000 0.93621235
0.64284961 0.00232692 0.87772331
0.95082375 0.01341048 0.85372272
0.96265479 0.25245033 0.75027288
0.96001150 0.31261068 0.70166841
0.96054504 0.34449578 0.66298381
0.95923141 0.36724271 0.62224934
0.00568382 0.00000000 0.99803197
0.00568382 0.00000000 0.99803197
0.00567849 0.00000000 0.99785415
0.35909442 0.00000000 0.98196451
0.82153301 0.00782848 0.93205650
0.97198691 0.03019672 0.89377505
0.96306683 0.23550084 0.77514292
0.96218631 0.28733739 0.72914512
0.96050654 0.32556429 0.68711817
0.01075134 0.33938362 0.99979727
0.00593378 0.00308288 0.99965441
0.00557174 0.00001708 0.99942254
0.11773844 0.00000000 1.00125007
0.68078204 0.00467556 0.99080374
0.96426686 0.05400011 0.95656735
0.96115071 0.30642981 0.82237211
0.96114013 0.31118754 0.78018206
0.96172455 0.30591147 0.73563327
0.10356596 0.85870663 0.92725514
0.01601389 0.42968167 0.97807194
0.01163012 0.35912770 0.98271398
0.01005430 0.32354176 0.99017664
0.39948180 0.30940467 0.97785714
0.86189905 0.31978112 0.96985100
0.95852235 0.43130216 0.89969953
0.95724644 0.46643676 0.82114600
0.95876664 0.44021944 0.78575915
0.11383185 0.99662849 0.93952453
0.05746699 0.81344600 0.95580556
0.04410833 0.71163282 0.96049819
0.03965441 0.68422080 0.96111908
0.06602620 0.66305578 0.96101729
0.65746080 0.65718929 0.95866094
0.94935279 0.65416019 0.95674692
0.95597822 0.65953533 0.86101265
0.95535689 0.62498707 0.82615579
0.10616852 0.96467608 0.93237574
0.09747211 0.95428567 0.93219759
0.08466942 0.92101647 0.94235461
0.07031730 0.87749161 0.95220497
0.06435585 0.85160309 0.95572460
0.15600548 0.83474040 0.95521575
0.82606254 0.83619631 0.96093786
0.96699670 0.82008220 0.91405771
0.96436267 0.79033319 0.86959350
0.09878028 0.95606105 0.93171804
0.09878028 0.95606105 0.93171804
0.09878028 0.95606105 0.93171804
0.09878028 0.95606105 0.93171804
0.09838210 0.95561677 0.93178385
0.09425347 0.94956865 0.93326031
0.29329470 0.93603085 0.92943703
0.93911963 0.93911963 0.93911963
0.97861189 0.90936599 0.90838754
0.09878028 0.95606105 0.93171804
0.09878028 0.95606105 0.93171804
0.09878028 0.95606105 0.93171804
0.09878028 0.95606105 0.93171804
0.09878028 0.95606105 0.93171804
0.09851307 0.95631335 0.93101136
0.09653357 0.95783768 0.91051489
0.69424249 0.97123677 0.88478544
0.99259361 0.99625571 0.88829933
0.00568382 0.00000000 0.99803197
0.00568382 0.00000000 0.99803197
0.95540710 0.00000000 0.99706489
0.97322376 0.04485103 0.81574937
1.00103856 0.02420937 0.04657802
0.95441359 0.75284308 0.30936013
0.94823513 0.54977706 0.47765428
0.94579543 0.51043838 0.46865855
0.96991711 0.48860853 0.46167322
0.00568382 0.00000000 0.99803197
0.00568382 0.00000000 0.99803197
0.03742403 0.00001652 1.00008476
0.62380867 0.00318500 0.99625428
0.94708510 0.01414157 0.97021296
0.96784396 0.10136900 0.85025976
0.96399261 0.20841252 0.79293552
0.96176727 0.26758775 0.74614232
0.96059198 0.31174064 0.70207346
0.00568382 0.00000000 0.99803197
0.00568382 0.00000000 0.99803197
0.00568382 0.00000000 0.99803197
0.24036479 0.00002029 1.00126605
0.79471675 0.00760370 0.99306305
0.97169645 0.01595866 0.97838977
0.96788987 0.08729086 0.86668095
0.96606104 0.16490983 0.82048827
0.96307880 0.23190996 0.77624911
0.00568382 0.00000000 0.99803197
0.00568382 0.00000000 0.99803197
0.00568382 0.00000000 0.99803197
0.02677166 0.00000000 1.00111596
0.58426625 0.00000000 0.99875840
0.94643137 0.01466873 0.98686802
0.96600310 0.12348492 0.91805450
0.96526065 0.17406645 0.86616144
0.96455006 0.19489649 0.82533537
0.11905366 0.89314619 0.91774119
0.01645873 0.43883840 0.97818203
0.00656144 0.14479784 0.99816156
0.00562293 0.02692892 1.00067289
0.29696200 0.03013284 0.99889200
0.80102809 0.07569060 0.98416745
0.96392458 0.21432369 0.97255689
0.96126616 0.33697703 0.90447638
0.96076749 0.33529526 0.86567949
0.16662165 1.00131008 0.92282445
0.05969417 0.82976396 0.95632274
0.04417097 0.71758386 0.95966455
0.03077914 0.59918565 0.96506634
0.05970429 0.47395460 0.97308688
0.55894148 0.49351290 0.96543084
0.91482259 0.52602908 0.96276704
0.95573779 0.56031005 0.93413356
0.95565985 0.53839123 0.89907566
0.09994707 0.95726414 0.93265087
0.09835413 0.95561198 0.93163945
0.08870693 0.93184474 0.93900177
0.07385270 0.88557378 0.95074326
0.05939920 0.82571924 0.95628580
0.17988528 0.75773820 0.95773287
0.75991367 0.75993880 0.95899994
0.96216429 0.75890742 0.96478325
0.96178047 0.73703188 0.93343410
0.09878028 0.95606105 0.93171804
0.09878028 0.95606105 0.93171804
0.09878028 0.95606105 0.93171804
0.09878028 0.95606105 0.93171804
0.09831092 0.95516269 0.93187754
0.09161947 0.93764076 0.93886020
0.33384036 0.89755800 0.94999403
0.88965598 0.89621254 0.97358421
0.97616265 0.88188269 0.96515848
0.09878028 0.95606105 0.93171804
0.09878028 0.95606105 0.93171804
0.09878028 0.95606105 0.93171804
0.09878028 0.95606105 0.93171804
0.09878028 0.95606105 0.93171804
0.09870702 0.95609997 0.93171804
0.09813790 0.95712098 0.93364127
0.57216282 0.96553948 0.95123416
0.99151673 0.99151673 0.99151673
