LUT/ETERNA.cube
TITLE "ETERNA"
LUT_3D_SIZE 33
# Apple Log/Rec2020 -> LA - :FLog2C_to_ETERNA/LA - :FLog2C_to_ETERNA, CineEI Shift 0.00, Black Level 0.56% IRE, Input 109% -> Output 100% - Created with LUTCalc v4.09 by Ben Turley February 2025
0.00580602 0.00580602 0.00580602
0.00580602 0.00580602 0.00580602
0.00580602 0.00580602 0.00580602
0.00580602 0.00580602 0.00580602
0.35507753 0.01822089 0.04781474
0.81359102 0.03067940 0.11790474
0.76996101 0.04955533 0.04585567
0.78180568 0.01531667 0.06494457
0.81744824 0.05727040 0.10518138
0.86516028 0.26780178 0.12175255
0.92105864 0.62060107 0.26430449
0.98084122 0.63982875 0.13680141
1.00166816 0.66731084 0.04179448
1.01228781 0.69013003 0.13965697
1.00944201 0.67508846 0.46679740
1.00160272 0.66159366 0.77756294
0.98660699 0.61130422 0.78116362
0.96236516 0.49280182 0.56425634
0.93616147 0.37147468 0.31948171
0.94393957 0.32622234 0.26955493
0.94393957 0.32622234 0.26955493
0.94393957 0.32622234 0.26955493
0.94393957 0.32622234 0.26955493
0.94393957 0.32622234 0.26955493
0.94393957 0.32622234 0.26955493
0.94393957 0.32622234 0.26955493
0.94393957 0.32622234 0.26955493
0.94393957 0.32622234 0.26955493
0.94393957 0.32622234 0.26955493
0.94393957 0.32622234 0.26955493
0.94393957 0.32622234 0.26955493
0.94393957 0.32622234 0.26955493
0.94393957 0.32622234 0.26955493
0.00580602 0.00580602 0.00580602
0.00580602 0.00580602 0.00580602
0.00580602 0.00580602 0.00580602
0.00580602 0.00580602 0.00580602
0.16812125 0.01442354 0.02928741
0.44974842 0.02377159 0.07535918
0.47261382 0.03154298 0.03121829
0.54269144 0.00935671 0.04172243
0.61637411 0.03030956 0.07427865
0.71502752 0.16142448 0.08545367
0.80955515 0.32453776 0.16813511
0.87358042 0.32158281 0.09068439
0.96407848 0.36411405 0.03015326
1.00289824 0.39357875 0.11888172
1.00227289 0.40699026 0.29910540
1.00140273 0.42817879 0.52541290
0.97251854 0.42606426 0.54340055
0.95746304 0.38609265 0.39992537
0.94012125 0.34220719 0.28864206
0.94393957 0.32622234 0.26955493
0.94393957 0.32622234 0.26955493
0.94393957 0.32622234 0.26955493
0.94393957 0.32622234 0.26955493
0.94393957 0.32622234 0.26955493
0.94393957 0.32622234 0.26955493
0.94393957 0.32622234 0.26955493
0.94393957 0.32622234 0.26955493
0.94393957 0.32622234 0.26955493
0.94393957 0.32622234 0.26955493
0.94393957 0.32622234 0.26955493
0.94393957 0.32622234 0.26955493
0.94393957 0.32622234 0.26955493
0.94393957 0.32622234 0.26955493
0.00580602 0.00580602 0.00580602
0.00580602 0.00580602 0.00580602
0.00580602 0.00580602 0.00580602
0.00580602 0.00580602 0.00580602
0.11740020 0.01284875 0.02251997
0.27127245 0.02058756 0.06369323
0.32709732 0.02525937 0.02603082
0.41059595 0.00740357 0.03327022
0.48769357 0.02088240 0.06656029
0.60002203 0.12727896 0.07281758
0.72761443 0.23360434 0.13640216
0.81053715 0.22504663 0.07304319
0.90001537 0.25858761 0.02589798
1.00060109 0.28053994 0.11068283
1.00012758 0.30092864 0.24659557
0.99020977 0.33070001 0.38961991
0.96482032 0.35017580 0.41221321
0.95549043 0.34450912 0.33550436
0.94189664 0.33078346 0.27671563
0.94393957 0.32622234 0.26955493
0.94393957 0.32622234 0.26955493
0.94393957 0.32622234 0.26955493
0.94393957 0.32622234 0.26955493
0.94393957 0.32622234 0.26955493
0.94393957 0.32622234 0.26955493
0.94393957 0.32622234 0.26955493
0.94393957 0.32622234 0.26955493
0.94393957 0.32622234 0.26955493
0.94393957 0.32622234 0.26955493
0.94393957 0.32622234 0.26955493
0.94393957 0.32622234 0.26955493
0.94393957 0.32622234 0.26955493
0.94393957 0.32622234 0.26955493
0.00580602 0.00580602 0.00580602
0.00580602 0.00580602 0.00580602
0.00580602 0.00580602 0.00580602
0.00580602 0.00580602 0.00580602
0.07485895 0.10394213 0.01200044
0.17582477 0.01697917 0.04070362
0.25358953 0.01760686 0.02862773
0.32986157 0.00910901 0.03395940
0.39208115 0.01726596 0.05885480
0.49698406 0.08004159 0.06717578
0.62793620 0.13541036 0.10178586
0.73378141 0.14449795 0.06846088
0.83051406 0.18427417 0.05408225
0.93273156 0.21352164 0.11241691
0.97632547 0.24163373 0.19099590
0.96680837 0.27897280 0.26508145
0.95253758 0.31590128 0.31384437
0.95175268 0.33297469 0.30462515
0.94343838 0.33031811 0.27360499
0.94393957 0.32622234 0.26955493
0.94393957 0.32622234 0.26955493
0.94393957 0.32622234 0.26955493
0.94393957 0.32622234 0.26955493
0.94393957 0.32622234 0.26955493
0.94393957 0.32622234 0.26955493
0.94393957 0.32622234 0.26955493
0.94393957 0.32622234 0.26955493
0.94393957 0.32622234 0.26955493
0.94393957 0.32622234 0.26955493
0.94393957 0.32622234 0.26955493
0.94393957 0.32622234 0.26955493
0.94393957 0.32622234 0.26955493
0.94393957 0.32622234 0.26955493
0.00580602 0.00580602 0.00580602
0.00580602 0.00580602 0.00580602
0.00580602 0.00580602 0.00580602
0.00580602 0.00580602 0.00580602
0.84525521 0.10393078 0.00480147
0.07456445 0.00999100 0.01327599
0.18558460 0.01667250 0.03368049
0.28003569 0.04541856 0.04071809
0.32072091 0.06361414 0.04549370
0.40978661 0.03550691 0.06601028
0.52377450 0.03624712 0.07085168
0.62049775 0.07626945 0.07675226
0.73043999 0.14034053 0.09983421
0.83355893 0.16090657 0.13406044
0.93704248 0.18413913 0.13537927
0.97177360 0.23196707 0.16392990
0.95026237 0.29201644 0.23393957
0.93565475 0.33267542 0.28836080
0.94030654 0.33823530 0.27943385
0.94393957 0.32622234 0.26955493
0.94393957 0.32622234 0.26955493
0.94393957 0.32622234 0.26955493
0.94393957 0.32622234 0.26955493
0.94393957 0.32622234 0.26955493
0.94393957 0.32622234 0.26955493
0.94393957 0.32622234 0.26955493
0.94393957 0.32622234 0.26955493
0.94393957 0.32622234 0.26955493
0.94393957 0.32622234 0.26955493
0.94393957 0.32622234 0.26955493
0.94393957 0.32622234 0.26955493
0.94393957 0.32622234 0.26955493
0.94393957 0.32622234 0.26955493
0.00581136 0.21238632 0.00000000
0.00550883 0.10964281 0.00000000
0.00527762 0.07299954 0.00000000
0.00551183 0.04612157 0.00000000
0.00438796 0.01352457 0.00000000
0.15609324 0.00000000 0.47509988
0.17685777 0.00621653 0.02971030
0.18710525 0.00565760 0.03708476
0.23494215 0.01968673 0.04498640
0.32450937 0.03001697 0.05419780
0.39148999 0.07138609 0.05307301
0.50189495 0.05716433 0.07503717
0.63112266 0.09751656 0.11415477
0.74885638 0.13368377 0.08976893
0.84607060 0.16678761 0.07753814
0.91593947 0.20809254 0.08029994
0.95089363 0.25994963 0.10945219
0.94624753 0.31476636 0.17503013
0.93567062 0.35901476 0.26662585
0.92778472 0.35743466 0.28630341
0.94393957 0.32622234 0.26955493
0.94393957 0.32622234 0.26955493
0.94393957 0.32622234 0.26955493
0.94393957 0.32622234 0.26955493
0.94393957 0.32622234 0.26955493
0.94393957 0.32622234 0.26955493
0.94393957 0.32622234 0.26955493
0.94393957 0.32622234 0.26955493
0.94393957 0.32622234 0.26955493
0.94393957 0.32622234 0.26955493
0.94393957 0.32622234 0.26955493
0.94393957 0.32622234 0.26955493
0.94393957 0.32622234 0.26955493
0.00000000 0.47382002 0.00125652
0.00000000 0.21283204 0.00000000
0.00197384 0.14683938 0.00000000
0.00391030 0.10735968 0.00000000
0.58179973 0.03150283 0.00000000
0.00558883 0.00525262 0.83960079
0.13133023 0.00514113 0.11915651
0.18577515 0.00637084 0.06777805
0.21542048 0.01267553 0.03116970
0.26634088 0.00507401 0.03843802
0.34295508 0.01264273 0.06093900
0.46259481 0.03064517 0.08601556
0.57927429 0.06747741 0.09202921
0.68839150 0.11091009 0.07396271
0.79597520 0.13768301 0.07581738
0.88942194 0.17305541 0.09194260
0.95028489 0.21976279 0.12693519
0.96853673 0.26798620 0.18884581
0.95666248 0.31231502 0.27726619
0.95531657 0.33546402 0.28857994
0.94398132 0.32641349 0.26963089
0.94394079 0.32622791 0.26955714
0.94393957 0.32622234 0.26955493
0.94393957 0.32622234 0.26955493
0.94393957 0.32622234 0.26955493
0.94393957 0.32622234 0.26955493
0.94393957 0.32622234 0.26955493
0.94393957 0.32622234 0.26955493
0.94393957 0.32622234 0.26955493
0.94393957 0.32622234 0.26955493
0.94393957 0.32622234 0.26955493
0.94393957 0.32622234 0.26955493
0.94393957 0.32622234 0.26955493
0.89987155 0.37287773 0.00000000
0.61861909 0.21097720 0.00000000
0.37536326 0.16412926 0.00000000
0.14286718 0.13632984 0.00000000
0.57574791 0.09599078 0.00000000
0.00000000 0.03905287 0.00000000
0.07648448 0.03583551 0.00000000
0.15896117 0.02629229 0.50457054
0.19017472 0.02872624 0.79391863
0.23436395 0.00531261 0.04144834
0.30857357 0.03288431 0.05430765
0.43378230 0.04684570 0.07253848
0.53608289 0.04880934 0.07257396
0.63687206 0.06678977 0.07280348
0.74275601 0.10406795 0.06801990
0.84607065 0.16092103 0.07418040
0.92517380 0.21188137 0.11870121
0.96610946 0.24463064 0.18017485
0.95258012 0.28045070 0.23940194
0.95088769 0.32783384 0.26922900
0.94823796 0.34023678 0.27302791
0.94405349 0.32674428 0.26976219
0.94393957 0.32622234 0.26955493
0.94393957 0.32622234 0.26955493
0.94393957 0.32622234 0.26955493
0.94393957 0.32622234 0.26955493
0.94393957 0.32622234 0.26955493
0.94393957 0.32622234 0.26955493
0.94393957 0.32622234 0.26955493
0.94393957 0.32622234 0.26955493
0.94393957 0.32622234 0.26955493
0.94393957 0.32622234 0.26955493
0.94393957 0.32622234 0.26955493
1.00316101 0.31646236 0.00000000
1.00218107 0.20230489 0.00000000
1.00177517 0.16581764 0.00000000
0.91821816 0.14915562 0.00000000
0.11137006 0.14194746 0.00000000
0.00228476 0.08275856 0.00000000
0.27790038 0.06200414 0.00000000
0.09467098 0.05847358 0.00553328
0.17429683 0.04376626 1.00294731
0.23667374 0.02755400 0.69426587
0.29778811 0.06496193 0.03288118
0.40845483 0.07158147 0.06047719
0.48947114 0.07007710 0.06713524
0.58889384 0.06239980 0.07870920
0.69713155 0.08163930 0.07524862
0.79962326 0.13302550 0.08359473
0.88640240 0.18638983 0.11563322
0.94843456 0.22539646 0.15935504
0.96035564 0.26195125 0.21566972
0.95784152 0.31535504 0.27308324
0.95200574 0.35440763 0.27598795
0.94421169 0.32719592 0.26989113
0.94393957 0.32622234 0.26955493
0.94393957 0.32622234 0.26955493
0.94393957 0.32622234 0.26955493
0.94393957 0.32622234 0.26955493
0.94393957 0.32622234 0.26955493
0.94393957 0.32622234 0.26955493
0.94393957 0.32622234 0.26955493
0.94393957 0.32622234 0.26955493
0.94393957 0.32622234 0.26955493
0.94393957 0.32622234 0.26955493
0.94393957 0.32622234 0.26955493
1.00573947 0.33000455 0.00000000
1.00866092 0.21449652 0.00000000
1.00987103 0.17778073 0.00000000
1.00189224 0.16566809 0.00000000
0.29402346 0.17258498 0.00000000
0.62543474 0.13172839 0.00750592
0.97943267 0.10097516 0.00000000
0.11160883 0.10626835 0.00039640
0.16177835 0.09090727 0.16835661
0.23138516 0.07693059 1.00599482
0.26101510 0.07949703 0.17883885
0.35848746 0.08442836 0.04640801
0.44440929 0.09112460 0.06501689
0.55246588 0.10524841 0.07329513
0.66643938 0.11759554 0.08055496
0.77381017 0.13738375 0.09423797
0.87055130 0.16346052 0.11439563
0.94431698 0.19106824 0.14892900
0.97463570 0.22478046 0.20909596
0.95310766 0.28120557 0.27929819
0.94478279 0.34123232 0.27848483
0.93821411 0.33275237 0.27408792
0.94176273 0.32534761 0.27106351
0.94359098 0.32577783 0.26981783
0.94393957 0.32622234 0.26955493
0.94393957 0.32622234 0.26955493
0.94393957 0.32622234 0.26955493
0.94393957 0.32622234 0.26955493
0.94393957 0.32622234 0.26955493
0.94393957 0.32622234 0.26955493
0.94393957 0.32622234 0.26955493
0.94393957 0.32622234 0.26955493
0.94393957 0.32622234 0.26955493
0.00000000 0.48881986 0.00000000
0.00000000 0.30892156 0.00000000
0.00000000 0.25251305 0.00000000
0.00203082 0.22109123 0.00000000
0.09369620 0.21894691 0.00000000
0.40716693 0.18886074 0.00000000
1.00095789 0.14945539 0.00173283
0.26622519 0.14770679 0.00148850
0.09034829 0.14120378 0.00000000
0.19079220 0.13068139 0.87198045
0.23114373 0.11447108 0.99797109
0.32384514 0.11695353 0.23852585
0.41319369 0.13282061 0.06815845
0.52510947 0.12975389 0.06311959
0.63046762 0.14085986 0.07139728
0.73674830 0.15926189 0.08234857
0.83444988 0.17757752 0.10714718
0.91333009 0.20175429 0.12791631
0.95826723 0.23584219 0.15000356
0.94298107 0.27856948 0.21143990
0.93553843 0.33033080 0.29044229
0.91819259 0.35597751 0.29093988
0.93443076 0.32290932 0.27454079
0.94149849 0.32415224 0.26913156
0.94336860 0.32445302 0.26992058
0.94452434 0.32480093 0.27080886
0.94456558 0.32576335 0.27033583
0.94396344 0.32620524 0.26958444
0.94393957 0.32622234 0.26955493
0.94393957 0.32622234 0.26955493
0.94393957 0.32622234 0.26955493
0.94393957 0.32622234 0.26955493
0.94393957 0.32622234 0.26955493
0.00000000 0.55148230 0.37945854
0.00000000 0.36814455 0.55266414
0.00000000 0.30198513 0.61943990
0.00000000 0.26559057 0.29352442
0.00579962 0.25653153 0.00000000
0.00336870 0.22401090 0.00000000
0.00386427 0.19675489 0.00580935
0.00530541 0.18231473 0.13353369
0.05596695 0.17579955 0.00250700
0.14985478 0.15614642 0.00237694
0.20989546 0.13629327 0.94222209
0.28307262 0.14163066 1.01913937
0.39134743 0.14979668 0.30834069
0.47900356 0.15214599 0.05135854
0.58699478 0.16196731 0.05405045
0.69712347 0.18010183 0.07005576
0.79818479 0.19817837 0.09757671
0.88818234 0.21915166 0.12153555
0.95512161 0.25294852 0.12580523
0.96208447 0.28937357 0.13649377
0.94668507 0.31663401 0.21624087
0.93826877 0.34331538 0.29127280
0.94007586 0.32653825 0.25683511
0.93665724 0.32483153 0.25492656
0.93813890 0.31070881 0.27158000
0.94920119 0.31257063 0.28161419
0.95084145 0.32238633 0.27704573
0.94421027 0.32602855 0.26988965
0.94393957 0.32622234 0.26955493
0.94393957 0.32622234 0.26955493
0.94393957 0.32622234 0.26955493
0.94393957 0.32622234 0.26955493
0.94393957 0.32622234 0.26955493
0.00065720 0.64278091 1.00230410
0.00314918 0.44490443 0.92922331
0.00418139 0.36077880 0.82886426
0.00490763 0.30724957 0.00613750
0.00586431 0.29604847 0.00000000
0.00207970 0.27089259 0.00341982
0.00585175 0.24021493 0.22563194
0.00394865 0.21835090 0.00575764
0.00395197 0.21285709 0.00000000
0.12722975 0.19321871 0.00000000
0.21431480 0.17876825 0.00351001
0.29396701 0.17211277 1.00692720
0.35607926 0.18179988 0.89973688
0.44804014 0.18900059 0.12694454
0.54402012 0.19211579 0.04039149
0.65192991 0.20461116 0.05724009
0.75889742 0.22478336 0.08082235
0.85437971 0.24635653 0.10760938
0.93463173 0.26998617 0.11294150
0.97353801 0.29372944 0.12108418
0.94319399 0.31424674 0.17947356
0.94225880 0.33853406 0.32862656
0.94268323 0.34969255 0.28118511
0.94122023 0.33420422 0.27366528
0.94238929 0.31962924 0.27871711
0.94853759 0.31972264 0.26890353
0.94891530 0.32761988 0.26786668
0.94261153 0.32315894 0.27632866
0.94399807 0.30815159 0.27928960
0.95418009 0.30936173 0.28368877
0.94531385 0.32398601 0.27144880
0.94398184 0.32615309 0.26961319
0.94393957 0.32622234 0.26955493
0.06300295 0.71471143 0.00175381
0.09350807 0.52253493 0.00000000
0.10895418 0.42841864 0.00000000
0.06568383 0.36959186 0.00000000
0.00688041 0.36525729 0.00000000
0.00156318 0.33638076 0.00163457
0.00588202 0.30240354 0.00303326
0.00548300 0.27490683 0.00000000
0.05927723 0.26434634 0.00000000
0.07761423 0.24943308 0.00000000
0.20095201 0.23419173 0.00000000
0.24702897 0.21883613 0.00356494
0.33582758 0.21767718 0.00480016
0.41713869 0.21941149 0.14354536
0.51185669 0.22115584 0.03620079
0.60940456 0.23063455 0.04783746
0.71358261 0.24498790 0.06092509
0.81869474 0.26492243 0.07496400
0.90515189 0.29229869 0.08990802
0.96081180 0.31712072 0.09484306
0.93752920 0.33154893 0.12075072
0.93427093 0.35691313 0.22700877
0.94267451 0.37470534 0.28995020
0.93850952 0.36180495 0.27787482
0.94307781 0.34905493 0.26340168
0.95155435 0.34082590 0.25158568
0.95116274 0.33885615 0.25363065
0.94579023 0.33694689 0.26974389
0.94572212 0.32656416 0.28538067
0.94708137 0.31139532 0.29791673
0.94961622 0.30811393 0.28744178
0.95204404 0.31786177 0.29747624
0.94129795 0.31937078 0.27927346
0.03763194 0.79344950 0.00000000
0.04091764 0.62039145 0.00000000
0.04230884 0.51921341 0.00000000
0.02935427 0.44752803 0.00000000
0.00583905 0.44508288 0.00000000
0.00410130 0.40956317 0.00000000
0.00369835 0.36601319 0.00000000
0.01290358 0.33623001 0.00000000
0.00473522 0.32319315 0.00000000
0.00067970 0.31266588 0.00000000
0.10814592 0.30114826 0.00000000
0.19898542 0.28250441 0.00000000
0.29420903 0.26404788 0.00000000
0.38271560 0.25406806 0.00580999
0.47641078 0.25270503 0.25742158
0.57357701 0.26373989 0.03464084
0.67204289 0.27569410 0.04538015
0.77977861 0.28825645 0.06182731
0.87553554 0.31340262 0.07533301
0.95281453 0.34734811 0.08332361
0.95734735 0.36190609 0.08437255
0.93145488 0.38369592 0.11511624
0.93605765 0.39853407 0.20401391
0.93615727 0.39022065 0.25358988
0.94144569 0.37801764 0.24309687
0.94553152 0.36685197 0.25167586
0.94359346 0.35731217 0.24807018
0.94605511 0.35339010 0.25348310
0.95077041 0.34860404 0.28569838
0.94228493 0.33258369 0.29143108
0.94867611 0.31687028 0.27834550
0.94885268 0.31585001 0.29358252
0.94640185 0.32276324 0.28157058
0.00000000 0.86085351 0.00000000
0.00013800 0.72784378 0.00000000
0.00128656 0.62860147 0.00000000
0.00437701 0.54795844 0.00000000
0.01462033 0.53480668 0.00000000
0.00513049 0.48035948 0.00000000
0.00493188 0.43049425 0.00000000
0.00763077 0.40317379 0.00000000
0.00544572 0.38989271 0.00000000
0.00262330 0.37853154 0.00000000
0.04419762 0.37153707 0.00000000
0.15001189 0.35389148 0.00000000
0.25560379 0.32411835 0.00000000
0.33554413 0.30675831 0.00000000
0.43017805 0.30073474 0.00000000
0.53866724 0.30672464 0.05508088
0.64156738 0.31796079 0.03927578
0.74472784 0.32862258 0.05759356
0.84499389 0.34776078 0.07088885
0.93636449 0.38003752 0.07660706
0.97816573 0.39668132 0.07485815
0.93294738 0.42003067 0.07346030
0.92775785 0.42840096 0.11460323
0.93808786 0.41965002 0.21608375
0.94122134 0.40708869 0.23941218
0.93907550 0.39111585 0.25328447
0.93763678 0.37953379 0.24827150
0.94577313 0.36851785 0.24636709
0.95640599 0.35729875 0.27449036
0.94420153 0.35421044 0.25546225
0.94222066 0.34269306 0.25321798
0.93771681 0.33639076 0.26956998
0.93981133 0.33761260 0.27638806
0.00000000 0.94124112 0.00000000
0.00089447 0.82736033 0.00000000
0.00190636 0.74760174 0.00000000
0.00426880 0.65747191 0.00000000
0.01742552 0.63674153 0.00000000
0.01201058 0.56759848 0.00000000
0.01102747 0.51692826 0.00000000
0.00707839 0.48587098 0.00083366
0.00504134 0.46778529 0.00000000
0.00506068 0.45549164 0.00000000
0.02270435 0.44776761 0.00000000
0.10021103 0.42878342 0.00000000
0.20848120 0.40174386 0.00000000
0.30919772 0.38018148 0.00000000
0.39768308 0.36723457 0.00000000
0.50181777 0.36594234 0.00356684
0.61218357 0.37250975 0.50014884
0.71474301 0.38161828 0.05105878
0.81463998 0.39337062 0.06542710
0.90600972 0.41587298 0.06987754
0.97371866 0.43639741 0.07173573
0.93355741 0.46248385 0.07014762
0.92402120 0.46019235 0.07605305
0.93842443 0.45449771 0.15196000
0.94127443 0.43922480 0.19688797
0.93703163 0.41847820 0.20974663
0.93591969 0.40827901 0.23214325
0.94332147 0.39451272 0.24426289
0.95089926 0.37354451 0.24822236
0.94037042 0.37386344 0.21757760
0.93748446 0.37425266 0.21977322
0.93427763 0.36549802 0.24101461
0.93027394 0.35728372 0.25748085
0.02943329 1.00031689 0.00000000
0.01968528 0.91092768 0.00000000
0.01433403 0.84471820 0.00000000
0.00762010 0.77687047 0.00000000
0.00838933 0.73488864 0.01980249
0.01539195 0.66631779 0.00000000
0.01241199 0.61728624 0.00000000
0.00558031 0.58799175 0.00000000
0.00499334 0.56346970 0.00000000
0.00510359 0.54858883 0.00000000
0.01153402 0.53723526 0.00000000
0.04797030 0.51047062 0.00000000
0.13183070 0.48636391 0.00000000
0.27600476 0.46680116 0.00000000
0.38800522 0.44514620 0.00000000
0.47665942 0.43720189 0.00470303
0.57746406 0.43978512 0.00576026
0.68289456 0.44271223 0.18777412
0.78267770 0.44578115 0.05353975
0.86810925 0.45965308 0.06320882
0.94304455 0.48323429 0.06873903
0.93852074 0.50593108 0.07339533
0.92718835 0.49032168 0.07121846
0.93579497 0.48998380 0.10700302
0.93789178 0.47203838 0.11446071
0.93343808 0.45279073 0.12971804
0.93406235 0.44220974 0.17415144
0.93846561 0.43163514 0.20648578
0.93697018 0.41144967 0.19597233
0.92945692 0.40394314 0.19244731
0.93684036 0.40545596 0.19000327
0.93649315 0.39219407 0.22038561
0.93000968 0.38021311 0.23973354
0.03992539 1.00254799 0.00000000
0.02455103 0.98529124 0.00000000
0.01742078 0.92511074 0.00000000
0.01038762 0.87297073 0.00000000
0.00675417 0.81225641 0.03469839
0.01126687 0.75652497 0.00085153
0.00937062 0.71605112 0.00000000
0.00539235 0.68956145 0.00000000
0.00515975 0.65885989 0.00000000
0.00580940 0.63527277 0.00000000
0.00574438 0.62628806 0.00000000
0.01090676 0.59481011 0.00000000
0.04798826 0.57242485 0.00000000
0.20730623 0.55680477 0.00000000
0.38100354 0.53216855 0.00020541
0.46475918 0.51870491 0.00000481
0.54984175 0.51831161 0.00000000
0.65020884 0.51729571 0.00342911
0.74702233 0.51196065 0.38806612
0.83117394 0.51597757 0.05986873
0.91456446 0.53675162 0.06854884
0.95360214 0.55134127 0.08265708
0.93260374 0.52868433 0.07193513
0.93390710 0.52469853 0.07707857
0.93297480 0.50464937 0.07066122
0.92873399 0.48883413 0.06763790
0.93141301 0.47864136 0.10297254
0.93584125 0.46907086 0.13172943
0.93042222 0.45922908 0.12255265
0.92113394 0.44564988 0.16428104
0.93640835 0.43529280 0.16399234
0.93515966 0.42346838 0.19743083
0.93704760 0.40904346 0.23205183
0.04583686 1.00606647 0.00000000
0.03153093 1.00063467 0.00000000
0.02646949 0.99921041 0.00000000
0.02043595 0.95028120 0.00000000
0.01724776 0.88037986 0.00000000
0.00565384 0.83358720 0.00000000
0.01048711 0.80917476 0.00000000
0.00715745 0.78934740 0.00000000
0.01114972 0.74666131 0.00165591
0.00795633 0.70520491 0.39484287
0.00737203 0.69896946 0.00425821
0.01283801 0.67186739 0.00000000
0.01043552 0.66008653 0.00000000
0.15575489 0.63793254 0.00000000
0.33842047 0.61940582 0.00013797
0.46047304 0.60511710 0.00000000
0.52923605 0.59812894 0.00000000
0.62824724 0.59151396 0.00070493
0.72073395 0.58235152 0.44785432
0.80544767 0.58286965 0.25936862
0.89460356 0.59063765 0.06701861
0.96220639 0.60078374 0.07483357
0.93766858 0.58592613 0.07321112
0.93447456 0.56892268 0.07530803
0.92874321 0.54383946 0.07008830
0.92990461 0.52525189 0.04912930
0.93524713 0.51460928 0.06570561
0.93842916 0.50754691 0.07521212
0.93505311 0.50040378 0.06843452
0.92494332 0.48496902 0.11249087
0.93273437 0.46237882 0.11901809
0.93243041 0.45549983 0.13511593
0.94215729 0.44025785 0.19799131
0.04620745 1.01523996 0.00000000
0.03890662 1.00596801 0.00000000
0.03602338 1.00212744 0.00000000
0.03011795 1.00139892 0.00000000
0.02527251 0.95004492 0.00000000
0.00559551 0.91853074 0.00443434
0.00710782 0.88961399 0.00245780
0.01270209 0.88044392 0.00000000
0.02304357 0.83747778 0.00000000
0.01232561 0.79497603 0.13590512
0.00982840 0.77868078 0.00435939
0.00737038 0.75876194 0.00000000
0.00894650 0.74410970 0.00000000
0.11878060 0.71035358 0.00176487
0.32355070 0.69378114 0.00251158
0.47035516 0.67779634 0.00155593
0.51603481 0.66757025 0.00100161
0.59972643 0.65884842 0.00000000
0.69664520 0.64280937 0.00000000
0.78322189 0.63765263 0.99463550
0.86662532 0.63891968 0.05063394
0.94489488 0.64420911 0.06617064
0.95536655 0.64667380 0.05950378
0.93395359 0.62943693 0.05212147
0.92629199 0.59327223 0.05720152
0.93420195 0.57043900 0.04097988
0.93894530 0.56018491 0.05122843
0.93766799 0.55215358 0.07094337
0.93571003 0.54100117 0.06277876
0.92981244 0.51812086 0.06431494
0.92667664 0.50137145 0.04806160
0.93535350 0.48489713 0.03155986
0.94616557 0.47443371 0.10283152
0.02463307 1.00004458 0.00000000
0.02443587 1.00135630 0.00000000
0.02435390 1.00139866 0.00000000
0.02418521 1.00122494 0.00000000
0.02403364 1.00089522 0.00000000
0.02220378 0.99581761 0.00000000
0.01487784 0.93146506 0.00000000
0.02344180 0.93256425 0.00000000
0.02958198 0.91579584 0.00000000
0.01508686 0.89884098 0.00000000
0.01375639 0.87421265 0.00315558
0.01456362 0.83926987 0.00000000
0.01688343 0.82526173 0.01575257
0.00602068 0.80414089 0.50763067
0.09205098 0.78258114 0.00425357
0.29766134 0.76145970 0.00000000
0.50618717 0.74437137 0.00000000
0.56584183 0.73221643 0.00000000
0.66122188 0.72250160 0.00000000
0.75760651 0.71541137 0.00000000
0.82712213 0.70677961 0.03748125
0.92254844 0.69367090 0.06052669
0.99375449 0.68977722 0.06626658
0.93330021 0.67861004 0.04491497
0.92027260 0.63829743 0.05008109
0.93079574 0.61956594 0.04845384
0.93555310 0.61342688 0.06001774
