LUT/ETERNA.cube
TITLE "ETERNA"
LUT_3D_SIZE 5
# Apple Log/Rec2020 -> LA - :FLog2C_to_ETERNA/LA - :FLog2C_to_ETERNA, CineEI Shift 0.00, Black Level 0.56% IRE, Input 109% -> Output 100% - Created with LUTCalc v4.09 by Ben Turley February 2025
0.00580602 0.00580602 0.00580602
0.81744824 0.05727040 0.10518138
0.98660699 0.61130422 0.78116362
0.94393957 0.32622234 0.26955493
0.94393957 0.32622234 0.26955493
1.00316101 0.31646236 0.00000000
0.17429683 0.04376626 1.00294731
0.88640240 0.18638983 0.11563322
0.94393957 0.32622234 0.26955493
0.94393957 0.32622234 0.26955493
0.00000000 0.94124112 0.00000000
0.00504134 0.46778529 0.00000000
0.61218357 0.37250975 0.50014884
0.94127443 0.43922480 0.19688797
0.93027394 0.35728372 0.25748085
0.02396476 1.00112892 0.00000000
0.02396476 1.00112892 0.00000000
0.12693982 0.97207667 0.00000000
0.93321752 0.82677865 0.05509781
0.94597668 0.64951104 0.07403798
0.02396476 1.00112892 0.00000000
0.02396476 1.00112892 0.00000000
0.02396476 1.00112892 0.00000000
0.58305762 1.00134983 0.00494608
0.94645376 0.99996239 0.07585284
0.00546362 1.04537372 0.18776470
0.75366539 0.08522358 0.00574686
0.99796407 0.65833399 0.77188927
0.94393957 0.32622234 0.26955493
0.94393957 0.32622234 0.26955493
0.03819132 0.48360319 0.49976629
0.10487993 0.10487993 0.10487993
0.76315225 0.13719690 0.10996299
0.94393957 0.32622234 0.26955493
0.94393957 0.32622234 0.26955493
0.05785710 0.99813335 0.68597290
0.01728204 0.60382817 0.04661660
0.46561321 0.45001453 0.00171431
0.93406193 0.49509208 0.15739303
0.93890041 0.40518323 0.21272419
0.02396476 1.00112892 0.00000000
0.02396476 1.00112892 0.00000000
0.02259618 0.99772228 0.00000000
0.92037906 0.90292086 0.05321426
0.92642172 0.74330771 0.05594308
0.11506940 1.00103676 0.95129484
0.02396476 1.00112892 0.00000000
0.02396476 1.00112892 0.00000000
0.28339554 1.00094049 0.00000000
0.93312263 1.00105920 0.07824631
0.01018680 0.00000000 0.27190138
0.68897981 0.00000000 0.10272257
1.00073697 0.75409304 0.14384551
0.93114105 0.31295871 0.15042835
0.94393957 0.32622234 0.26955493
0.07287081 0.57189412 0.87930883
0.10978060 0.08655644 0.40997817
0.75301084 0.09728498 0.42067916
0.94889815 0.34154221 0.38907428
0.94466414 0.32690700 0.28031168
0.09261775 0.93914499 0.88109313
0.04837200 0.65270749 0.60127466
0.48451734 0.48451734 0.48451734
0.94914819 0.52173560 0.48583065
0.94447614 0.43570944 0.37230962
0.10855422 0.97071495 0.82557225
0.06915370 0.99764951 0.45895178
0.05894906 0.98202580 0.34741008
0.89308928 0.89868380 0.33892798
0.94191730 0.75215648 0.33957974
0.11849164 0.97686385 0.98958161
0.08029511 0.98723827 0.63042961
0.05838691 0.99978280 0.30132539
0.24195374 1.00116555 0.00065744
0.93383387 1.00103826 0.07949343
0.03685090 0.00532191 0.71402233
0.71994455 0.00000000 0.19728348
1.00001004 0.87869549 0.18056570
0.93385657 0.41103172 0.25327990
0.94563443 0.29770032 0.17673771
0.07762446 0.18385683 1.00180353
0.12764136 0.03504805 0.91267704
0.78867817 0.00000000 0.86882274
0.96209106 0.28527612 0.63394120
0.95483096 0.32478786 0.50084691
0.06951827 0.74241050 0.91437362
0.06666844 0.59824454 0.92826999
0.50641383 0.47420322 0.93367542
0.96496969 0.47824202 0.78979857
0.95698705 0.43628243 0.64088213
0.09533134 0.99780776 0.84519212
0.09938417 0.95947291 0.85594289
0.08773677 0.91718336 0.82637222
0.85371530 0.85371530 0.85371530
0.96509107 0.75581282 0.74656806
0.10004010 0.97893325 0.85370515
0.10004010 0.97893325 0.85370515
0.09907881 0.97920828 0.83381192
0.22738692 0.98639730 0.67005198
0.96981096 1.00094068 0.60178338
0.06278325 0.07069652 1.00123023
0.86618856 0.02502318 1.00036949
1.00010323 0.00000000 0.99361529
0.96747768 0.49724810 0.23225523
0.94650364 0.43384332 0.27026112
0.06314416 0.06967269 1.00060888
0.06903579 0.07044083 1.00122458
0.78341470 0.03517599 1.00100017
0.97952375 0.10559863 0.94219113
0.97214918 0.21932887 0.78588038
0.05124699 0.86545082 0.82744040
0.11375849 0.29053206 0.98309508
0.41426161 0.18783528 1.00113162
0.98270213 0.26636280 1.00062226
0.97481912 0.31111439 0.91621598
0.10004010 0.97893325 0.85370515
0.09749386 0.95038641 0.85778815
0.07895567 0.82424250 0.88121265
0.75280703 0.73538364 0.98967380
0.97652652 0.68453083 0.96696442
0.10004010 0.97893325 0.85370515
0.10004010 0.97893325 0.85370515
0.10004010 0.97893325 0.85370515
0.10855601 0.97889446 0.85497799
0.99203953 0.99203953 0.99203953
