LUT/ETERNA.cube
TITLE "ETERNA"
LUT_3D_SIZE 9
# Apple Log/Rec2020 -> LA - :FLog2C_to_ETERNA/LA - :FLog2C_to_ETERNA, CineEI Shift 0.00, Black Level 0.56% IRE, Input 109% -> Output 100% - Created with LUTCalc v4.09 by Ben Turley February 2025
0.00580602 0.00580602 0.00580602
0.35507753 0.01822089 0.04781474
0.81744824 0.05727040 0.10518138
1.00166816 0.66731084 0.04179448
0.98660699 0.61130422 0.78116362
0.94393957 0.32622234 0.26955493
0.94393957 0.32622234 0.26955493
0.94393957 0.32622234 0.26955493
0.94393957 0.32622234 0.26955493
0.00580602 0.00580602 0.00580602
0.84525521 0.10393078 0.00480147
0.32072091 0.06361414 0.04549370
0.73043999 0.14034053 0.09983421
0.95026237 0.29201644 0.23393957
0.94393957 0.32622234 0.26955493
0.94393957 0.32622234 0.26955493
0.94393957 0.32622234 0.26955493
0.94393957 0.32622234 0.26955493
1.00316101 0.31646236 0.00000000
0.11137006 0.14194746 0.00000000
0.17429683 0.04376626 1.00294731
0.48947114 0.07007710 0.06713524
0.88640240 0.18638983 0.11563322
0.95200574 0.35440763 0.27598795
0.94393957 0.32622234 0.26955493
0.94393957 0.32622234 0.26955493
0.94393957 0.32622234 0.26955493
0.00065720 0.64278091 1.00230410
0.00586431 0.29604847 0.00000000
0.00395197 0.21285709 0.00000000
0.35607926 0.18179988 0.89973688
0.75889742 0.22478336 0.08082235
0.94319399 0.31424674 0.17947356
0.94238929 0.31962924 0.27871711
0.94399807 0.30815159 0.27928960
0.94393957 0.32622234 0.26955493
0.00000000 0.94124112 0.00000000
0.01742552 0.63674153 0.00000000
0.00504134 0.46778529 0.00000000
0.20848120 0.40174386 0.00000000
0.61218357 0.37250975 0.50014884
0.97371866 0.43639741 0.07173573
0.94127443 0.43922480 0.19688797
0.95089926 0.37354451 0.24822236
0.93027394 0.35728372 0.25748085
0.04620745 1.01523996 0.00000000
0.02527251 0.95004492 0.00000000
0.02304357 0.83747778 0.00000000
0.00894650 0.74410970 0.00000000
0.51603481 0.66757025 0.00100161
0.86662532 0.63891968 0.05063394
0.92629199 0.59327223 0.05720152
0.93571003 0.54100117 0.06277876
0.94616557 0.47443371 0.10283152
0.02396476 1.00112892 0.00000000
0.02396476 1.00112892 0.00000000
0.02396476 1.00112892 0.00000000
0.02173095 0.99972530 0.00000000
0.12693982 0.97207667 0.00000000
0.74003675 0.88702345 0.00054502
0.93321752 0.82677865 0.05509781
0.93594834 0.72473426 0.06630225
0.94597668 0.64951104 0.07403798
0.02396476 1.00112892 0.00000000
0.02396476 1.00112892 0.00000000
0.02396476 1.00112892 0.00000000
0.02396476 1.00112892 0.00000000
0.02396476 1.00112892 0.00000000
0.69963335 1.00135613 0.00000000
0.86859194 0.99793130 0.30908715
0.92915543 0.89551617 0.05171256
0.92688432 0.84763919 0.05347031
0.02396476 1.00112892 0.00000000
0.02396476 1.00112892 0.00000000
0.02396476 1.00112892 0.00000000
0.02396476 1.00112892 0.00000000
0.02396476 1.00112892 0.00000000
0.02549457 1.00113606 0.00000000
0.58305762 1.00134983 0.00494608
0.95477352 1.00002568 0.11364100
0.94645376 0.99996239 0.07585284
0.00580602 0.00580602 0.00580602
0.19497928 0.17318977 0.02450097
0.78643878 0.09423756 0.08874731
1.00140344 0.41177640 0.18263173
0.95080054 0.64839672 0.60057531
0.94393957 0.32622234 0.26955493
0.94393957 0.32622234 0.26955493
0.94393957 0.32622234 0.26955493
0.94393957 0.32622234 0.26955493
0.00580602 0.00580602 0.00580602
0.00580602 0.00580602 0.00580602
0.22588179 0.02151612 0.03492203
0.59645851 0.08362899 0.07693746
0.93531042 0.22792820 0.15125654
0.94393957 0.32622234 0.26955493
0.94393957 0.32622234 0.26955493
0.94393957 0.32622234 0.26955493
0.94393957 0.32622234 0.26955493
1.00327930 0.42150554 0.00000000
0.00516057 0.15122702 0.00000000
0.11205073 0.10223895 0.00166708
0.35655513 0.08586691 0.04206313
0.80297727 0.14387976 0.10050749
0.94416150 0.30743415 0.25202826
0.94393957 0.32622234 0.26955493
0.94393957 0.32622234 0.26955493
0.94393957 0.32622234 0.26955493
0.00485480 0.74713246 0.00000000
0.00572248 0.35395926 0.00000000
0.00624210 0.25218628 0.00000000
0.24434459 0.22081746 0.00259634
0.63788587 0.23383027 0.05912611
0.93696767 0.32384253 0.10072514
0.94262646 0.35492080 0.25067882
0.94396468 0.33173691 0.26442410
0.94393957 0.32622234 0.26955493
0.01427691 0.99826881 0.00000000
0.00768636 0.71861116 0.00000000
0.00738447 0.55747284 0.00000000
0.10841626 0.46681968 0.00000000
0.49372627 0.42862943 0.00473142
0.89516556 0.47557776 0.06500984
0.93342664 0.48109195 0.12941062
0.93643601 0.43413037 0.18600068
0.93951908 0.39310159 0.22234234
0.02631108 1.01093536 0.00000000
0.02214542 0.98864996 0.00000000
0.01261235 0.90205073 0.00000000
0.00836390 0.81921634 0.00000000
0.31188468 0.74397587 0.00000000
0.77175753 0.70529877 0.02587887
0.92586353 0.67002711 0.05829298
0.92740990 0.59720321 0.06245229
0.92928385 0.54158315 0.06637325
0.02396476 1.00112892 0.00000000
0.02396476 1.00112892 0.00000000
0.02396476 1.00112892 0.00000000
0.02383498 1.00114045 0.00000000
0.02323340 0.99635913 0.00000000
0.58681218 0.93641317 0.00000000
0.92878357 0.88948545 0.05377851
0.92710368 0.78476888 0.05483499
0.92647464 0.72651300 0.05530567
0.02396476 1.00112892 0.00000000
0.02396476 1.00112892 0.00000000
0.02396476 1.00112892 0.00000000
0.02396476 1.00112892 0.00000000
0.02396476 1.00112892 0.00000000
0.10091138 1.00113113 0.00000000
0.76115060 1.00040202 0.00529769
0.93175355 0.95846498 0.05531619
0.92926476 0.89965132 0.05370251
0.02396476 1.00112892 0.00000000
0.02396476 1.00112892 0.00000000
0.02396476 1.00112892 0.00000000
0.02396476 1.00112892 0.00000000
0.02396476 1.00112892 0.00000000
0.02396476 1.00112892 0.00000000
0.35167516 1.00113537 0.00000000
0.86178750 1.00083125 0.04974086
0.93327065 1.00059171 0.07612085
0.00546362 1.04537372 0.18776470
0.00499327 1.00385675 0.00448745
0.75366539 0.08522358 0.00574686
0.97734534 0.30460104 0.21159391
0.99796407 0.65833399 0.77188927
0.94393957 0.32622234 0.26955493
0.94393957 0.32622234 0.26955493
0.94393957 0.32622234 0.26955493
0.94393957 0.32622234 0.26955493
0.01340001 0.00500707 0.42045934
0.00916886 0.00319646 0.10154894
0.20752649 0.01549927 0.06238315
0.55089980 0.07244099 0.07373283
0.92814405 0.21151535 0.13302140
0.94393957 0.32622234 0.26955493
0.94393957 0.32622234 0.26955493
0.94393957 0.32622234 0.26955493
0.94393957 0.32622234 0.26955493
0.03819132 0.48360319 0.49976629
0.01559754 0.16105480 0.15101275
0.10487993 0.10487993 0.10487993
0.33332544 0.09275000 0.09356516
0.76315225 0.13719690 0.10996299
0.94407174 0.29310237 0.23399853
0.94393957 0.32622234 0.26955493
0.94393957 0.32622234 0.26955493
0.94393957 0.32622234 0.26955493
0.05192005 0.78907190 0.65844080
0.02121178 0.39105253 0.16912074
0.01715605 0.27149736 0.09308654
0.23478937 0.23266387 0.07683631
0.60629428 0.23937658 0.07551326
0.93717979 0.32402864 0.10184198
0.94169857 0.36438844 0.24450463
0.94368615 0.33641929 0.26160849
0.94393957 0.32622234 0.26955493
0.05785710 0.99813335 0.68597290
0.02547996 0.75784719 0.13804329
0.01728204 0.60382817 0.04661660
0.07485511 0.50289746 0.00507347
0.46561321 0.45001453 0.00171431
0.87122149 0.48415816 0.05930546
0.93406193 0.49509208 0.15739303
0.93598044 0.44766675 0.17482997
0.93890041 0.40518323 0.21272419
0.05842079 1.00473403 0.00353587
0.02629935 0.99568637 0.00000000
0.01571451 0.92346795 0.00000000
0.00943255 0.84757456 0.00000000
0.26468109 0.76820289 0.00000000
0.74067102 0.72060597 0.01679840
0.92604487 0.69194373 0.05683639
0.92698970 0.61525364 0.06253784
0.92882206 0.55849807 0.06502181
0.02396476 1.00112892 0.00000000
0.02396476 1.00112892 0.00000000
0.02396476 1.00112892 0.00000000
0.02396476 1.00112892 0.00000000
0.02259618 0.99772228 0.00000000
0.52743915 0.94958928 0.00000000
0.92037906 0.90292086 0.05321426
0.92801512 0.79819483 0.05416635
0.92642172 0.74330771 0.05594308
0.06341806 1.00140216 0.00286702
0.02634649 1.00113534 0.00000000
0.02396476 1.00112892 0.00000000
0.02396476 1.00112892 0.00000000
0.02396476 1.00112892 0.00000000
0.06789328 1.00111063 0.00000000
0.70900698 1.00086150 0.00135498
0.93247086 0.97651091 0.05666889
0.93013947 0.91382307 0.05456354
0.11506940 1.00103676 0.95129484
0.04472893 1.00091733 0.15586314
0.02396476 1.00112892 0.00000000
0.02396476 1.00112892 0.00000000
0.02396476 1.00112892 0.00000000
0.02396476 1.00112892 0.00000000
0.28339554 1.00094049 0.00000000
0.82491693 1.00086662 0.03366412
0.93312263 1.00105920 0.07824631
0.00640962 0.00000000 0.15068670
0.00538238 0.00000000 0.00589943
0.72165408 1.00031509 0.00642152
0.94479122 0.48141235 0.00577759
1.00026988 0.65740828 0.22335290
0.94393957 0.32622234 0.26955493
0.94393957 0.32622234 0.26955493
0.94393957 0.32622234 0.26955493
0.94393957 0.32622234 0.26955493
0.03330345 1.00250038 0.59981438
0.01688976 0.00054545 0.21239734
0.20856542 0.00077671 0.17696016
0.53655269 0.05146809 0.18635433
0.92253376 0.19456503 0.17851191
0.94393957 0.32622234 0.26955493
0.94393957 0.32622234 0.26955493
0.94393957 0.32622234 0.26955493
0.94393957 0.32622234 0.26955493
0.05407119 0.54629328 0.72861635
0.02561037 0.16368751 0.30862839
0.10444901 0.09958464 0.22571324
0.33741237 0.08195035 0.22470381
0.75350504 0.12244399 0.26309812
0.94695337 0.28460588 0.29616354
0.94470827 0.32683893 0.28058925
0.94393957 0.32622234 0.26955493
0.94393957 0.32622234 0.26955493
0.06817530 0.79931043 0.78828311
0.03368935 0.42295978 0.40227174
0.02695786 0.29038702 0.26718771
0.24097047 0.24097047 0.24097047
0.60671279 0.23794350 0.25422140
0.94550229 0.31537632 0.28133026
0.94394194 0.37937215 0.31595294
0.94402477 0.34412832 0.27998267
0.94393183 0.32626948 0.26949028
0.08970839 0.98816563 0.77588723
0.04402327 0.76940366 0.45932550
0.03214897 0.63318037 0.31575743
0.07416451 0.53249774 0.23619902
0.47202769 0.46840292 0.23274276
0.86595406 0.48328454 0.25084785
0.94047706 0.50721085 0.31615777
0.94004643 0.46192725 0.28084542
0.93945064 0.41462144 0.23925070
0.07662934 1.00135214 0.65007073
0.06210969 0.97598381 0.38605844
0.04527648 0.91771525 0.27634178
0.03241238 0.85485057 0.18601797
0.24715630 0.78246327 0.14203825
0.73090054 0.73030678 0.16067165
0.93377965 0.69993322 0.19530393
0.93694446 0.62367727 0.25187461
0.93438776 0.56963687 0.20700961
0.06993053 0.99999752 0.67516352
0.04473728 1.00089593 0.15212587
0.03692793 1.00098225 0.06119084
0.02994126 1.00116126 0.00000000
0.02399497 0.99766276 0.00000000
0.47885123 0.95589711 0.00000000
0.90221944 0.90736424 0.04701977
0.93057692 0.80361598 0.10916075
0.92815316 0.75179482 0.07239007
0.14414896 0.93880309 0.87806938
0.05962710 0.99935085 0.31785643
0.03341519 1.00113551 0.00577673
0.02396476 1.00112892 0.00000000
0.02396476 1.00112892 0.00000000
0.05053928 1.00108700 0.00000000
0.66667263 1.00102532 0.00001432
0.93297893 0.98278281 0.05950733
0.93036438 0.91768321 0.05416787
0.13195747 0.97469480 0.88673123
0.07384282 0.99119480 0.54160294
0.05689059 0.99862598 0.28706592
0.03883870 1.00118065 0.00602948
0.02453723 1.00113405 0.00000000
0.02396476 1.00112892 0.00000000
0.23516743 1.00075242 0.00000000
0.79563521 1.00089323 0.02541233
0.93311731 1.00095914 0.07892793
0.01018680 0.00000000 0.27190138
0.00536558 0.00000000 0.04663238
0.68897981 0.00000000 0.10272257
0.93468806 0.38005170 0.16123769
1.00073697 0.75409304 0.14384551
0.94277301 0.28384384 0.12884150
0.93114105 0.31295871 0.15042835
0.94373833 0.32622840 0.26831362
0.94393957 0.32622234 0.26955493
0.05798759 1.00010706 0.77131300
0.02654181 0.00037681 0.37584662
0.21854161 0.00000000 0.30480396
0.53647519 0.00508504 0.31935937
0.92733790 0.16468803 0.34651156
0.94767964 0.33649938 0.35084256
0.94536504 0.32834832 0.29558737
0.94407656 0.32619587 0.27051943
0.94393957 0.32622234 0.26955493
0.07287081 0.57189412 0.87930883
0.03761042 0.15799523 0.55081962
0.10978060 0.08655644 0.40997817
0.35331166 0.06788931 0.38467543
0.75301084 0.09728498 0.42067916
0.95345763 0.26371881 0.42296911
0.94889815 0.34154221 0.38907428
0.94688236 0.33263877 0.32712492
0.94466414 0.32690700 0.28031168
0.06994926 0.79849119 0.90382789
0.04801386 0.44628815 0.66514428
0.03795576 0.30714076 0.51354006
0.25271485 0.24712984 0.44947787
0.61902070 0.23448668 0.44623231
0.95184449 0.29858909 0.47080242
0.94991340 0.40411838 0.45087049
0.94874634 0.36677223 0.39402014
0.94682908 0.33654777 0.33575389
0.09261775 0.93914499 0.88109313
0.06276096 0.76689985 0.70794201
0.04837200 0.65270749 0.60127466
0.07714790 0.55754020 0.51138597
0.48451734 0.48451734 0.48451734
0.86528638 0.48131742 0.48472770
0.94914819 0.52173560 0.48583065
0.94631560 0.48161059 0.42971864
0.94447614 0.43570944 0.37230962
0.10978483 1.00033272 0.79940854
0.07700949 0.94752466 0.66686753
0.06868748 0.90150560 0.59924902
0.05736548 0.85212363 0.53219110
0.23313884 0.78678496 0.47559933
0.73101832 0.73347359 0.47062054
0.94833745 0.70165338 0.45523885
0.94692832 0.63339742 0.44297194
0.94326614 0.58196089 0.38326204
0.10855422 0.97071495 0.82557225
0.07278976 0.99326918 0.52522537
0.06915370 0.99764951 0.45895178
0.06557175 0.99770776 0.41110211
0.05894906 0.98202580 0.34741008
0.45042967 0.94171055 0.33677445
0.89308928 0.89868380 0.33892798
0.94596203 0.80257261 0.38659967
0.94191730 0.75215648 0.33957974
0.11871627 0.96996419 0.91869266
0.08138467 0.98614614 0.64411082
0.06913226 0.99793700 0.44704573
0.05372832 1.00002776 0.24524349
0.04294578 1.00117820 0.11540939
0.06075686 1.00118269 0.07769478
0.62224262 1.00090151 0.06956730
0.93415304 0.98784857 0.07862052
0.93522080 0.91728994 0.13181730
0.11849164 0.97686385 0.98958161
0.09433277 0.98065544 0.77654990
0.08029511 0.98723827 0.63042961
0.07120591 0.99552410 0.49202991
0.05838691 0.99978280 0.30132539
0.04017345 1.00112339 0.10306102
0.24195374 1.00116555 0.00065744
0.75770426 1.00096971 0.00434326
0.93383387 1.00103826 0.07949343
0.03933074 1.00846033 0.42326891
0.00512805 0.00000000 0.10842570
0.70069688 0.00000000 0.15935514
0.92145667 1.06232299 0.25792707
1.00001700 0.78889449 0.18524748
0.94958274 0.38945202 0.22903229
0.94541028 0.30877055 0.18523547
0.93843973 0.29198859 0.13415811
0.93458966 0.31586700 0.16796361
0.06659942 0.04776928 0.93191411
0.03949297 0.00803576 0.62519427
0.23435051 0.00000000 0.50725588
0.55353408 0.00000000 0.50130109
0.92959103 0.11787416 0.53729479
0.95213182 0.33453600 0.46523057
0.94976776 0.34450323 0.41137985
0.94771583 0.33640108 0.35057133
0.94570364 0.32732900 0.29194320
0.07225126 0.53965567 1.00317818
0.05165678 0.12224684 0.80819960
0.12581967 0.04415391 0.66636675
0.38342621 0.00467066 0.62094846
0.76635151 0.04832446 0.63633896
0.96198975 0.21336229 0.59205642
0.95483362 0.32480646 0.50111280
0.95067172 0.33945804 0.44301221
0.94889228 0.34182258 0.38997178
0.07092807 0.76012700 1.00150245
0.06051569 0.43689417 0.87846626
0.05141045 0.30954226 0.76469081
0.27865877 0.24413817 0.70735989
0.64343387 0.22116198 0.68862242
0.95976320 0.26845381 0.69048019
0.95537776 0.38963392 0.56831700
0.95349996 0.36389270 0.50900833
0.95174488 0.34466661 0.45335353
0.10334089 0.86692042 0.96334229
0.07120174 0.73627290 0.87933586
0.06214010 0.65204304 0.81568582
0.07821202 0.56891561 0.75161139
0.49813595 0.49531999 0.73245153
0.86796653 0.47109781 0.72127843
0.95654852 0.52086330 0.64202600
0.95362239 0.49872586 0.57677196
0.95208421 0.45920987 0.51925548
0.12055158 0.99779379 0.90834036
0.08748811 0.90900212 0.83746777
0.07666306 0.87055391 0.79507821
0.07178801 0.83215846 0.75596272
0.20480949 0.78132457 0.71965310
0.72902325 0.72902325 0.72902325
0.96014071 0.69528149 0.69230489
0.95617469 0.64772530 0.62904756
0.95298959 0.59773722 0.56605542
0.11533269 0.96527835 0.97065949
0.09158899 0.98145449 0.75467374
0.08749806 0.98211393 0.71503190
0.08413664 0.97749188 0.68731108
0.07665145 0.95483967 0.64852308
0.41298342 0.92013273 0.64853710
0.88007886 0.88204422 0.65665542
0.96011840 0.80120337 0.62683771
0.95516686 0.75267180 0.57312048
0.10369913 0.97688124 0.94762212
0.09897881 0.97918982 0.83392965
0.08877884 0.98280895 0.71951955
0.07786365 0.98851707 0.60877142
0.07160480 0.99443715 0.50706603
0.07003211 0.99774914 0.45706331
0.60161802 0.99776757 0.50207034
0.95802506 0.97724172 0.47402805
0.95656697 0.90674557 0.48177775
0.10004010 0.97893325 0.85370515
0.10004010 0.97893325 0.85370515
0.09892874 0.97932845 0.82810263
0.09222130 0.98127613 0.74810870
0.08120263 0.98667563 0.63843926
0.07155016 0.99537102 0.50137891
0.29653373 0.99766128 0.40323275
0.74295580 1.00103457 0.30081784
0.94196238 1.00091456 0.17972718
0.03685090 0.00532191 0.71402233
0.01911472 0.00590080 0.02520188
0.71994455 0.00000000 0.19728348
0.91223014 0.00000000 0.26095912
1.00001004 0.87869549 0.18056570
0.94575102 0.40954139 0.26861797
0.93385657 0.41103172 0.25327990
0.94678248 0.40265170 0.25336149
0.94563443 0.29770032 0.17673771
0.07693208 0.10962778 1.00690096
0.05356087 0.03254829 0.87576346
0.26045389 0.00539706 0.76676200
0.59083853 0.00000000 0.74445207
0.93536692 0.00501729 0.76324945
0.95995055 0.29825537 0.59102875
0.95658219 0.31833300 0.52541800
0.95176156 0.33446625 0.46442439
0.94910149 0.34379077 0.41106444
0.07762446 0.18385683 1.00180353
0.06873352 0.06339616 0.99767103
0.12764136 0.03504805 0.91267704
0.42534992 0.00567426 0.87418006
0.78867817 0.00000000 0.86882274
0.97290136 0.14107944 0.79729357
0.96209106 0.28527612 0.63394120
0.95833361 0.30770236 0.56419323
0.95483096 0.32478786 0.50084691
0.07082928 0.52804289 0.94472322
0.06483608 0.34433409 0.97079198
0.06266434 0.26298492 0.96430747
0.30155414 0.20659505 0.93389451
0.66882127 0.18140006 0.91578550
0.96793966 0.22018954 0.89567718
0.96375562 0.35020007 0.70434955
0.96103361 0.33146355 0.63934501
0.95861064 0.31649220 0.57367579
0.06951827 0.74241050 0.91437362
0.06749497 0.64239461 0.91901660
0.06666844 0.59824454 0.92826999
0.08557130 0.54049586 0.92861469
0.50641383 0.47420322 0.93367542
0.86710937 0.44287132 0.91740182
0.96496969 0.47824202 0.78979857
0.96027445 0.47063597 0.69964678
0.95698705 0.43628243 0.64088213
0.08390349 0.92799725 0.86440499
0.08065971 0.84129942 0.87755993
0.07756242 0.81350276 0.88300071
0.07542158 0.78814005 0.88691382
0.18382638 0.74901431 0.88670714
0.70825304 0.70705001 0.90639561
0.96867142 0.66742889 0.87039265
0.96370026 0.64099174 0.75343113
0.95987444 0.59993072 0.70000083
0.09533134 0.99780776 0.84519212
0.10016868 0.97746674 0.85415144
0.09938417 0.95947291 0.85594289
0.09514423 0.94059482 0.85228039
0.08773677 0.91718336 0.82637222
0.36548967 0.88724018 0.83010028
0.85371530 0.85371530 0.85371530
0.97039704 0.79917471 0.79782655
0.96509107 0.75581282 0.74656806
0.10004010 0.97893325 0.85370515
0.10004010 0.97893325 0.85370515
0.10004010 0.97893325 0.85370515
0.09785539 0.97946378 0.81764597
0.09121531 0.98187920 0.74456729
0.08742203 0.98239850 0.70487580
0.54184298 0.98049907 0.74521486
0.95522347 0.95697550 0.75484759
0.97158972 0.89485207 0.72767797
0.10004010 0.97893325 0.85370515
0.10004010 0.97893325 0.85370515
0.10004010 0.97893325 0.85370515
0.10003615 0.97893786 0.85365190
0.09907881 0.97920828 0.83381192
0.09200005 0.98171573 0.75020646
0.22738692 0.98639730 0.67005198
0.74485241 0.99769803 0.67662019
0.96981096 1.00094068 0.60178338
0.06836155 0.05332366 1.00200214
0.04196734 0.00580051 0.90118272
0.76742697 0.00568374 0.13492457
0.93404595 0.00000000 0.13809292
0.99996373 1.00816894 0.00494075
0.95569317 0.43217124 0.27122230
0.94094794 0.43708337 0.27834735
0.95024320 0.41949306 0.27264717
0.93741617 0.39155533 0.25828962
0.06085969 0.08601019 1.00016547
0.06344390 0.06709041 1.00059684
0.27637258 0.03993068 0.97838684
0.63019153 0.00205056 0.95997647
0.94424639 0.00000000 0.95839594
0.97009070 0.23121586 0.74856185
0.96402966 0.27511349 0.66371299
0.95998229 0.30029650 0.59081519
0.95695416 0.31852586 0.52548471
0.06649830 0.06791122 1.00026219
0.06319394 0.06954871 1.00049276
0.08969947 0.06875870 1.00107556
0.44379046 0.04627074 0.99938856
0.80474367 0.00069517 0.99847340
0.98040340 0.00501693 0.97774434
0.97210330 0.22042578 0.78731471
0.96673840 0.25748157 0.70853048
0.96282509 0.28525816 0.63587385
0.23591890 0.22197001 1.00028186
0.10904728 0.14323367 1.00103897
0.08313785 0.11290047 1.00112523
0.30607661 0.09502022 1.00059305
0.68217487 0.07382704 1.00092134
0.97449669 0.12054813 1.00081039
0.97270579 0.28247300 0.85449773
0.97034008 0.28025611 0.78344521
0.96655136 0.27205328 0.71781716
0.06175899 0.81908287 0.84847306
0.06643609 0.48561771 0.94743137
0.06549101 0.43330909 0.95576971
0.12075894 0.40748455 0.96915396
0.48638446 0.38939240 1.00116792
0.85546729 0.36457733 1.00108726
0.97417343 0.39990456 0.95190212
0.96740304 0.41758164 0.83161964
0.96569531 0.39129925 0.77622928
0.10773673 1.00017837 0.81956147
0.07779202 0.81221756 0.88316844
0.07027306 0.71039162 0.90470514
0.06914964 0.68451135 0.91088591
0.23210489 0.66236860 0.93481455
0.66425412 0.64388188 0.99437587
0.96166866 0.60959914 0.99810472
0.96996507 0.59701196 0.86575719
0.96618082 0.56236608 0.81763037
0.10004010 0.97893325 0.85370515
0.10019421 0.97796611 0.85384589
0.09444873 0.93848838 0.86042387
0.08647996 0.88435392 0.87032521
0.08161967 0.85387296 0.87622239
0.35034084 0.83180441 0.91572990
0.81121647 0.80894425 0.97926498
0.97678925 0.77165333 0.91469597
0.97207685 0.73590640 0.85248270
0.10004010 0.97893325 0.85370515
0.10004010 0.97893325 0.85370515
0.10004010 0.97893325 0.85370515
0.10004010 0.97893325 0.85370515
0.10012093 0.97861584 0.85374676
0.09997061 0.97232165 0.85460298
0.47380326 0.95249583 0.89547295
0.92623490 0.92623490 0.92623490
0.97948354 0.88254982 0.88035468
0.10004010 0.97893325 0.85370515
0.10004010 0.97893325 0.85370515
0.10004010 0.97893325 0.85370515
0.10004010 0.97893325 0.85370515
0.10004010 0.97893325 0.85370515
0.10003765 0.97895810 0.85324961
0.12811043 0.97946693 0.83474789
0.70422307 0.99169501 0.85386872
0.98385134 1.00064297 0.83699855
0.06278325 0.07069652 1.00123023
0.06278325 0.07069652 1.00123023
0.86618856 0.02502318 1.00036949
0.97512752 0.00000000 0.99998123
1.00010323 0.00000000 0.99361529
0.95306921 0.77988482 0.01390210
0.96747768 0.49724810 0.23225523
0.94262446 0.43346167 0.27415578
0.94650364 0.43384332 0.27026112
0.06278325 0.07069652 1.00123023
0.06278325 0.07069652 1.00123023
0.23945862 0.06851920 1.00110744
0.63543995 0.04471784 1.00086770
0.94958654 0.00000000 1.00083567
0.97837752 0.10423065 0.91867620
0.97407175 0.20167434 0.81650303
0.96840615 0.24363212 0.73985068
0.96425230 0.27520213 0.66376548
0.06314416 0.06967269 1.00060888
0.06314416 0.06967269 1.00060888
0.06903579 0.07044083 1.00122458
0.37751053 0.06638244 1.00114687
0.78341470 0.03517599 1.00100017
0.98962014 0.00000000 1.00031683
0.97952375 0.10559863 0.94219113
0.97684329 0.17052204 0.86427717
0.97214918 0.21932887 0.78588038
0.43056580 0.85777428 1.00001179
0.09125720 0.06984842 1.00111815
0.06881692 0.06942906 1.00109400
0.23805511 0.06838070 1.00107467
0.60484129 0.05641478 1.00099550
0.94822285 0.00144233 1.00074910
0.98322629 0.15967232 0.99309719
0.97900908 0.18761172 0.93561087
0.97640067 0.19638913 0.86893569
0.05124699 0.86545082 0.82744040
0.06914343 0.49372216 0.94651812
0.11375849 0.29053206 0.98309508
0.16422184 0.19085996 0.99899203
0.41426161 0.18783528 1.00113162
0.79326928 0.20471564 1.00086495
0.98270213 0.26636280 1.00062226
0.97686664 0.32164687 0.97486650
0.97481912 0.31111439 0.91621598
0.13373298 1.00057667 0.82761340
0.07904135 0.83067675 0.87929378
0.07128486 0.71627181 0.90353701
0.06700334 0.61338954 0.92459700
0.26437241 0.51549215 0.97136741
0.59532808 0.51854593 1.00110602
0.91784290 0.51922083 1.00098606
0.97523217 0.51768417 0.99336815
0.97338372 0.49166853 0.94513816
0.10004010 0.97893325 0.85370515
0.10004010 0.97893325 0.85370515
0.09749386 0.95038641 0.85778815
0.08754399 0.89518602 0.86836776
0.07895567 0.82424250 0.88121265
0.37211475 0.75198757 0.93397160
0.75280703 0.73538364 0.98967380
0.97858927 0.71214934 0.99991778
0.97652652 0.68453083 0.96696442
0.10004010 0.97893325 0.85370515
0.10004010 0.97893325 0.85370515
0.10004010 0.97893325 0.85370515
0.10004010 0.97893325 0.85370515
0.10002537 0.97840262 0.85383836
0.09850282 0.95828463 0.85629760
0.49025444 0.90951932 0.92165810
0.88024252 0.88097997 0.98748620
0.98354998 0.85132578 0.98030649
0.10004010 0.97893325 0.85370515
0.10004010 0.97893325 0.85370515
0.10004010 0.97893325 0.85370515
0.10004010 0.97893325 0.85370515
0.10004010 0.97893325 0.85370515
0.10004010 0.97893325 0.85370515
0.10855601 0.97889446 0.85497799
0.64209383 0.98558546 0.93485589
0.99203953 0.99203953 0.99203953
