LUT/PRO-Neg.cube
TITLE "PRO-Neg"
LUT_3D_SIZE 9
# Apple Log/Rec2020 -> LA - :FLog2C_to_PRO-Neg.Std/LA - :FLog2C_to_PRO-Neg.Std, CineEI Shift 0.00, Black Level -0.02% IRE, Input 109% -> Output 100% - Created with LUTCalc v4.09 by Ben Turley February 2025
0.00000000 0.00000000 0.00000000
0.17494278 0.02294869 0.04500009
0.80309123 0.19871869 0.43595711
1.00235069 0.27281003 0.66587024
0.99060909 0.68965977 0.66164772
0.96575175 0.25681067 0.48473068
0.96575175 0.25681067 0.48473068
0.96575175 0.25681067 0.48473068
0.96575175 0.25681067 0.48473068
0.00000000 0.00000000 0.00000000
0.83137565 0.20197383 0.00000000
0.27014825 0.03972594 0.04293512
0.73894624 0.08384315 0.19587549
0.99278517 0.19127289 0.47804548
0.96575175 0.25681067 0.48473068
0.96575175 0.25681067 0.48473068
0.96575175 0.25681067 0.48473068
0.96575175 0.25681067 0.48473068
0.01415704 0.25708379 0.00920009
0.01408694 0.09722384 0.00003095
0.13387396 0.03733722 0.00000000
0.44771653 0.04871539 0.13742369
0.89481497 0.10432986 0.35661457
0.97354393 0.29018034 0.49770899
0.96575175 0.25681067 0.48473068
0.96575175 0.25681067 0.48473068
0.96575175 0.25681067 0.48473068
0.00303607 0.63549194 0.00384863
0.01884995 0.27565913 0.25838794
0.03254805 0.17660090 0.08236387
0.31723228 0.15831082 0.00000000
0.78322024 0.18033915 0.19668809
0.95773795 0.23766199 0.47037853
0.96992374 0.24050152 0.48895204
0.96462496 0.24458267 0.50025984
0.96575175 0.25681067 0.48473068
0.03163457 0.94124382 0.01861695
0.01066015 0.66380729 0.17148567
0.02186618 0.48375297 0.43669188
0.16937345 0.41600617 0.01972838
0.62531633 0.37918079 0.23120201
1.00089870 0.39399539 0.20264046
0.97801140 0.38189638 0.41774089
0.97816805 0.32896272 0.43119723
0.96779540 0.29649583 0.46251443
0.00000000 1.00155436 0.00000000
0.00000000 1.00155436 0.00000000
0.00000000 0.89121911 0.13094944
0.00056339 0.75449272 0.00000000
0.51010694 0.69711338 0.00000000
0.88320208 0.64822082 0.00000000
0.96077244 0.58870296 0.54161426
0.97757594 0.50387186 0.26067504
0.97426132 0.44249301 0.33088984
0.00000000 1.00155436 0.00000000
0.00000000 1.00155436 0.00000000
0.00000000 1.00155436 0.00000000
0.00000000 1.00155436 0.00000000
0.00000000 0.98403853 0.00000000
0.75423381 0.91932649 0.00000000
0.99044033 0.82181720 0.00000000
0.96249970 0.74649553 0.01707297
0.96408275 0.67099816 0.00000000
0.00000000 1.00155436 0.00000000
0.00000000 1.00155436 0.00000000
0.00000000 1.00155436 0.00000000
0.00000000 1.00155436 0.00000000
0.00000000 1.00155436 0.00000000
0.50085678 1.00151898 0.18056925
0.89294880 0.99999585 0.00034888
0.95760895 0.92466209 0.00000000
0.95960852 0.86736523 0.00000000
0.00000000 1.00155436 0.00000000
0.00000000 1.00155436 0.00000000
0.00000000 1.00155436 0.00000000
0.00000000 1.00155436 0.00000000
0.00000000 1.00155436 0.00000000
0.00000000 1.00155513 0.00000000
0.46646717 1.00096456 0.00000000
0.96679071 1.00041463 0.02231972
0.94946273 1.00106015 0.00000000
0.00000000 0.00000000 0.00000000
0.11177848 0.04582394 0.21923910
0.77682364 0.07035067 0.39384707
1.00165823 0.15799500 0.64812825
0.99520486 0.63145562 0.67141012
0.96575175 0.25681067 0.48473068
0.96575175 0.25681067 0.48473068
0.96575175 0.25681067 0.48473068
0.96575175 0.25681067 0.48473068
0.00000000 0.00000000 0.00000000
0.00000000 0.00000000 0.00000000
0.16653546 0.02268374 0.04750821
0.57969207 0.04861069 0.16041591
0.94650272 0.12245320 0.42741618
0.96575175 0.25681067 0.48473068
0.96575175 0.25681067 0.48473068
0.96575175 0.25681067 0.48473068
0.96575175 0.25681067 0.48473068
0.02700524 0.42363312 0.00000000
0.01647619 0.10249859 0.00000000
0.07168250 0.06781709 0.00154866
0.31484199 0.06754225 0.06508088
0.81435628 0.07632793 0.26117107
0.96281884 0.22796081 0.47619758
0.96575175 0.25681067 0.48473068
0.96575175 0.25681067 0.48473068
0.96575175 0.25681067 0.48473068
0.00000000 0.81109903 0.00000000
0.02142709 0.34528560 0.00000000
0.02526552 0.21779452 0.00000000
0.21576955 0.19455680 0.00002016
0.64503613 0.20682145 0.06495837
0.95775723 0.24457927 0.36634430
0.96707508 0.29135254 0.46122531
0.96655906 0.26433861 0.47883050
0.96575175 0.25681067 0.48473068
0.00015386 1.00015980 0.00000000
0.00985139 0.75571772 0.00000000
0.01457342 0.57770286 0.00000000
0.06444487 0.48110679 0.00000000
0.49659353 0.44497096 0.00000000
0.92419884 0.45568622 0.05214689
0.97155792 0.44007729 0.33609814
0.97042986 0.38497652 0.38776121
0.96918128 0.33655093 0.42592917
0.00000000 1.00155436 0.00000000
0.00000000 1.00155436 0.00000000
0.00000000 0.94381481 0.00000000
0.00000000 0.86044454 0.00014634
0.25847701 0.78711003 0.00002523
0.79331140 0.73623794 0.00000000
0.96649674 0.67709233 0.00593657
0.97315059 0.58129679 0.18101563
0.97315837 0.51204022 0.26710215
0.00000000 1.00155436 0.00000000
0.00000000 1.00155436 0.00000000
0.00000000 1.00155436 0.00000000
0.00000000 1.00155436 0.00000000
0.00000000 1.00150438 0.00000000
0.53760437 0.97916493 0.00000000
0.95601942 0.90772608 0.00000000
0.96096425 0.81149719 0.00000000
0.96595855 0.75420457 0.00001510
0.00000000 1.00155436 0.00000000
0.00000000 1.00155436 0.00000000
0.00000000 1.00155436 0.00000000
0.00000000 1.00155436 0.00000000
0.00000000 1.00155436 0.00000000
0.01890463 1.00153006 0.00000000
0.75176583 1.00138253 0.00000000
0.95408266 0.96849148 0.00000000
0.95680264 0.91651416 0.00000000
0.00000000 1.00155436 0.00000000
0.00000000 1.00155436 0.00000000
0.00000000 1.00155436 0.00000000
0.00000000 1.00155436 0.00000000
0.00000000 1.00155436 0.00000000
0.00000000 1.00155436 0.00000000
0.19304134 1.00137371 0.00000000
0.87061887 1.00121776 0.00002187
0.95088512 1.00143849 0.00000000
0.00051765 0.00000000 0.00000000
0.00000000 0.00000000 0.00000000
0.70214045 0.09267666 0.04025768
0.97913142 0.14413554 0.62113968
1.00005390 0.65370959 0.67371920
0.96575175 0.25681067 0.48473068
0.96575175 0.25681067 0.48473068
0.96575175 0.25681067 0.48473068
0.96575175 0.25681067 0.48473068
0.01133038 0.00000000 0.36680308
0.00271800 0.00000000 0.05169249
0.14718919 0.01854634 0.05662783
0.52372052 0.04621135 0.14428605
0.93834008 0.10657417 0.40687456
0.96575175 0.25681067 0.48473068
0.96575175 0.25681067 0.48473068
0.96575175 0.25681067 0.48473068
0.96575175 0.25681067 0.48473068
0.06345128 0.46387887 0.51307162
0.02345423 0.11969825 0.11026070
0.07079408 0.07079408 0.07079408
0.29525459 0.07177875 0.10074815
0.77310183 0.07637639 0.24178318
0.95934057 0.20653895 0.46704267
0.96575175 0.25681067 0.48473068
0.96575175 0.25681067 0.48473068
0.96575175 0.25681067 0.48473068
0.04316108 0.82015229 0.62633251
0.02578689 0.39658064 0.11876773
0.02765058 0.24955499 0.04897957
0.20942689 0.20967821 0.05424537
0.61531958 0.21413081 0.12382573
0.95822967 0.24888954 0.35644671
0.96770254 0.30279409 0.45248889
0.96640465 0.26988515 0.47592035
0.96575175 0.25681067 0.48473068
0.00000000 1.00038029 0.63065595
0.01530561 0.79079251 0.03616672
0.01778802 0.62550984 0.00000000
0.04900264 0.51912611 0.00000000
0.46983384 0.46509974 0.00045413
0.90381031 0.46381932 0.12202612
0.97405963 0.45532419 0.34766441
0.97198191 0.40079565 0.37522822
0.97007261 0.35065531 0.41564042
0.00000000 1.00155436 0.00000000
0.00000000 1.00155436 0.00000000
0.00000000 0.96609045 0.00000000
0.00000000 0.88798337 0.00000000
0.19163326 0.81054261 0.00000000
0.75884878 0.75723826 0.00001124
0.97217157 0.69565579 0.07260473
0.97460516 0.59960340 0.20881263
0.97337108 0.53284587 0.24485369
0.00000000 1.00155436 0.00000000
0.00000000 1.00155436 0.00000000
0.00000000 1.00155436 0.00000000
0.00000000 1.00155436 0.00000000
0.00000000 1.00155436 0.00000000
0.45770676 0.99112508 0.00000000
0.94670470 0.92275152 0.00000000
0.96511819 0.83246268 0.00000000
0.96731149 0.77046445 0.00000000
0.00000000 1.00104163 0.00000000
0.00000000 1.00155436 0.00000000
0.00000000 1.00155436 0.00000000
0.00000000 1.00155436 0.00000000
0.00000000 1.00155436 0.00000000
0.00069661 1.00153252 0.00001091
0.68122720 1.00149647 0.00000000
0.95412221 0.98611611 0.00000000
0.95661987 0.92801326 0.00000000
0.00000000 0.99668827 0.97986295
0.00000000 1.00144376 0.03435100
0.00000000 1.00155436 0.00000000
0.00000000 1.00155436 0.00000000
0.00000000 1.00155436 0.00000000
0.00000000 1.00155436 0.00000000
0.11273452 1.00151789 0.00000000
0.82730340 1.00132933 0.00002380
0.95077005 1.00140676 0.00081962
0.02852884 0.00075425 0.11647477
0.00043442 0.00027493 0.00000000
0.62517188 0.04701220 0.05622863
0.96305535 0.23277883 0.30468159
1.00192743 0.70040415 0.49788042
0.96575175 0.25681067 0.48473068
0.96575175 0.25681067 0.48473068
0.96575175 0.25681067 0.48473068
0.96575175 0.25681067 0.48473068
0.07697680 0.01248627 0.55526884
0.01404227 0.00162310 0.14641995
0.15212680 0.01473172 0.13204526
0.50470315 0.03182939 0.20785109
0.92988839 0.09140100 0.41751868
0.96575175 0.25681067 0.48473068
0.96575175 0.25681067 0.48473068
0.96575175 0.25681067 0.48473068
0.96575175 0.25681067 0.48473068
0.08518343 0.55052302 0.78646017
0.03267472 0.12716340 0.28750132
0.07660224 0.06993551 0.18378566
0.30507279 0.06322151 0.20977285
0.75975468 0.06167141 0.34761039
0.96108852 0.19367959 0.51790134
0.96655869 0.25769947 0.49424913
0.96575175 0.25681067 0.48473068
0.96575175 0.25681067 0.48473068
0.04164598 0.82251372 0.82818297
0.03419540 0.42357842 0.40290965
0.03311701 0.27792364 0.25297445
0.22366093 0.22366093 0.22366093
0.61579298 0.21164156 0.27911510
0.96278812 0.23952811 0.47002376
0.97446672 0.31791825 0.51076656
0.96785734 0.27869398 0.48744254
0.96574986 0.25688536 0.48468468
0.00000000 1.00012786 0.81291732
0.02324662 0.79488988 0.41986431
0.02567133 0.64778660 0.27145755
0.04980294 0.54335857 0.18838550
0.47312764 0.47791084 0.19358393
0.89706849 0.46061470 0.30614586
0.97923864 0.46816498 0.46703963
0.97692341 0.41550118 0.45117350
0.97172591 0.36229092 0.43204799
0.00000000 0.99997060 0.65829802
0.00000000 1.00145136 0.28863562
0.00654242 0.96257574 0.15573400
0.01031962 0.89220181 0.06613014
0.15782832 0.81849724 0.03360161
0.74881399 0.76041425 0.07508418
0.97967451 0.69736538 0.28096494
0.98037786 0.60712671 0.36271061
0.97847308 0.54292783 0.34715362
0.00000000 1.00166697 0.76129143
0.00000000 1.00149520 0.02960143
0.00000000 1.00153984 0.00000000
0.00000000 1.00155436 0.00000000
0.00000000 1.00155436 0.00000000
0.39841111 0.99644598 0.00000000
0.93494501 0.94404130 0.00000000
0.97410619 0.82916744 0.15420244
0.97523201 0.76808745 0.15929790
0.05338629 1.00005581 0.93484798
0.00000000 1.00150205 0.19771021
0.00000000 1.00155436 0.00000000
0.00000000 1.00155436 0.00000000
0.00000000 1.00155436 0.00000000
0.00000000 1.00155146 0.00000000
0.62709175 1.00143651 0.00000000
0.95405778 0.99388554 0.00000000
0.95774016 0.93842278 0.00000000
0.02123193 0.99661003 0.92721094
0.00374708 1.00135416 0.49293165
0.00000000 1.00144220 0.16411397
0.00000000 1.00155436 0.00000000
0.00000000 1.00155436 0.00000000
0.00000000 1.00155436 0.00000000
0.08026858 1.00145439 0.00000966
0.79382188 1.00150327 0.00000930
0.95082165 1.00139091 0.00000000
0.03622627 0.00421426 0.19501210
0.00000000 0.00000000 0.00000000
0.61828003 0.03158946 0.08948010
0.94680420 0.04798126 0.32562851
1.00408150 0.80237769 0.46291103
0.94037199 0.19835650 0.30544724
0.95357087 0.24058067 0.35837906
0.96579006 0.25684538 0.48358246
0.96575175 0.25681067 0.48473068
0.10135263 0.01550051 0.79036031
0.02965755 0.00431964 0.32056368
0.17142300 0.00942239 0.26730914
0.51090042 0.01423323 0.34283349
0.92935380 0.06023255 0.53660167
0.97136339 0.26998903 0.55285105
0.96722663 0.26005635 0.50597879
0.96569966 0.25690261 0.48557886
0.96575175 0.25681067 0.48473068
0.07588058 0.53032703 0.93676590
0.04607328 0.12545335 0.55694016
0.09305184 0.06122210 0.38619580
0.33250096 0.04637713 0.39342317
0.75743842 0.03660623 0.51382855
0.96506864 0.16507620 0.62894700
0.97389559 0.27547381 0.58329866
0.96996213 0.26495948 0.53381171
0.96625177 0.25803459 0.49422959
0.04179423 0.81804354 0.97436710
0.04478458 0.43900757 0.71380158
0.04309764 0.29705281 0.53753680
0.24384671 0.23072341 0.47016817
0.62797086 0.20291729 0.49533874
0.96906321 0.21797891 0.63023036
0.97978711 0.34740182 0.61834312
0.97552411 0.30364244 0.57990888
0.97004101 0.27021324 0.53973207
0.02004069 0.96529637 0.93845968
0.02958824 0.79164175 0.75367132
0.03442199 0.65984264 0.61644970
0.05590735 0.56081431 0.51563712
0.48553781 0.48553781 0.48553781
0.89433626 0.45177056 0.53998706
0.98820800 0.48092621 0.61243028
0.98260699 0.43698072 0.57722919
0.97837991 0.38413424 0.54196997
0.02254794 1.00466901 0.82111307
0.01335433 0.98809190 0.67845631
0.01656812 0.94229660 0.59475151
0.01918894 0.88664544 0.50719686
0.12846299 0.81550969 0.42651287
0.74287005 0.75370332 0.42009389
0.98825998 0.69384057 0.51908881
0.98917778 0.61412053 0.53638713
0.98479898 0.55431274 0.50156445
0.02351314 1.00161205 0.87340549
0.00315940 1.00133392 0.47155376
0.00223827 1.00145160 0.38206822
0.00000000 1.00145381 0.31677466
0.00000000 1.00148400 0.24540944
0.35114165 0.99562652 0.20511005
0.92157850 0.93655934 0.27707759
0.98123359 0.81999859 0.41560193
0.98150425 0.76256816 0.39240136
0.02414799 0.99664019 0.95828025
0.00794887 1.00140674 0.63332591
0.00240953 1.00142986 0.36671097
0.00001237 1.00148821 0.09759813
0.00000000 1.00155269 0.00000000
0.00000000 1.00153792 0.00000000
0.57479827 1.00126441 0.00059358
0.96243650 1.00139875 0.04798878
0.96997891 0.95330927 0.11993246
0.02408077 0.99857388 1.00274499
0.01250933 1.00138123 0.80896254
0.00760232 1.00147527 0.61565132
0.00235726 1.00151266 0.42749307
0.00000000 1.00149181 0.17628136
0.00000000 1.00151558 0.02276036
0.08037593 1.00140663 0.00000000
0.74322776 1.00126450 0.00000000
0.95079033 1.00136368 0.00000000
0.06860763 0.00044293 0.49349388
0.00000000 0.00080635 0.03499346
0.62804768 0.00000000 0.13013664
0.92532051 0.00000000 0.36649128
1.00211559 0.80214071 0.50230344
0.97096550 0.35267983 0.38952863
0.94399411 0.23974143 0.33749191
0.94460611 0.20178256 0.30858748
0.95582610 0.24489311 0.38002349
0.15827732 0.03022295 0.93186524
0.05677199 0.01064905 0.59462986
0.20699651 0.00328661 0.49083289
0.54503762 0.00000000 0.54982886
0.92776930 0.01466519 0.70376756
0.97665125 0.26613882 0.64759064
0.97522790 0.27934077 0.60166225
0.97105317 0.27000029 0.55210550
0.96653428 0.25866690 0.50423954
0.16967459 0.50348711 1.01183476
0.09277898 0.08675753 0.85578543
0.12458481 0.03093178 0.66726400
0.37688382 0.01411837 0.65555872
0.76965662 0.00000000 0.73494869
0.96680536 0.09801532 0.78236423
0.97739597 0.25406929 0.67991332
0.97618906 0.27254686 0.62972271
0.97385865 0.27623087 0.58401308
0.06262733 0.79072186 1.02098633
0.05188019 0.42433760 0.96342493
0.05113557 0.29337012 0.83829599
0.28077973 0.22128249 0.77552833
0.65404222 0.18057897 0.76539469
0.97400911 0.17900794 0.82994409
0.98408365 0.32727254 0.72295704
0.97945622 0.29939766 0.67794132
0.97696153 0.27897865 0.63643089
0.01962255 0.89178807 1.00414127
0.03713578 0.75936907 0.97212582
0.04229367 0.65830062 0.88905398
0.06827622 0.56399472 0.81303372
0.50202798 0.48554638 0.78315046
0.89677727 0.43283325 0.79189845
0.99622074 0.47689269 0.75702428
0.99232879 0.45390811 0.70115433
0.98622195 0.41030328 0.66096715
0.01919611 1.00008087 0.98011993
0.02101421 0.94169806 0.90536171
0.02333032 0.90366208 0.85287656
0.02564821 0.86538278 0.80809321
0.12868854 0.80960368 0.75581296
0.74170676 0.74170676 0.74170676
0.99658693 0.68232142 0.75135966
0.99669817 0.62641352 0.70469296
0.99647606 0.56863698 0.66200123
0.00963819 0.99787530 0.99994854
0.01222781 1.00148047 0.78223623
0.01168657 1.00137654 0.73305982
0.01022207 1.00095279 0.69813796
0.01222844 0.99630517 0.65553176
0.30690060 0.96292310 0.62400462
0.89876848 0.90721376 0.62449856
0.99178967 0.80976086 0.65041458
0.99096771 0.75591685 0.61298421
0.01717309 1.00140465 1.00110010
0.01474246 1.00144403 0.88758844
0.01095713 1.00143201 0.73658928
0.00644852 1.00130807 0.58784654
0.00352224 1.00146464 0.44981051
0.00365603 1.00150538 0.39742451
0.53835341 1.00141887 0.40650470
0.97507346 0.99762865 0.44636190
0.97929438 0.92850507 0.46748090
0.01510765 1.00103522 0.91975591
0.01510765 1.00103522 0.91975591
0.01366371 1.00142135 0.87930442
0.01248831 1.00145580 0.77227322
0.00770251 1.00146064 0.62633876
0.00363377 1.00153779 0.44762888
0.12335417 1.00134535 0.29524479
0.71715323 1.00122901 0.15606540
0.96382143 1.00129830 0.15279600
0.04471684 0.02179162 0.70677345
0.00840092 0.00000000 0.30268250
0.68259378 0.00000000 0.15944338
0.91079477 0.00000000 0.28040280
1.00118253 0.11161563 0.20202573
0.97865828 0.35971454 0.40068042
0.96972264 0.35911812 0.39881108
0.97488920 0.35912972 0.38335265
0.95515386 0.21505234 0.34468037
0.19391983 0.20125837 0.97931442
0.09400482 0.03098497 0.82961603
0.25724698 0.00555525 0.80079688
0.59237894 0.00000000 0.82464995
0.93156316 0.00002998 0.90212306
0.97788046 0.21677057 0.76701110
0.97790402 0.24600045 0.70321605
0.97677625 0.26595638 0.64927005
0.97523605 0.27830598 0.60098337
0.27696077 0.21613716 1.00276195
0.15720842 0.06931379 0.92578652
0.15681174 0.03330256 0.87937304
0.43453432 0.00000000 0.95172621
0.79325039 0.00002616 0.97114741
0.96834561 0.02576085 0.96171058
0.97845941 0.19951445 0.80469104
0.97731656 0.23030802 0.73971694
0.97731019 0.25422493 0.68037417
0.14478787 0.53705914 1.00009081
0.11516798 0.33622047 1.00125332
0.10452244 0.24371895 1.00077782
0.32493707 0.17345507 0.99676034
0.68082926 0.12807492 0.99625174
0.97764066 0.11987894 0.99906986
0.98752364 0.28108716 0.85502696
0.98188116 0.26096710 0.79980192
0.97855063 0.24216952 0.74535277
0.05319772 0.74849771 1.00096774
0.04543583 0.65072263 1.00154626
0.04743007 0.60315731 1.00145089
0.09163416 0.54107755 1.00117699
0.52707249 0.46272666 0.99700527
0.90312695 0.39989861 0.99681852
1.00024723 0.42389819 0.91223097
0.99659477 0.41833799 0.82498390
0.99279567 0.38081669 0.77779735
0.03102107 0.94141128 0.94688167
0.02765922 0.86512656 0.98091472
0.03069787 0.83757411 0.99115522
0.03268515 0.81418301 0.99266485
0.14454908 0.77440215 0.97550549
0.72999657 0.71555112 0.97811123
0.99987937 0.64519625 0.94784442
1.00103575 0.61474931 0.83301508
1.00074854 0.56773604 0.79330240
0.01121273 0.99887620 0.90191888
0.01533403 1.00111335 0.92110292
0.01557012 0.99659806 0.92723810
0.01783251 0.97661472 0.92002204
0.02002370 0.95168251 0.88874548
0.27494306 0.92185671 0.87075395
0.87035219 0.87035219 0.87035219
0.99663199 0.80100462 0.83277729
0.99682233 0.75258667 0.79393650
0.01510765 1.00103522 0.91975591
0.01510765 1.00103522 0.91975591
0.01507960 1.00114490 0.91875170
0.01406398 1.00134291 0.86604232
0.01240226 1.00148369 0.76881659
0.01092403 1.00149667 0.72348742
0.45791223 0.99999152 0.72343216
0.96545726 0.97403545 0.73885033
0.98766462 0.90643625 0.73003663
0.01510765 1.00103522 0.91975591
0.01510765 1.00103522 0.91975591
0.01510765 1.00103522 0.91975591
0.01511352 1.00104150 0.91953065
0.01386311 1.00147436 0.88748574
0.01210788 1.00147695 0.77964402
0.06023942 1.00154047 0.65322402
0.70791727 1.00134847 0.61207560
0.97722600 1.00130913 0.56543976
0.11703658 0.11509671 0.95710079
0.04848098 0.00000000 0.44783105
0.75000199 0.00000000 1.00026961
0.92193711 0.00939195 0.98691373
1.00005196 0.13481595 0.97609397
0.96452643 0.43044410 0.07097491
0.95901813 0.40380604 0.27459497
0.97622884 0.38360550 0.37879710
0.96139713 0.34700730 0.38781336
0.18851885 0.09271011 0.96641883
0.13159003 0.07901489 0.92018703
0.30034934 0.03242638 0.97088986
0.63573864 0.00000000 0.99885737
0.94219470 0.00000000 1.00111374
0.97808670 0.12893161 0.91566549
0.97833574 0.18562447 0.83224920
0.97775973 0.21982152 0.76607431
0.97748889 0.24593681 0.70263517
0.18887482 0.07496076 0.95239291
0.16561710 0.08068452 0.94392069
0.18337080 0.07867670 0.95369014
0.47456589 0.03193360 1.00137906
0.81356509 0.00000000 1.00132306
0.97493644 0.00000000 1.00076056
0.97882962 0.11437384 0.95270042
0.97838341 0.16228605 0.87907242
0.97835731 0.19890774 0.80820218
0.24383852 0.22392938 0.99997421
0.19490143 0.13677414 0.99606221
0.18488470 0.11139519 0.97754805
0.36216719 0.08512836 1.00146757
0.70593050 0.03679892 1.00146860
0.97797546 0.02365355 1.00102375
0.98956141 0.19122401 0.99574786
0.98542214 0.19018517 0.94282952
0.97994095 0.18126099 0.88320160
0.00000000 0.84690901 1.00126470
0.11872633 0.48309946 1.00153216
0.12448808 0.42973328 1.00151076
0.18381038 0.40373552 1.00149636
0.53426878 0.37971002 1.00151823
0.89792548 0.32296261 1.00145132
1.00124760 0.33142709 1.00064829
0.99904021 0.35466171 0.96724651
0.99642372 0.32533095 0.91464307
0.00217590 1.00134689 0.87551272
0.03061116 0.83344790 0.99471615
0.04167638 0.72362632 1.00140924
0.04294299 0.69683907 1.00150486
0.24669704 0.67465173 1.00154116
0.69649413 0.64386445 1.00151454
0.99665576 0.57342069 1.00129888
1.00124210 0.55855302 0.96486186
1.00140178 0.52037373 0.92234620
0.01219761 0.99706913 0.91605907
0.01514605 1.00120373 0.92098852
0.01864803 0.96606619 0.94222118
0.02471241 0.90847660 0.96750708
0.02719566 0.87779043 0.97899988
0.31343079 0.85716983 0.99916238
0.83137624 0.81842724 1.00050142
1.00115484 0.76477513 0.96471035
1.00142459 0.72357104 0.90914978
0.01510765 1.00103522 0.91975591
0.01510765 1.00103522 0.91975591
0.01510765 1.00103522 0.91975591
0.01510765 1.00103522 0.91975591
0.01520725 1.00113704 0.92000446
0.01577266 1.00016234 0.92416239
0.38395639 0.98226311 0.93636247
0.93375286 0.93375286 0.93375286
0.99640899 0.88630021 0.89760634
0.01510765 1.00103522 0.91975591
0.01510765 1.00103522 0.91975591
0.01510765 1.00103522 0.91975591
0.01510765 1.00103522 0.91975591
0.01510765 1.00103522 0.91975591
0.01527667 1.00120483 0.91832006
0.02162551 1.00132346 0.88845796
0.65000790 1.00130020 0.83960985
0.98922343 1.00125192 0.81885393
0.09751563 0.07349225 0.88825758
0.11824689 0.08273694 0.87361742
0.85186849 0.00000000 1.00222708
0.94052929 0.00000000 1.00084111
1.00006204 0.27930634 1.00167365
0.99662499 0.92586382 0.97482284
0.99658095 0.51661701 0.00381529
0.97495358 0.42388011 0.08278005
0.96507274 0.39691378 0.28104428
0.16977164 0.08648585 0.94150722
0.13654230 0.08333569 0.92785160
0.29926850 0.06787666 0.99794243
0.66219369 0.02114847 1.00130904
0.95184619 0.00000000 1.00132267
0.97569338 0.02267361 0.99988494
0.97832035 0.08863153 0.97772707
0.97882733 0.14354381 0.90910931
0.97809994 0.18527663 0.83236818
0.18246482 0.07616489 0.94538695
0.15938851 0.08145421 0.94216206
0.16022501 0.08195238 0.94238472
0.43230273 0.05627263 1.00136269
0.80834486 0.00000000 1.00121165
0.98097715 0.00000000 1.00129819
0.97468981 0.00599477 1.00097420
0.97693111 0.04922780 0.99704309
0.97845582 0.11174814 0.95302666
0.33464120 0.76407049 1.00154290
0.18660431 0.07974112 0.95797303
0.17594763 0.08022152 0.95085312
0.29571353 0.06883342 1.00126603
0.64167061 0.03058197 1.00141376
0.95700549 0.00000000 1.00109728
0.98293006 0.04479038 1.00123309
0.98219700 0.07158191 1.00126527
0.97962342 0.08321942 1.00031649
0.00000000 0.88316090 1.00158035
0.11713779 0.49198195 1.00148744
0.18985619 0.28371092 1.00137186
0.22891647 0.18096457 0.99866580
0.46910247 0.16626543 1.00127951
0.82751156 0.15083593 1.00108626
1.00016321 0.16887975 1.00127818
1.00045874 0.23995676 1.00116948
0.99662765 0.22909028 1.00135144
0.00000000 1.00314873 0.90644379
0.02917770 0.85301348 0.98389386
0.04093295 0.72985676 1.00137924
0.05719173 0.61739927 1.00141004
0.30181325 0.51461293 1.00141459
0.63381252 0.51122052 1.00152542
0.95948217 0.48302356 1.00119001
1.00145509 0.46131539 1.00119235
1.00122656 0.43476307 1.00134390
0.01510765 1.00103522 0.91975591
0.01524191 1.00114490 0.91993566
0.01781596 0.98197119 0.93451110
0.02371430 0.91983860 0.96244034
0.02955100 0.84603470 0.98989119
0.36326321 0.77080223 1.00148520
0.77891877 0.73963766 1.00132360
0.99978708 0.68983463 1.00113138
1.00143699 0.65741994 1.00117652
0.01510765 1.00103522 0.91975591
0.01510765 1.00103522 0.91975591
0.01510765 1.00103522 0.91975591
0.01510765 1.00103522 0.91975591
0.01517152 1.00077226 0.92031909
0.01745742 0.98679925 0.93174054
0.42985904 0.92932349 0.99260585
0.89130736 0.88467843 1.00142293
0.99991398 0.84419541 1.00088074
0.01510765 1.00103522 0.91975591
0.01510765 1.00103522 0.91975591
0.01510765 1.00103522 0.91975591
0.01510765 1.00103522 0.91975591
0.01510765 1.00103522 0.91975591
0.01515780 1.00107819 0.91982306
0.01706631 1.00135727 0.92413749
0.57249746 1.00138982 0.96011217
0.99031358 0.99031358 0.99031358
