LUT/PRO-Neg.cube
TITLE "PRO-Neg"
LUT_3D_SIZE 33
# Apple Log/Rec2020 -> LA - :FLog2C_to_PRO-Neg.Std/LA - :FLog2C_to_PRO-Neg.Std, CineEI Shift 0.00, Black Level -0.02% IRE, Input 109% -> Output 100% - Created with LUTCalc v4.09 by Ben Turley February 2025
0.00000000 0.00000000 0.00000000
0.00000000 0.00000000 0.00000000
0.00000000 0.00000000 0.00000000
0.00000000 0.00000000 0.00000000
0.17494278 0.02294869 0.04500009
0.64554370 0.03675598 0.21856686
0.72798299 0.05261553 0.43170326
0.77509342 0.05744706 0.68245288
0.80309123 0.19871869 0.43595711
0.86471214 0.30375940 0.44707702
0.94743779 0.34310134 0.55941423
1.00160954 0.17207971 0.61004683
1.00235069 0.27281003 0.66587024
1.01661066 0.33836648 0.80577910
1.01401280 0.38540622 0.82898433
1.00362524 0.60110088 0.77929335
0.99060909 0.68965977 0.66164772
0.96737393 0.54335098 0.55620065
0.95794953 0.33821120 0.49094632
0.96575175 0.25681067 0.48473068
0.96575175 0.25681067 0.48473068
0.96575175 0.25681067 0.48473068
0.96575175 0.25681067 0.48473068
0.96575175 0.25681067 0.48473068
0.96575175 0.25681067 0.48473068
0.96575175 0.25681067 0.48473068
0.96575175 0.25681067 0.48473068
0.96575175 0.25681067 0.48473068
0.96575175 0.25681067 0.48473068
0.96575175 0.25681067 0.48473068
0.96575175 0.25681067 0.48473068
0.96575175 0.25681067 0.48473068
0.96575175 0.25681067 0.48473068
0.00000000 0.00000000 0.00000000
0.00000000 0.00000000 0.00000000
0.00000000 0.00000000 0.00000000
0.00000000 0.00000000 0.00000000
0.07460039 0.01608964 0.02933468
0.27817672 0.02341521 0.11216088
0.40944151 0.03762975 0.17014705
0.48761126 0.04319002 0.31543513
0.54493475 0.10811395 0.19987872
0.66936310 0.17104951 0.23656743
0.83968624 0.19199670 0.32993247
0.91074506 0.11229037 0.37146331
0.97428139 0.16920374 0.42118994
1.00515735 0.19950460 0.57677341
1.00480033 0.22387150 0.64061774
0.99999870 0.34420985 0.61570688
0.97813327 0.42489887 0.56597087
0.96495971 0.37129209 0.52085172
0.96003601 0.28990653 0.48520375
0.96575175 0.25681067 0.48473068
0.96575175 0.25681067 0.48473068
0.96575175 0.25681067 0.48473068
0.96575175 0.25681067 0.48473068
0.96575175 0.25681067 0.48473068
0.96575175 0.25681067 0.48473068
0.96575175 0.25681067 0.48473068
0.96575175 0.25681067 0.48473068
0.96575175 0.25681067 0.48473068
0.96575175 0.25681067 0.48473068
0.96575175 0.25681067 0.48473068
0.96575175 0.25681067 0.48473068
0.96575175 0.25681067 0.48473068
0.96575175 0.25681067 0.48473068
0.00000000 0.00000000 0.00000000
0.00000000 0.00000000 0.00000000
0.00000000 0.00000000 0.00000000
0.00000000 0.00000000 0.00000000
0.04860858 0.01277210 0.02410658
0.15720491 0.01789725 0.08277173
0.27687851 0.03023778 0.10067388
0.35342195 0.03646606 0.18439335
0.41259116 0.08270056 0.13150989
0.53515211 0.13046310 0.16762511
0.74579564 0.14488518 0.24481757
0.85200617 0.09258043 0.27750229
0.91753019 0.13634185 0.31845870
1.00041324 0.15466777 0.45842309
1.00098440 0.16997740 0.53223313
1.00110879 0.24716970 0.53814273
0.97308678 0.31283979 0.52529999
0.96398292 0.30317010 0.50543788
0.96091933 0.27089724 0.48282818
0.96575175 0.25681067 0.48473068
0.96575175 0.25681067 0.48473068
0.96575175 0.25681067 0.48473068
0.96575175 0.25681067 0.48473068
0.96575175 0.25681067 0.48473068
0.96575175 0.25681067 0.48473068
0.96575175 0.25681067 0.48473068
0.96575175 0.25681067 0.48473068
0.96575175 0.25681067 0.48473068
0.96575175 0.25681067 0.48473068
0.96575175 0.25681067 0.48473068
0.96575175 0.25681067 0.48473068
0.96575175 0.25681067 0.48473068
0.96575175 0.25681067 0.48473068
0.00000000 0.00000000 0.00000000
0.00000000 0.00000000 0.00000000
0.00000000 0.00000000 0.00000000
0.00000000 0.00000000 0.00000000
0.03289018 0.01077307 0.01495152
0.10205393 0.01008547 0.05762455
0.18816087 0.02431869 0.05345031
0.26628211 0.02537289 0.09851706
0.32759586 0.05262404 0.09468041
0.43391549 0.08054362 0.12587058
0.61829572 0.08210223 0.18365518
0.77020023 0.06030889 0.22104508
0.85084801 0.09849238 0.26468125
0.95236427 0.12423043 0.37222185
0.99657008 0.13607220 0.45493852
0.99019043 0.17768517 0.48997417
0.97250540 0.24282759 0.50208669
0.97046683 0.26957773 0.49989248
0.96606059 0.26298051 0.48603293
0.96575175 0.25681067 0.48473068
0.96575175 0.25681067 0.48473068
0.96575175 0.25681067 0.48473068
0.96575175 0.25681067 0.48473068
0.96575175 0.25681067 0.48473068
0.96575175 0.25681067 0.48473068
0.96575175 0.25681067 0.48473068
0.96575175 0.25681067 0.48473068
0.96575175 0.25681067 0.48473068
0.96575175 0.25681067 0.48473068
0.96575175 0.25681067 0.48473068
0.96575175 0.25681067 0.48473068
0.96575175 0.25681067 0.48473068
0.96575175 0.25681067 0.48473068
0.00000000 0.00000000 0.00000000
0.00000000 0.00000000 0.00000000
0.00000000 0.00000000 0.00000000
0.00000000 0.00000000 0.00000000
0.83137565 0.20197383 0.00000000
0.04628188 0.00272172 0.01904139
0.11678050 0.00887512 0.01972416
0.20299653 0.02341043 0.02385123
0.27014825 0.03972594 0.04293512
0.37764854 0.03216802 0.08340586
0.48117562 0.03059558 0.12761104
0.58868637 0.04941583 0.15428624
0.73894624 0.08384315 0.19587549
0.84376252 0.08314325 0.29545062
0.95112692 0.08952589 0.41329773
0.99660341 0.12458300 0.47001466
0.99278517 0.19127289 0.47804548
0.97508459 0.25560492 0.48397956
0.96798963 0.26690478 0.49238183
0.96575175 0.25681067 0.48473068
0.96575175 0.25681067 0.48473068
0.96575175 0.25681067 0.48473068
0.96575175 0.25681067 0.48473068
0.96575175 0.25681067 0.48473068
0.96575175 0.25681067 0.48473068
0.96575175 0.25681067 0.48473068
0.96575175 0.25681067 0.48473068
0.96575175 0.25681067 0.48473068
0.96575175 0.25681067 0.48473068
0.96575175 0.25681067 0.48473068
0.96575175 0.25681067 0.48473068
0.96575175 0.25681067 0.48473068
0.96575175 0.25681067 0.48473068
0.01710502 0.18973189 0.23906984
0.01038930 0.07392158 0.05082552
0.00671333 0.04636760 0.01589493
0.00385099 0.02832702 0.00032522
0.00077245 0.00796503 0.00000000
0.05069432 0.00245235 0.22948414
0.09785973 0.00195532 0.01740672
0.13174832 0.01287572 0.03343511
0.16395573 0.02691420 0.04658454
0.28069708 0.03614099 0.06674341
0.38246857 0.06006872 0.08396229
0.49839594 0.03564915 0.16633132
0.65518103 0.05033051 0.22892067
0.77576998 0.07010803 0.24345139
0.86870229 0.08088743 0.29900409
0.93146444 0.09500423 0.38708005
0.96378173 0.13735109 0.45987844
0.96694561 0.21072516 0.49492767
0.97724758 0.28298593 0.50697953
0.97471005 0.29161083 0.51141073
0.96575175 0.25681067 0.48473068
0.96575175 0.25681067 0.48473068
0.96575175 0.25681067 0.48473068
0.96575175 0.25681067 0.48473068
0.96575175 0.25681067 0.48473068
0.96575175 0.25681067 0.48473068
0.96575175 0.25681067 0.48473068
0.96575175 0.25681067 0.48473068
0.96575175 0.25681067 0.48473068
0.96575175 0.25681067 0.48473068
0.96575175 0.25681067 0.48473068
0.96575175 0.25681067 0.48473068
0.96575175 0.25681067 0.48473068
0.02716288 0.36549319 0.00000000
0.01868415 0.14835692 0.00000000
0.01460111 0.09121889 0.00000000
0.01071076 0.06383442 0.00000000
0.00594142 0.02245456 0.12344138
0.00085779 0.00083883 0.07295750
0.09141756 0.00085372 0.00064031
0.11444208 0.00000000 0.00123961
0.13717406 0.02084963 0.02548776
0.19745595 0.02025086 0.04780533
0.30208506 0.02859863 0.10875131
0.43562668 0.02987331 0.19052289
0.55219977 0.03858280 0.18995509
0.68250139 0.05919907 0.19825521
0.80373657 0.06984455 0.25938422
0.88867874 0.07651867 0.35169911
0.93941436 0.09925926 0.43197152
0.95934581 0.15835910 0.47689283
0.95802628 0.24194980 0.48623904
0.97076491 0.26939193 0.49054016
0.96577797 0.25706782 0.48484111
0.96575251 0.25681818 0.48473390
0.96575175 0.25681067 0.48473068
0.96575175 0.25681067 0.48473068
0.96575175 0.25681067 0.48473068
0.96575175 0.25681067 0.48473068
0.96575175 0.25681067 0.48473068
0.96575175 0.25681067 0.48473068
0.96575175 0.25681067 0.48473068
0.96575175 0.25681067 0.48473068
0.96575175 0.25681067 0.48473068
0.96575175 0.25681067 0.48473068
0.96575175 0.25681067 0.48473068
0.02240332 0.28962558 0.00000000
0.01569628 0.15245238 0.00000000
0.01241072 0.11078463 0.00000000
0.01184224 0.08822660 0.00000000
0.01467656 0.05928301 0.17005711
0.00673389 0.02667285 0.00000000
0.04889341 0.02274667 0.00000000
0.08963497 0.01360397 0.00000000
0.12932581 0.02820602 0.01604226
0.16843769 0.02474601 0.03190872
0.26782546 0.04324754 0.08068834
0.40303827 0.03869002 0.22458736
0.49183172 0.03113208 0.16456850
0.61526402 0.03270224 0.16990367
0.75102204 0.04659893 0.21772678
0.85636296 0.07298268 0.29531673
0.92534568 0.10480720 0.38641709
0.96054924 0.14276448 0.45788439
0.95485262 0.18817106 0.48516063
0.96779301 0.24992300 0.48397112
0.96753483 0.27444550 0.49345983
0.96582330 0.25751223 0.48503197
0.96575175 0.25681067 0.48473068
0.96575175 0.25681067 0.48473068
0.96575175 0.25681067 0.48473068
0.96575175 0.25681067 0.48473068
0.96575175 0.25681067 0.48473068
0.96575175 0.25681067 0.48473068
0.96575175 0.25681067 0.48473068
0.96575175 0.25681067 0.48473068
0.96575175 0.25681067 0.48473068
0.96575175 0.25681067 0.48473068
0.96575175 0.25681067 0.48473068
0.01415704 0.25708379 0.00920009
0.01116665 0.14826890 0.04388470
0.00969841 0.11375857 0.05733855
0.01171586 0.09959290 0.00000000
0.01408694 0.09722384 0.00003095
0.01725302 0.04404896 0.04762456
0.02222108 0.03127653 0.00000000
0.06123018 0.02448597 0.00000000
0.13387396 0.03733722 0.00000000
0.16982398 0.04567640 0.01446361
0.24078900 0.06048536 0.03460729
0.34931576 0.05798775 0.15228973
0.44771653 0.04871539 0.13742369
0.57087373 0.03371624 0.15895161
0.69530748 0.04700076 0.20459755
0.80470082 0.07749764 0.27012951
0.89481497 0.10432986 0.35661457
0.95744984 0.12298934 0.44172654
0.96785441 0.15597224 0.47816724
0.96741436 0.23389560 0.47872392
0.97354393 0.29018034 0.49770899
0.96599029 0.25808064 0.48522239
0.96575175 0.25681067 0.48473068
0.96575175 0.25681067 0.48473068
0.96575175 0.25681067 0.48473068
0.96575175 0.25681067 0.48473068
0.96575175 0.25681067 0.48473068
0.96575175 0.25681067 0.48473068
0.96575175 0.25681067 0.48473068
0.96575175 0.25681067 0.48473068
0.96575175 0.25681067 0.48473068
0.96575175 0.25681067 0.48473068
0.96575175 0.25681067 0.48473068
0.02233603 0.27961747 0.65599054
0.02027962 0.15471733 0.73221771
0.01941312 0.11623795 0.76055956
0.01909572 0.10730802 0.56902257
0.01318673 0.13035298 0.00000000
0.01429301 0.07888461 0.48713057
0.01705742 0.06267230 0.07755418
0.04534130 0.05667374 0.00000000
0.11507798 0.05551824 0.00000000
0.17199669 0.06119880 0.00562712
0.21287215 0.06287443 0.01714969
0.29511849 0.06388814 0.07553799
0.39931835 0.06208593 0.11019020
0.54202726 0.06216323 0.12993615
0.66688043 0.07475561 0.17901803
0.77142110 0.09263117 0.26014948
0.88065499 0.09487835 0.35775861
0.96338829 0.09090663 0.44348665
0.99584060 0.11738201 0.48445636
0.96698602 0.19712385 0.47958702
0.97744580 0.26922132 0.48279572
0.96519630 0.26118522 0.48832703
0.96614211 0.25360236 0.49134787
0.96588464 0.25586737 0.48620792
0.96575175 0.25681067 0.48473068
0.96575175 0.25681067 0.48473068
0.96575175 0.25681067 0.48473068
0.96575175 0.25681067 0.48473068
0.96575175 0.25681067 0.48473068
0.96575175 0.25681067 0.48473068
0.96575175 0.25681067 0.48473068
0.96575175 0.25681067 0.48473068
0.96575175 0.25681067 0.48473068
0.01254815 0.46753005 0.00000000
0.01389634 0.26786581 0.00000000
0.01442426 0.19743004 0.00000000
0.01580984 0.16208822 0.14686000
0.01906763 0.17566121 0.03022640
0.01909230 0.13939727 0.12360021
0.01500259 0.09820927 0.13293504
0.02978265 0.08926801 0.01816731
0.07035661 0.08786358 0.00000000
0.13188673 0.08504289 0.00000000
0.17300323 0.07507934 0.00000000
0.27017130 0.07717045 0.00016857
0.38357991 0.08976990 0.05423032
0.49391755 0.08765186 0.09593345
0.61663772 0.09579787 0.13053437
0.73722236 0.10894041 0.20725641
0.84683704 0.10960785 0.31041514
0.93059889 0.10685967 0.39067281
0.98018645 0.12755228 0.45308811
0.95567888 0.18140819 0.48294473
0.96593468 0.24864574 0.48472264
0.96165989 0.27774265 0.50131908
0.96775416 0.24318637 0.51320159
0.96628622 0.25059626 0.49328434
0.96707819 0.25355828 0.48593810
0.96662494 0.25456705 0.48442476
0.96592848 0.25604000 0.48429598
0.96575822 0.25678192 0.48471396
0.96575175 0.25681067 0.48473068
0.96575175 0.25681067 0.48473068
0.96575175 0.25681067 0.48473068
0.96575175 0.25681067 0.48473068
0.96575175 0.25681067 0.48473068
0.04333346 0.51174919 0.00000000
0.03993880 0.31702168 0.00000000
0.03832466 0.24552597 0.02466327
0.03239467 0.21437606 0.27636985
0.02028282 0.22153832 0.12228614
0.02690588 0.18220634 0.00000000
0.02157118 0.16484935 0.27903918
0.01863929 0.14161560 0.16972789
0.03576663 0.12835074 0.00000000
0.10628047 0.11555438 0.00000000
0.16400146 0.09980725 0.00000000
0.24831477 0.11318937 0.00000000
0.33603120 0.11939932 0.00000000
0.44263988 0.11729960 0.04310758
0.56640548 0.13055539 0.09076875
0.70782603 0.14175911 0.17369362
0.81887566 0.13854046 0.27755393
0.89707001 0.13644967 0.36532411
0.94924145 0.15391621 0.42202617
0.95025379 0.18942139 0.46810841
0.95777881 0.24633444 0.48166527
0.96456758 0.29808168 0.49162584
0.96887968 0.25586963 0.48426987
0.96529184 0.23857913 0.49923701
0.97820055 0.22665502 0.49631347
0.97657615 0.23471378 0.48147027
0.96745362 0.24993722 0.47844412
0.96582512 0.25648461 0.48454111
0.96575175 0.25681067 0.48473068
0.96575175 0.25681067 0.48473068
0.96575175 0.25681067 0.48473068
0.96575175 0.25681067 0.48473068
0.96575175 0.25681067 0.48473068
0.00303607 0.63549194 0.00384863
0.01456472 0.41456421 0.02521157
0.01804557 0.32289983 0.03182160
0.01996824 0.27519207 0.07234128
0.01884995 0.27565913 0.25838794
0.01847995 0.23953447 0.06816523
0.02561293 0.21192660 0.22161408
0.02247142 0.18326888 0.55428407
0.03254805 0.17660090 0.08236387
0.08472675 0.15543563 0.00000000
0.16509376 0.15044836 0.06068287
0.24221169 0.14903084 0.00000000
0.31723228 0.15831082 0.00000000
0.41213467 0.15365119 0.60213444
0.53193900 0.16146296 0.22643941
0.66613938 0.17466929 0.08442133
0.78322024 0.18033915 0.19668809
0.86719036 0.18313311 0.28104305
0.93713614 0.19389196 0.35396262
0.97530629 0.20992399 0.43588490
0.95773795 0.23766199 0.47037853
0.96011097 0.29916976 0.47774213
0.96105290 0.29448500 0.46783843
0.96105402 0.25868541 0.49042514
0.96992374 0.24050152 0.48895204
0.96642527 0.24839375 0.47717347
0.96336375 0.26284655 0.47372205
0.96720761 0.26058294 0.48426206
0.96462496 0.24458267 0.50025984
0.95549483 0.24054949 0.50348009
0.96432733 0.25454044 0.48720416
0.96570746 0.25674073 0.48480687
0.96575175 0.25681067 0.48473068
0.00026769 0.74951331 0.16983625
0.00053405 0.52877932 0.37275808
0.00399481 0.42559911 0.47166416
0.00589172 0.36570862 0.67424153
0.01208760 0.36567429 0.15845679
0.01350764 0.31485298 0.00000000
0.02037804 0.27460387 0.00000000
0.02194247 0.24888214 0.22488690
0.02439474 0.24039913 0.18326254
0.04896065 0.21265207 0.18812983
0.15898257 0.20228618 0.32746840
0.20302544 0.19427906 0.00000000
0.31210578 0.19799313 0.00000000
0.39551748 0.19888723 0.31024906
0.50200951 0.20026945 0.52542729
0.62174779 0.21130968 0.44975248
0.73999459 0.22031294 0.29993203
0.83914368 0.22637259 0.18736922
0.92141657 0.23861149 0.29783415
0.97935857 0.24957573 0.39979529
0.96002221 0.25689116 0.44919332
0.96213013 0.30105612 0.45832173
0.96590385 0.32203611 0.47680043
0.96164924 0.29626493 0.48099244
0.96807028 0.27371323 0.47032743
0.96990961 0.26758340 0.47146499
0.96530702 0.27096520 0.47210277
0.96777572 0.27392049 0.47905535
0.96658978 0.26826247 0.49917234
0.94789473 0.25164938 0.50361763
0.96067988 0.24610625 0.48940062
0.96748338 0.25065860 0.47629179
0.96619804 0.25688894 0.48160356
0.01634841 0.82134633 0.52051561
0.02030850 0.63390410 0.61593342
0.02186385 0.52988849 0.65400202
0.01886254 0.46308027 0.62287309
0.01570791 0.46141363 0.18752164
0.00285239 0.40415371 0.00000000
0.01963330 0.34813604 0.00000000
0.02250187 0.32112740 0.04820627
0.02296404 0.31098311 0.25462060
0.02961599 0.28765710 0.18804170
0.07725615 0.27624320 0.05669956
0.17602688 0.25975197 0.22370846
0.27512610 0.24890955 0.00000000
0.36298704 0.24906202 0.52840152
0.46382733 0.25152064 0.45210064
0.58137836 0.25812903 0.15993859
0.69414328 0.26482587 0.33541109
0.80171776 0.27156796 0.44571182
0.89386291 0.28408861 0.23051426
0.97647820 0.29304813 0.38456987
0.98198775 0.28573345 0.43002801
0.96981544 0.30830106 0.42026846
0.97704074 0.33673360 0.46329285
0.97022814 0.32798583 0.45437030
0.96972917 0.30585932 0.44797185
0.97553836 0.28939411 0.46371257
0.97006331 0.28438818 0.46495883
0.96738161 0.29103254 0.46314138
0.97077907 0.29448031 0.47878990
0.95619211 0.27805320 0.47776345
0.95970569 0.25848697 0.47088881
0.96521151 0.25371897 0.46271983
0.97003492 0.25034278 0.48225333
0.03180885 0.86570104 0.36809072
0.03374919 0.72148840 0.37360244
0.03460205 0.61492678 0.37587826
0.02787230 0.55990748 0.26533459
0.01745756 0.56091512 0.24073532
0.00000000 0.49890524 0.00000000
0.02294225 0.43599093 0.00000000
0.02446848 0.40335207 0.04982420
0.02322532 0.38998624 0.29076962
0.02122339 0.37887558 0.13010357
0.03106494 0.36430573 0.00000000
0.08432457 0.34668810 0.11106411
0.22795697 0.32192198 0.02971014
0.33285466 0.30839982 0.38694588
0.42829570 0.30764224 0.34116871
0.54299042 0.31324705 0.26443753
0.65881890 0.31723013 0.20323083
0.76455186 0.32142867 0.40116350
0.86024679 0.33427963 0.62598050
0.95387250 0.34628904 0.27947716
1.00035037 0.32993000 0.38463744
0.97956751 0.33317328 0.38467399
0.97966970 0.35780565 0.42652129
0.97890520 0.36104401 0.42643684
0.97459033 0.34120454 0.43496596
0.97481694 0.32317156 0.44652973
0.97361021 0.31310700 0.44881641
0.97181953 0.30987029 0.45040639
0.97552448 0.31097081 0.45779677
0.96772832 0.30557375 0.44532124
0.96227106 0.28369261 0.44707579
0.97054160 0.27335452 0.45345422
0.96976720 0.26469983 0.48242509
0.03163457 0.94124382 0.01861695
0.03112438 0.83083692 0.01361748
0.03091834 0.73016360 0.01105135
0.02473237 0.64927871 0.00029179
0.01066015 0.66380729 0.17148567
0.00286814 0.58985362 0.00000000
0.02530942 0.53498042 0.00000000
0.02415072 0.50513335 0.09056895
0.02186618 0.48375297 0.43669188
0.01567305 0.47813314 0.32112998
0.01473257 0.45706551 0.03354730
0.02802006 0.44120563 0.04834068
0.16937345 0.41600617 0.01972838
0.31512783 0.38720976 0.29424509
0.40649661 0.37360335 0.44620937
0.51208466 0.37646413 0.51992369
0.62531633 0.37918079 0.23120201
0.73340329 0.37978886 0.10546886
0.82889594 0.38816161 0.49290180
0.92409101 0.40307368 0.40738340
1.00089870 0.39399539 0.20264046
0.98618713 0.38633292 0.31187025
0.97761507 0.39374729 0.36871787
0.98189691 0.39886879 0.40927493
0.97801140 0.38189638 0.41774089
0.97330369 0.36515871 0.41624440
0.97479716 0.34869098 0.42603891
0.97716494 0.33307142 0.43552122
0.97816805 0.32896272 0.43119723
0.97233533 0.33493237 0.41304353
0.96493056 0.31512211 0.42868540
0.97751997 0.30529593 0.44336386
0.96779540 0.29649583 0.46251443
0.00000000 1.00047743 0.00000000
0.00000000 0.93017205 0.00000000
0.00042502 0.86611572 0.00000000
0.00186412 0.80099943 0.00000000
0.00000000 0.76226762 0.16680414
0.01423488 0.67815602 0.00000000
0.02135944 0.62398098 0.00000000
0.01681976 0.61305719 0.00000000
0.01833183 0.59032832 0.27826797
0.01068728 0.58124717 0.23067530
0.01001944 0.55216827 0.40553616
0.00582571 0.52925626 0.08311839
0.09307065 0.51356170 0.00000000
0.25476272 0.48229564 0.09008388
0.38578691 0.45816694 0.43185803
0.48571512 0.44920103 0.33211798
0.59387131 0.45052441 0.13773505
0.70017414 0.44830038 0.03802262
0.80310219 0.44474650 0.02607465
0.89194514 0.45609221 0.40312961
0.98303564 0.46108443 0.26535943
0.98708516 0.45508201 0.13747863
0.97396527 0.44258134 0.25861960
0.98170107 0.43618757 0.38032296
0.97811694 0.42404179 0.39339679
0.97465307 0.40961374 0.37920348
0.97250826 0.39010177 0.39141184
0.97645854 0.36797068 0.40611220
0.97927435 0.36052222 0.39790183
0.97112842 0.36988783 0.38411199
0.96635973 0.34922797 0.40824642
0.97728699 0.34769733 0.42717222
0.96878395 0.33422865 0.43126604
0.00000000 1.00460798 0.00000000
0.00000000 0.99560211 0.00000000
0.00000000 0.92936943 0.00000000
0.00000000 0.88974579 0.04610046
0.00000000 0.85374423 0.22339953
0.00035173 0.78242189 0.00000000
0.00000000 0.72929385 0.00000000
0.00000000 0.71320343 0.00000000
0.00965529 0.69559172 0.00000000
0.00596130 0.68063763 0.00000000
0.00722339 0.64390502 0.00000000
0.01132912 0.61092640 0.00000000
0.03296968 0.59996071 0.00000000
0.14918022 0.57911704 0.00000000
0.33141623 0.55905781 0.02361165
0.45465065 0.54073618 0.08649184
0.56434115 0.53314439 0.02505958
0.67227027 0.52965985 0.00000000
0.77060807 0.51629049 0.00000000
0.85606985 0.51114876 0.02931001
0.94819942 0.52287124 0.41371303
0.98616628 0.52151060 0.01713319
0.97522571 0.50288069 0.35435466
0.97920771 0.47912099 0.39854078
0.97733398 0.46558569 0.37360148
0.97361202 0.45786848 0.34363298
0.96706131 0.44257448 0.34279492
0.96966312 0.41931623 0.36412466
0.97951475 0.40583788 0.36868255
0.97443873 0.40803717 0.36392518
0.97158099 0.38304661 0.37937305
0.97211648 0.39515148 0.40290302
0.97200523 0.37314157 0.41107353
0.00000000 1.00318344 0.00000000
0.00000000 0.98832788 0.00000000
0.00000000 0.93241773 0.00000000
0.00065368 0.92782356 0.09121667
0.03521215 0.94291326 0.02605438
0.00000000 0.86518026 0.22480191
0.00000000 0.85209169 0.21017245
0.00000000 0.82358316 0.00001802
0.00000000 0.80222833 0.00000000
0.00050809 0.77031512 0.00000000
0.00176057 0.72568697 0.00000000
0.00834243 0.69187918 0.00000000
0.00285671 0.67797945 0.00000000
0.06193365 0.66073889 0.00000000
0.23088367 0.64889108 0.00000000
0.42409277 0.63453162 0.00000000
0.53253267 0.62003035 0.02824533
0.64637817 0.61106800 0.00056373
0.74751594 0.59742897 0.00000000
0.82361509 0.57645186 0.00000000
0.91238279 0.59025464 0.00000000
0.98489107 0.58734329 0.00000000
0.97817058 0.57823735 0.69670626
0.97231657 0.54773668 0.56728154
0.97364575 0.51785884 0.40655646
0.97028095 0.50863724 0.31714596
0.96529620 0.49944478 0.29025125
0.96974317 0.47693961 0.31756581
0.97947480 0.45853473 0.33648638
0.97970284 0.44971549 0.35158697
0.98087754 0.42071649 0.35316961
0.97151305 0.43473290 0.36844750
0.97380985 0.40825497 0.38920682
0.00000000 1.00155436 0.00000000
0.00000000 1.00155436 0.00000000
0.00000000 1.00155436 0.00000000
0.00000000 1.00155436 0.00000000
0.00000000 1.00155436 0.00000000
0.00000000 0.91790846 0.00000000
0.00000000 0.94165934 0.02584572
0.00000000 0.92260935 0.11713340
0.00000000 0.89121911 0.13094944
0.00000000 0.84938338 0.00000000
0.01581954 0.81540286 0.00000000
0.00000000 0.78001181 0.00000000
0.00056339 0.75449272 0.00000000
0.00060308 0.71893404 0.00000000
0.14109852 0.70494170 0.00000000
0.38019901 0.70599777 0.00000000
0.51010694 0.69711338 0.00000000
0.60505999 0.67659190 0.00000000
0.71337729 0.66429581 0.00000000
0.80259540 0.65795050 0.00000000
0.88320208 0.64822082 0.00000000
0.97737249 0.66586656 0.00000000
0.97926874 0.66167461 0.00000000
0.95974665 0.62807268 0.57026453
0.96077244 0.58870296 0.54161426
0.96755491 0.56512917 0.27260918
0.97589756 0.54721658 0.25417903
0.97843887 0.52415737 0.26694100
0.97757594 0.50387186 0.26067504
0.98206238 0.48832002 0.31297164
0.98962145 0.47097213 0.33872372
0.97512136 0.46964440 0.33449114
0.97426132 0.44249301 0.33088984
0.00000000 1.00155436 0.00000000
0.00000000 1.00155436 0.00000000
0.00000000 1.00155436 0.00000000
0.00000000 1.00155436 0.00000000
0.00000000 1.00155436 0.00000000
0.00000000 1.00083746 0.00000000
0.00000000 1.00104213 0.00000000
0.00000000 0.98414627 0.01693581
0.00000000 0.94794205 0.00000000
0.00000000 0.93748625 0.00000000
0.37091249 0.91392367 0.00000000
0.00160525 0.88499205 0.00000000
0.00000000 0.83975417 0.00000000
0.00000000 0.81428415 0.00452651
0.00010820 0.79888097 0.00000000
0.25927827 0.78936765 0.00000000
0.51044068 0.78646699 0.00000000
0.55166116 0.77544254 0.00000000
0.65675532 0.74747597 0.00000000
0.77455512 0.72916982 0.00000000
0.84507564 0.71796183 0.00000000
0.92765867 0.72295654 0.00000000
0.99689142 0.70936382 0.00000000
0.95313140 0.68357557 0.00000000
0.95518416 0.65687511 0.00000000
0.97289734 0.61810105 0.12978927
0.97783978 0.59365427 0.22189173
