LUT/PRO-Neg.cube
TITLE "PRO-Neg"
LUT_3D_SIZE 5
# Apple Log/Rec2020 -> LA - :FLog2C_to_PRO-Neg.Std/LA - :FLog2C_to_PRO-Neg.Std, CineEI Shift 0.00, Black Level -0.02% IRE, Input 109% -> Output 100% - Created with LUTCalc v4.09 by Ben Turley February 2025
0.00000000 0.00000000 0.00000000
0.80309123 0.19871869 0.43595711
0.99060909 0.68965977 0.66164772
0.96575175 0.25681067 0.48473068
0.96575175 0.25681067 0.48473068
0.01415704 0.25708379 0.00920009
0.13387396 0.03733722 0.00000000
0.89481497 0.10432986 0.35661457
0.96575175 0.25681067 0.48473068
0.96575175 0.25681067 0.48473068
0.03163457 0.94124382 0.01861695
0.02186618 0.48375297 0.43669188
0.62531633 0.37918079 0.23120201
0.97801140 0.38189638 0.41774089
0.96779540 0.29649583 0.46251443
0.00000000 1.00155436 0.00000000
0.00000000 1.00155436 0.00000000
0.00000000 0.98403853 0.00000000
0.99044033 0.82181720 0.00000000
0.96408275 0.67099816 0.00000000
0.00000000 1.00155436 0.00000000
0.00000000 1.00155436 0.00000000
0.00000000 1.00155436 0.00000000
0.46646717 1.00096456 0.00000000
0.94946273 1.00106015 0.00000000
0.00051765 0.00000000 0.00000000
0.70214045 0.09267666 0.04025768
1.00005390 0.65370959 0.67371920
0.96575175 0.25681067 0.48473068
0.96575175 0.25681067 0.48473068
0.06345128 0.46387887 0.51307162
0.07079408 0.07079408 0.07079408
0.77310183 0.07637639 0.24178318
0.96575175 0.25681067 0.48473068
0.96575175 0.25681067 0.48473068
0.00000000 1.00038029 0.63065595
0.01778802 0.62550984 0.00000000
0.46983384 0.46509974 0.00045413
0.97405963 0.45532419 0.34766441
0.97007261 0.35065531 0.41564042
0.00000000 1.00155436 0.00000000
0.00000000 1.00155436 0.00000000
0.00000000 1.00155436 0.00000000
0.94670470 0.92275152 0.00000000
0.96731149 0.77046445 0.00000000
0.00000000 0.99668827 0.97986295
0.00000000 1.00155436 0.00000000
0.00000000 1.00155436 0.00000000
0.11273452 1.00151789 0.00000000
0.95077005 1.00140676 0.00081962
0.03622627 0.00421426 0.19501210
0.61828003 0.03158946 0.08948010
1.00408150 0.80237769 0.46291103
0.95357087 0.24058067 0.35837906
0.96575175 0.25681067 0.48473068
0.07588058 0.53032703 0.93676590
0.09305184 0.06122210 0.38619580
0.75743842 0.03660623 0.51382855
0.97389559 0.27547381 0.58329866
0.96625177 0.25803459 0.49422959
0.02004069 0.96529637 0.93845968
0.03442199 0.65984264 0.61644970
0.48553781 0.48553781 0.48553781
0.98820800 0.48092621 0.61243028
0.97837991 0.38413424 0.54196997
0.02351314 1.00161205 0.87340549
0.00223827 1.00145160 0.38206822
0.00000000 1.00148400 0.24540944
0.92157850 0.93655934 0.27707759
0.98150425 0.76256816 0.39240136
0.02408077 0.99857388 1.00274499
0.00760232 1.00147527 0.61565132
0.00000000 1.00149181 0.17628136
0.08037593 1.00140663 0.00000000
0.95079033 1.00136368 0.00000000
0.04471684 0.02179162 0.70677345
0.68259378 0.00000000 0.15944338
1.00118253 0.11161563 0.20202573
0.96972264 0.35911812 0.39881108
0.95515386 0.21505234 0.34468037
0.27696077 0.21613716 1.00276195
0.15681174 0.03330256 0.87937304
0.79325039 0.00002616 0.97114741
0.97845941 0.19951445 0.80469104
0.97731019 0.25422493 0.68037417
0.05319772 0.74849771 1.00096774
0.04743007 0.60315731 1.00145089
0.52707249 0.46272666 0.99700527
1.00024723 0.42389819 0.91223097
0.99279567 0.38081669 0.77779735
0.01121273 0.99887620 0.90191888
0.01557012 0.99659806 0.92723810
0.02002370 0.95168251 0.88874548
0.87035219 0.87035219 0.87035219
0.99682233 0.75258667 0.79393650
0.01510765 1.00103522 0.91975591
0.01510765 1.00103522 0.91975591
0.01386311 1.00147436 0.88748574
0.06023942 1.00154047 0.65322402
0.97722600 1.00130913 0.56543976
0.09751563 0.07349225 0.88825758
0.85186849 0.00000000 1.00222708
1.00006204 0.27930634 1.00167365
0.99658095 0.51661701 0.00381529
0.96507274 0.39691378 0.28104428
0.18246482 0.07616489 0.94538695
0.16022501 0.08195238 0.94238472
0.80834486 0.00000000 1.00121165
0.97468981 0.00599477 1.00097420
0.97845582 0.11174814 0.95302666
0.00000000 0.88316090 1.00158035
0.18985619 0.28371092 1.00137186
0.46910247 0.16626543 1.00127951
1.00016321 0.16887975 1.00127818
0.99662765 0.22909028 1.00135144
0.01510765 1.00103522 0.91975591
0.01781596 0.98197119 0.93451110
0.02955100 0.84603470 0.98989119
0.77891877 0.73963766 1.00132360
1.00143699 0.65741994 1.00117652
0.01510765 1.00103522 0.91975591
0.01510765 1.00103522 0.91975591
0.01510765 1.00103522 0.91975591
0.01706631 1.00135727 0.92413749
0.99031358 0.99031358 0.99031358
