LUT/PROVIA.cube
TITLE "PROVIA"
LUT_3D_SIZE 5
# Apple Log/Rec2020 -> LA - :FLog2C_to_PROVIA/LA - :FLog2C_to_PROVIA, CineEI Shift 0.00, Black Level -0.02% IRE, Input 109% -> Output 100% - Created with LUTCalc v4.09 by Ben Turley February 2025
0.00000000 0.00000000 0.00000000
0.86527675 0.05592525 0.17861981
1.00152684 0.71579289 0.63565151
1.00127611 0.25654244 0.48084026
1.00127611 0.25654244 0.48084026
0.03612866 0.34835895 0.02682316
0.21558179 0.00673815 0.07511927
1.00155372 0.07793853 0.36484042
1.00127611 0.25654244 0.48084026
1.00127611 0.25654244 0.48084026
0.04227181 1.00003540 0.83231507
0.00003552 0.50482501 0.00000000
0.74205776 0.36792496 0.00000000
1.00012775 0.38642946 0.38052433
1.00164111 0.29810665 0.46317093
0.00000000 1.00127611 0.00000000
0.00000000 1.00127611 0.00000000
0.00000000 1.00127611 0.00000000
1.00001322 0.81963136 0.00000000
1.00091508 0.69054109 0.00002455
0.00000000 1.00127611 0.00000000
0.00000000 1.00127611 0.00000000
0.00000000 1.00127611 0.00000000
0.12631331 1.00132679 0.00000000
0.98143430 0.98089216 0.01419794
0.00000000 0.44351287 0.06456413
0.82089778 0.03721125 0.00002126
0.99786389 0.69410470 0.68292008
1.00127611 0.25654244 0.48084026
1.00127611 0.25654244 0.48084026
0.00000000 0.48670893 0.54629650
0.06166632 0.06166632 0.06166632
0.90430799 0.04540207 0.20217825
1.00127611 0.25654244 0.48084026
1.00127611 0.25654244 0.48084026
0.00000000 1.00403299 0.00000000
0.00000000 0.66706116 0.00000000
0.48855750 0.47534976 0.00000000
1.00055911 0.46319087 0.31257795
1.00058913 0.35482067 0.39434833
0.00000000 1.00127611 0.00000000
0.00000000 1.00127611 0.00000000
0.00000000 1.00127611 0.00000000
0.99789231 0.89492111 0.00003775
1.00020445 0.76757764 0.00000000
0.00000000 1.00114463 0.25830025
0.00000000 1.00127611 0.00000000
0.00000000 1.00127611 0.00000000
0.00000000 1.00127611 0.00000000
0.98106289 0.98426780 0.01612732
0.01702557 0.05911871 0.29349889
0.76306825 0.00001561 0.04446010
1.00061759 0.87805237 0.46114904
1.00171218 0.25163795 0.34932961
1.00127611 0.25654244 0.48084026
0.05441679 0.53165409 1.00190871
0.09838207 0.02985837 0.49067920
0.88849254 0.00000000 0.52899615
1.00105721 0.27296638 0.58749856
1.00108288 0.25734940 0.49099288
0.01470315 1.00126525 1.00181519
0.00063097 0.68650930 0.68449682
0.48361373 0.48361373 0.48361373
1.00111849 0.48701268 0.60365195
1.00116525 0.38642080 0.53494441
0.00000000 0.99769775 0.91713956
0.00002226 1.00093070 0.29633577
0.00003161 1.00103840 0.11102664
0.94248751 0.94177863 0.15426279
1.00105657 0.76836415 0.34138703
0.02283280 0.94228670 1.01284817
0.00000000 1.00120399 0.63053980
0.00000000 1.00105893 0.04628797
0.00000000 1.00127611 0.00000000
0.98270913 0.98414514 0.01676892
0.07984476 0.00000000 0.83728064
0.74338412 0.00000000 0.00000000
1.00071732 0.74615346 0.06888829
1.00149906 0.36906965 0.37513855
1.00013927 0.23308965 0.34294741
0.64203468 0.00000000 0.98997670
0.29377056 0.00000000 0.98611028
0.90981827 0.00000000 0.99776009
1.00109239 0.18484317 0.83496309
1.00093040 0.24774273 0.69420925
0.00000000 0.76262182 1.00170719
0.00973126 0.59359547 1.00122799
0.58615395 0.42193897 1.00095879
1.00111469 0.41663542 0.92694888
1.00109228 0.37741465 0.78764379
0.00470154 0.99688617 0.99792440
0.00000000 0.98059487 1.00125672
0.00000000 0.95446034 0.98218907
0.87209255 0.87209255 0.87209255
1.00118241 0.75630699 0.78243887
0.00179379 0.99086049 1.00127611
0.00179379 0.99086049 1.00127611
0.00061513 0.99800075 0.97021220
0.00000000 1.00094846 0.68340281
0.98012980 1.00127095 0.49107989
0.34801811 0.00000000 1.00010203
0.87337993 0.00000000 1.00109669
1.00127611 0.00000000 1.00101840
1.00163436 0.68200077 0.80475871
1.00147478 0.40610769 0.14484633
0.40928050 0.00000000 1.00109020
0.40470448 0.00000000 1.00099998
0.94094080 0.00000000 1.00074784
1.00127611 0.00000000 1.00101658
1.00122990 0.07431321 0.99408982
0.00000000 0.90914502 1.00161586
0.37191365 0.18633942 1.00109465
0.64144168 0.04590410 1.00047291
1.00124287 0.06928072 1.00034278
1.00104261 0.19133060 1.00001974
0.00179379 0.98867555 1.00006505
0.00039162 0.97184972 1.00108900
0.00000000 0.86792784 1.00118800
0.81036231 0.72188084 1.00105188
1.00108306 0.64814551 1.00108776
0.00179379 0.99086049 1.00127611
0.00179379 0.99086049 1.00127611
0.00179379 0.99086049 1.00127611
0.00182323 0.99083849 1.00127611
0.99353469 0.99353469 0.99353469
