LUT/PROVIA.cube
TITLE "PROVIA"
LUT_3D_SIZE 9
# Apple Log/Rec2020 -> LA - :FLog2C_to_PROVIA/LA - :FLog2C_to_PROVIA, CineEI Shift 0.00, Black Level -0.02% IRE, Input 109% -> Output 100% - Created with LUTCalc v4.09 by Ben Turley February 2025
0.00000000 0.00000000 0.00000000
0.59910052 0.00334993 0.53821941
0.86527675 0.05592525 0.17861981
1.02502458 0.60482767 0.71289861
1.00152684 0.71579289 0.63565151
1.00127611 0.25654244 0.48084026
1.00127611 0.25654244 0.48084026
1.00127611 0.25654244 0.48084026
1.00127611 0.25654244 0.48084026
0.00000000 0.00000000 0.00000000
0.51652546 0.03179694 0.00000000
0.37647783 0.03038440 0.03519530
0.85440614 0.02638945 0.15203226
1.00064049 0.19076205 0.45437641
1.00127611 0.25654244 0.48084026
1.00127611 0.25654244 0.48084026
1.00127611 0.25654244 0.48084026
1.00127611 0.25654244 0.48084026
0.03612866 0.34835895 0.02682316
0.00038372 0.09846995 0.00000000
0.21558179 0.00673815 0.07511927
0.58372583 0.01977887 0.09062799
1.00155372 0.07793853 0.36484042
1.00046494 0.29808977 0.48281451
1.00127611 0.25654244 0.48084026
1.00127611 0.25654244 0.48084026
1.00127611 0.25654244 0.48084026
0.06675119 0.71321742 0.00000000
0.00000000 0.30266787 0.00000000
0.00000000 0.18529211 0.00000000
0.40656859 0.15037952 0.28676773
0.90603855 0.15460549 0.47964478
0.99042472 0.24277868 0.47539519
0.99996673 0.24883577 0.50220125
0.99793502 0.23388855 0.49228407
1.00127611 0.25654244 0.48084026
0.04227181 1.00003540 0.83231507
0.00000000 0.67922883 0.48239294
0.00003552 0.50482501 0.00000000
0.00000000 0.43830742 0.06901661
0.74205776 0.36792496 0.00000000
0.99995520 0.39510825 0.78277218
1.00012775 0.38642946 0.38052433
0.99770988 0.34844200 0.40305533
1.00164111 0.29810665 0.46317093
0.00000000 1.00127611 0.00000000
0.00000000 1.00127611 0.00000000
0.00000000 0.93196196 0.00000000
0.00000000 0.78145035 0.00047500
0.52156923 0.71722562 0.00000000
0.97983950 0.65444334 0.00000000
0.99995887 0.60623035 0.09577713
1.00137615 0.51173409 0.24454308
1.00091780 0.45241984 0.28144088
0.00000000 1.00127611 0.00000000
0.00000000 1.00127611 0.00000000
0.00000000 1.00127611 0.00000000
0.00000000 1.00127611 0.00000000
0.00000000 1.00127611 0.00000000
0.75568850 0.92632094 0.02136147
1.00001322 0.81963136 0.00000000
1.00036389 0.72773812 0.00000000
1.00091508 0.69054109 0.00002455
0.00000000 1.00127611 0.00000000
0.00000000 1.00127611 0.00000000
0.00000000 1.00127611 0.00000000
0.00000000 1.00127611 0.00000000
0.00000000 1.00127611 0.00000000
0.00000000 1.00127663 0.00000000
0.89342196 0.99414920 0.03702054
1.00097301 0.88774251 0.00000000
0.99802985 0.84532077 0.08399486
0.00000000 1.00127611 0.00000000
0.00000000 1.00127611 0.00000000
0.00000000 1.00127611 0.00000000
0.00000000 1.00127611 0.00000000
0.00000000 1.00127611 0.00000000
0.00000000 1.00127611 0.00000000
0.12631331 1.00132679 0.00000000
0.98806519 0.98926164 0.29927149
0.98143430 0.98089216 0.01419794
0.00000000 0.00000000 0.00000000
0.14681599 0.44638533 0.53367868
0.86301291 0.03440376 0.28953691
1.01611752 0.10694109 0.68628273
1.00149944 0.65471431 0.68288177
1.00127611 0.25654244 0.48084026
1.00127611 0.25654244 0.48084026
1.00127611 0.25654244 0.48084026
1.00127611 0.25654244 0.48084026
0.00000000 0.00000000 0.00000000
0.00000000 0.00000000 0.00000000
0.24112844 0.01050903 0.02465056
0.72339959 0.02061742 0.11325428
1.00105699 0.10974259 0.42729166
1.00127611 0.25654244 0.48084026
1.00127611 0.25654244 0.48084026
1.00127611 0.25654244 0.48084026
1.00127611 0.25654244 0.48084026
0.00000000 0.43601165 0.00000000
0.00139812 0.10864484 0.00003005
0.06797866 0.06217407 0.00003773
0.41940147 0.04275391 0.02423326
0.94032069 0.04553338 0.22481517
1.00115139 0.22606824 0.47338771
1.00127611 0.25654244 0.48084026
1.00127611 0.25654244 0.48084026
1.00127611 0.25654244 0.48084026
0.00000000 0.82349580 0.00000000
0.00000000 0.37692968 0.00000000
0.00000000 0.24307083 0.00000000
0.23023627 0.19847377 0.00000000
0.77912110 0.18921167 0.00000000
1.00109418 0.24506508 0.34829216
1.00099068 0.29246382 0.45105618
1.00105448 0.26415051 0.47389077
1.00127611 0.25654244 0.48084026
0.00000000 1.00422715 0.00000000
0.00000000 0.80438223 0.00000000
0.00000000 0.61674413 0.00000000
0.00051706 0.51246000 0.00003149
0.53243894 0.45319459 0.00000000
0.99788754 0.45515460 0.00651569
1.00074836 0.44750804 0.30168928
1.00083892 0.38985143 0.36332430
1.00110984 0.33968596 0.40727310
0.00000000 1.00127611 0.00000000
0.00000000 1.00127611 0.00000000
0.00000000 0.98037172 0.00000000
0.00000000 0.90611618 0.00000000
0.04755672 0.82033166 0.00003750
0.84930134 0.72310558 0.00002907
1.00007497 0.68068381 0.00000000
1.00095775 0.59273658 0.11754663
1.00052419 0.52201017 0.21752904
0.00000000 1.00127611 0.00000000
0.00000000 1.00127611 0.00000000
0.00000000 1.00127611 0.00000000
0.00000000 1.00127611 0.00000000
0.00000000 1.00127611 0.00000000
0.19155400 0.98326237 0.00001816
1.00049568 0.88274440 0.00000000
0.99973701 0.79043184 0.00001899
0.99983326 0.74364323 0.00000000
0.00000000 1.00127611 0.00000000
0.00000000 1.00127611 0.00000000
0.00000000 1.00127611 0.00000000
0.00000000 1.00127611 0.00000000
0.00000000 1.00127611 0.00000000
0.00000000 1.00127611 0.00000000
0.60669081 0.99971112 0.00002852
0.99990959 0.94361868 0.00000000
1.00025986 0.89171020 0.00000000
0.00000000 1.00127611 0.00000000
0.00000000 1.00127611 0.00000000
0.00000000 1.00127611 0.00000000
0.00000000 1.00127611 0.00000000
0.00000000 1.00127611 0.00000000
0.00000000 1.00127611 0.00000000
0.00000000 1.00127611 0.00000000
0.86539070 0.99786203 0.00000000
0.98176738 0.98334025 0.01602024
0.00000000 0.44351287 0.06456413
0.00000000 0.00000000 0.00000000
0.82089778 0.03721125 0.00002126
1.00616613 0.07718411 0.66552934
0.99786389 0.69410470 0.68292008
1.00127611 0.25654244 0.48084026
1.00127611 0.25654244 0.48084026
1.00127611 0.25654244 0.48084026
1.00127611 0.25654244 0.48084026
0.01851793 0.03530478 0.40954913
0.00487647 0.00003523 0.06514265
0.21148868 0.00534527 0.04058670
0.66748199 0.01883297 0.09627785
1.00051154 0.09255035 0.40079665
1.00127611 0.25654244 0.48084026
1.00127611 0.25654244 0.48084026
1.00127611 0.25654244 0.48084026
1.00127611 0.25654244 0.48084026
0.00000000 0.48670893 0.54629650
0.00059695 0.11771330 0.11518934
0.06166632 0.06166632 0.06166632
0.38782831 0.04559559 0.06948921
0.90430799 0.04540207 0.20217825
1.00104776 0.20445530 0.46689405
1.00127611 0.25654244 0.48084026
1.00127611 0.25654244 0.48084026
1.00127611 0.25654244 0.48084026
0.00000000 0.84433593 0.69218040
0.00000000 0.41869837 0.07457776
0.00000000 0.26940831 0.01814012
0.20945635 0.21199226 0.01555918
0.73005948 0.19544515 0.04561485
1.00070415 0.24706030 0.33431355
1.00106039 0.30406572 0.44044627
1.00069851 0.27027747 0.46961770
1.00127611 0.25654244 0.48084026
0.00000000 1.00403299 0.00000000
0.00000000 0.83803216 0.00000000
0.00000000 0.66706116 0.00000000
0.00000000 0.55157266 0.00000000
0.48855750 0.47534976 0.00000000
0.98666704 0.46216007 0.03546912
1.00055911 0.46319087 0.31257795
1.00075896 0.40648615 0.34673823
1.00058913 0.35482067 0.39434833
0.00000000 1.00127611 0.00000000
0.00000000 1.00127611 0.00000000
0.00000000 0.99786614 0.00002640
0.00000000 0.93147107 0.00000000
0.00000000 0.84780620 0.00000000
0.79981510 0.74168343 0.00003737
0.99994933 0.70288198 0.01683243
1.00093950 0.61050369 0.14780904
1.00065495 0.54272235 0.19515854
0.00000000 1.00127611 0.00000000
0.00000000 1.00127611 0.00000000
0.00000000 1.00127611 0.00000000
0.00000000 1.00127611 0.00000000
0.00000000 1.00127611 0.00000000
0.11195904 0.99764335 0.00000000
0.99789231 0.89492111 0.00003775
0.99999623 0.81533388 0.00000000
1.00020445 0.76757764 0.00000000
0.00000000 1.00127611 0.00000000
0.00000000 1.00127611 0.00000000
0.00000000 1.00127611 0.00000000
0.00000000 1.00127611 0.00000000
0.00000000 1.00127611 0.00000000
0.00000000 1.00127611 0.00000000
0.43580760 1.00097317 0.00000000
0.99791682 0.96027301 0.00638409
1.00034091 0.90211431 0.00000000
0.00000000 1.00114463 0.25830025
0.00000000 1.00127481 0.00000000
0.00000000 1.00127611 0.00000000
0.00000000 1.00127611 0.00000000
0.00000000 1.00127611 0.00000000
0.00000000 1.00127611 0.00000000
0.00000000 1.00127611 0.00000000
0.79348786 0.99960381 0.00000000
0.98106289 0.98426780 0.01612732
0.00000000 0.00000000 0.08763437
0.00003763 0.00000000 0.00000000
0.77997654 0.00000000 0.01074249
1.00169030 0.15000383 0.16470343
0.99963479 0.74686849 0.51362389
1.00127611 0.25654244 0.48084026
1.00127611 0.25654244 0.48084026
1.00127611 0.25654244 0.48084026
1.00127611 0.25654244 0.48084026
0.13772784 0.08946983 0.68374038
0.01708061 0.00000000 0.20463706
0.21648538 0.00000000 0.14179334
0.64645525 0.00342509 0.18222488
1.00106456 0.07334387 0.41121328
1.00127611 0.25654244 0.48084026
1.00127611 0.25654244 0.48084026
1.00127611 0.25654244 0.48084026
1.00127611 0.25654244 0.48084026
0.00000000 0.52075685 0.83358124
0.00000000 0.11200289 0.35634735
0.06998489 0.05168478 0.22455021
0.39371814 0.03482624 0.21358758
0.89325725 0.02763680 0.33139296
1.00105928 0.18855742 0.52196198
1.00116373 0.25724174 0.49036684
1.00127611 0.25654244 0.48084026
1.00127611 0.25654244 0.48084026
0.00000000 0.84076038 0.87388515
0.00000000 0.43892973 0.44467528
0.00000000 0.28570119 0.27453300
0.21768177 0.21768177 0.21768177
0.72064054 0.18760880 0.24342908
1.00126812 0.23114945 0.45932770
1.00121486 0.32000401 0.50398329
1.00101306 0.27834183 0.48280095
1.00127099 0.25660743 0.48078484
0.13705443 1.00202644 0.84646526
0.00003672 0.83217262 0.41924147
0.00000000 0.68325588 0.24211044
0.00013666 0.57236661 0.15095498
0.47707714 0.48470418 0.11731557
0.97922644 0.45557828 0.24423655
1.00091565 0.47493054 0.44671405
1.00103621 0.42090601 0.43037650
1.00082684 0.36662308 0.41348004
0.00000000 1.00165704 0.69356372
0.00000000 1.00119038 0.16689527
0.00000000 0.99785332 0.04500441
0.00000000 0.94136075 0.00408231
0.00058691 0.86247790 0.00000000
0.77425431 0.76764643 0.00006829
0.99991116 0.70477325 0.21776445
1.00069685 0.61663711 0.32075241
1.00069485 0.55234231 0.30746054
0.00000000 1.00126937 0.27550615
0.00000000 1.00127611 0.00000000
0.00000000 1.00127611 0.00000000
0.00000000 1.00127611 0.00000000
0.00000000 1.00127611 0.00000000
0.06736093 0.99818850 0.00000000
0.98462470 0.90841783 0.00000000
1.00000545 0.83456693 0.05923253
0.99944605 0.77508541 0.06750896
0.03636115 0.99884730 1.00098073
0.00000000 1.00114777 0.06381784
0.00000000 1.00127611 0.00000000
0.00000000 1.00127611 0.00000000
0.00000000 1.00127611 0.00000000
0.00000000 1.00127611 0.00000000
0.27655779 1.00108086 0.00000000
0.99823227 0.96660804 0.01072944
1.00049767 0.90645938 0.00003634
0.00000000 0.99790606 0.98233956
0.00000000 1.00050841 0.46310040
0.00000000 1.00121127 0.06028725
0.00000000 1.00127611 0.00000000
0.00000000 1.00127611 0.00000000
0.00000000 1.00127611 0.00000000
0.00000000 1.00127611 0.00000000
0.70222497 1.00048877 0.00015363
0.98091446 0.98433007 0.01608548
0.01702557 0.05911871 0.29349889
0.00000000 0.00000000 0.01868848
0.76306825 0.00001561 0.04446010
0.99995195 0.00000000 0.22856378
1.00061759 0.87805237 0.46114904
0.99786575 0.21838843 0.27804890
1.00171218 0.25163795 0.34932961
1.00134178 0.25667588 0.47979114
1.00127611 0.25654244 0.48084026
0.22943489 0.00000000 0.87855105
0.04254206 0.00000000 0.44266799
0.23873094 0.00000000 0.33054387
0.64620591 0.00000000 0.35979719
0.99883473 0.03601619 0.54629409
1.00091962 0.26786653 0.55382786
1.00092024 0.25845833 0.50348275
1.00120522 0.25654368 0.48174001
1.00127611 0.25654244 0.48084026
0.05441679 0.53165409 1.00190871
0.03710430 0.08762574 0.69213426
0.09838207 0.02985837 0.49067920
0.42078374 0.01274084 0.44973780
0.88849254 0.00000000 0.52899615
1.00112249 0.15205976 0.64925140
1.00105721 0.27296638 0.58749856
1.00085949 0.26377827 0.53266025
1.00108288 0.25734940 0.49099288
0.06286676 0.82678779 1.00756598
0.00002465 0.44109878 0.82752494
0.00000000 0.29188543 0.62613026
0.24735791 0.21211331 0.52293890
0.72707805 0.16850963 0.50706680
1.00069517 0.20237610 0.63877863
1.00110616 0.34736108 0.61910770
1.00114040 0.30229756 0.58132094
1.00113194 0.26850322 0.54087732
0.01470315 1.00126525 1.00181519
0.00000000 0.82080853 0.83880243
0.00063097 0.68650930 0.68449682
0.00000000 0.58168744 0.56924612
0.48361373 0.48361373 0.48361373
0.96897135 0.44092775 0.51608776
1.00111849 0.48701268 0.60365195
1.00123143 0.44123156 0.57003934
1.00116525 0.38642080 0.53494441
0.00003561 1.00208313 0.88637382
0.00000000 0.99803404 0.72025181
0.00000000 0.97569423 0.62041740
0.00001552 0.92519558 0.51554302
0.00064169 0.85243478 0.41647270
0.74853672 0.75839013 0.36341539
1.00055950 0.69961623 0.48862477
1.00036319 0.62126761 0.51498544
1.00087030 0.56194628 0.48011168
0.00000000 0.99769775 0.91713956
0.00000509 1.00102739 0.43060331
0.00002226 1.00093070 0.29633577
0.00000000 1.00109266 0.19569394
0.00003161 1.00103840 0.11102664
0.03692852 0.99935646 0.08200233
0.94248751 0.94177863 0.15426279
1.00094980 0.82489897 0.36110404
1.00105657 0.76836415 0.34138703
0.00000000 0.99992468 1.00042553
0.00003530 1.00112639 0.65626664
0.00000000 1.00094999 0.27273231
0.00000000 1.00120782 0.01828095
0.00000000 1.00127611 0.00000000
0.00000000 1.00127611 0.00000000
0.16795540 1.00102007 0.00000000
0.99777089 0.98910157 0.02763947
1.00033898 0.94644086 0.02962205
0.02283280 0.94228670 1.01284817
0.00001944 1.00005842 0.88046270
0.00000000 1.00120399 0.63053980
0.00000000 1.00098618 0.36633422
0.00000000 1.00105893 0.04628797
0.00000000 1.00127611 0.00000000
0.00000000 1.00127611 0.00000000
0.60303599 1.00066368 0.00000000
0.98270913 0.98414514 0.01676892
0.05588837 0.00000000 0.22643234
0.00003701 0.03485479 0.01807801
0.73568631 0.26699437 0.07967959
1.00040418 0.00000000 0.30490150
0.99918039 0.81435965 0.54453242
1.00143878 0.34720060 0.37097508
1.00059976 0.25019422 0.34694499
0.99958171 0.22193097 0.27255145
1.00160641 0.25080136 0.37161017
0.38202430 0.00000000 1.00667868
0.09697113 0.00000948 0.78190616
0.28093068 0.00000000 0.60777649
0.66858882 0.00003579 0.59970855
0.99778941 0.00035875 0.73923860
1.00095851 0.26115331 0.65915642
1.00112754 0.27577111 0.60724872
1.00096718 0.26780817 0.55364655
1.00038758 0.25765383 0.50113918
0.42970157 0.54629229 1.02039249
0.16908284 0.03132638 0.97167577
0.18014008 0.00000000 0.83669357
0.47892725 0.00000000 0.76515764
0.89342274 0.00000000 0.78862015
1.00123784 0.07365281 0.82080500
1.00108762 0.24787713 0.69428481
1.00114339 0.26834711 0.63781179
1.00102192 0.27386943 0.58644536
0.04142661 0.80198369 0.99880930
0.03140463 0.39812578 1.00119481
0.03172307 0.26251756 0.96824999
0.32010828 0.17824454 0.87919946
0.75724356 0.12448645 0.82190914
1.00124792 0.14698653 0.86289402
1.00119978 0.32363792 0.73361470
1.00108830 0.29494953 0.68790512
1.00089796 0.27490508 0.64407614
0.00000000 0.90741366 1.00123356
0.00000000 0.78054742 1.00094853
0.00000000 0.67322064 0.99793212
0.00079582 0.57406811 0.92620821
0.51626224 0.47016140 0.83486797
0.96331896 0.41285591 0.80238409
1.00094038 0.47906795 0.75735287
1.00081121 0.45780388 0.70051272
1.00105323 0.41117305 0.66017127
0.00000000 0.99738114 1.00087219
0.00000000 0.94639472 0.99784888
0.00000000 0.92503580 0.94589662
0.00000000 0.89503209 0.89581802
0.00025731 0.83891530 0.82762291
0.74118800 0.74118800 0.74118800
1.00058136 0.68509656 0.74052890
1.00028487 0.63130730 0.69517796
1.00120318 0.57554396 0.65027298
0.30134639 0.97699756 1.00941931
0.00000000 1.00109852 0.84690752
0.00002074 1.00124903 0.78805346
0.00000000 1.00052913 0.74320073
0.00000431 0.99775192 0.68967639
0.02835045 0.99084940 0.63376854
0.90497181 0.91088526 0.58710302
1.00073899 0.81383336 0.62570712
1.00048620 0.76057323 0.58775332
0.00555245 0.96415856 1.01640551
0.00000000 0.99790354 0.96975878
0.00000000 1.00098330 0.79273421
0.00000000 1.00107562 0.59449372
0.00001630 1.00083864 0.39913026
0.00000000 1.00102250 0.32608667
0.10937667 1.00111540 0.31316289
0.99736341 0.99803712 0.34297374
1.00035725 0.93065925 0.39888484
0.00179379 0.99086049 1.00127611
0.00179379 0.99086049 1.00127611
0.00000000 0.99789389 0.95982400
0.00000000 1.00110938 0.83444166
0.00000000 1.00101266 0.64628051
0.00000000 1.00108544 0.40067473
0.00000000 1.00120338 0.18336419
0.53786608 1.00115937 0.02701240
0.98203687 1.00114780 0.06234656
0.07984476 0.00000000 0.83728064
0.00637344 0.00000000 0.29574510
0.74338412 0.00000000 0.00000000
0.99998920 0.44013526 0.03850408
1.00071732 0.74615346 0.06888829
0.99813768 0.38689715 0.32594085
1.00149906 0.36906965 0.37513855
1.00032942 0.34297526 0.38692331
1.00013927 0.23308965 0.34294741
0.57309734 0.06833556 1.00575077
0.21300534 0.00000912 0.95122614
0.35805036 0.00000000 0.94859925
0.71509567 0.00000000 0.90632505
0.99834804 0.00000000 0.95535823
1.00111383 0.20494345 0.79438300
1.00113672 0.23808924 0.71871692
1.00098828 0.26136850 0.65906009
1.00098795 0.27482352 0.60621904
0.64203468 0.00000000 0.98997670
0.36101632 0.00000000 1.00106948
0.29377056 0.00000000 0.98611028
0.55950478 0.00000000 1.00015407
0.90981827 0.00000000 0.99776009
1.00127611 0.01450374 0.99334176
1.00109239 0.18484317 0.83496309
1.00118160 0.22014415 0.76309006
1.00093040 0.24774273 0.69420925
0.24030999 0.49404800 1.00097730
0.29027523 0.26143334 1.00091360
0.25244989 0.17273384 1.00093975
0.43822434 0.08567813 1.00100699
0.79893364 0.04058276 1.00075258
1.00090439 0.05768736 1.00037070
1.00063731 0.26787881 0.87934499
1.00116821 0.24929536 0.82127032
1.00105169 0.23254047 0.76802099
0.00000000 0.76262182 1.00170719
0.00080595 0.64973472 1.00121285
0.00973126 0.59359547 1.00122799
0.09340696 0.52160346 1.00103093
0.58615395 0.42193897 1.00095879
0.96971824 0.36117681 1.00064932
1.00111469 0.41663542 0.92694888
1.00065625 0.41473525 0.83665738
1.00109228 0.37741465 0.78764379
0.00231857 0.95937725 0.99778326
0.00000000 0.88439195 1.00090935
0.00000000 0.85961325 1.00116968
0.00000000 0.83520687 1.00124099
0.05608190 0.79112212 1.00091952
0.74883861 0.70596908 0.99539396
1.00067819 0.64022031 0.95183146
1.00042516 0.61724563 0.83082620
1.00109373 0.57128613 0.79192165
0.00470154 0.99688617 0.99792440
0.00154984 0.99015783 1.00111055
0.00000000 0.98059487 1.00125672
0.00064247 0.96757687 1.00050239
0.00000000 0.95446034 0.98218907
0.04821446 0.93755358 0.94044875
0.87209255 0.87209255 0.87209255
1.00106758 0.80345829 0.82583645
1.00118241 0.75630699 0.78243887
0.00179379 0.99086049 1.00127611
0.00179379 0.99086049 1.00127611
0.00138471 0.99124115 1.00120984
0.00000000 0.99771316 0.94198052
0.00000000 1.00119385 0.83083873
0.00000000 1.00111206 0.77995371
0.06908090 1.00044164 0.73853165
0.96977435 0.97728715 0.70256769
1.00086711 0.90831085 0.70177026
0.00179379 0.99086049 1.00127611
0.00179379 0.99086049 1.00127611
0.00179379 0.99086049 1.00127611
0.00177260 0.99091630 1.00120813
0.00061513 0.99800075 0.97021220
0.00000000 1.00098304 0.84581260
0.00000000 1.00094846 0.68340281
0.52199113 1.00092228 0.57062164
0.98012980 1.00127095 0.49107989
0.28267146 0.00264867 0.99899453
0.06960980 0.00000000 0.97643893
0.74716051 0.00145228 0.98608512
1.00094570 0.00000000 0.97744916
1.00127611 0.00000000 1.00101840
1.00043583 0.49918804 0.00000000
0.99797220 0.43846614 0.11820342
0.99792530 0.38239460 0.33372313
1.00170754 0.37116783 0.39605392
0.48320762 0.00000000 1.00168644
0.36425301 0.00003080 1.00031530
0.45733076 0.00001820 1.00090018
0.76916885 0.00000000 1.00086426
1.00084668 0.00000000 1.00105615
1.00114526 0.09390025 0.96126718
1.00121026 0.16756190 0.86922668
1.00104304 0.20854271 0.78939935
1.00104257 0.23699757 0.71906699
0.42069804 0.00000000 0.99786038
0.40881530 0.00001657 1.00054351
0.42105079 0.00000000 1.00043344
0.63906889 0.00000000 1.00079159
0.93290657 0.00000000 1.00058615
1.00127611 0.00000000 1.00101840
1.00120643 0.07450433 0.99020583
1.00125390 0.13540539 0.91882891
1.00113844 0.18434563 0.83996395
0.44242538 0.15163486 1.00052727
0.41888896 0.01677662 1.00075502
0.41667025 0.00008765 1.00012319
0.56598922 0.00003149 1.00108098
0.84957615 0.00001558 1.00087295
1.00127611 0.00000000 1.00101840
1.00114487 0.15657419 0.99940896
1.00115653 0.16353661 0.98134811
1.00118159 0.15860340 0.91994237
0.00000000 0.86956401 1.00125871
0.22595242 0.43645198 1.00114655
0.25907121 0.37100977 1.00059239
0.32790945 0.33497746 1.00095007
0.65835574 0.29105176 1.00106821
0.98017820 0.23646328 1.00025805
1.00123408 0.29871785 1.00044542
1.00109099 0.33930987 0.98756195
1.00113532 0.31238545 0.93919458
0.21538359 1.00365369 1.00151670
0.00001498 0.85407513 1.00125118
0.00000000 0.73359995 1.00120114
0.00000000 0.70218937 1.00106419
0.24921784 0.66484194 1.00124327
0.75280648 0.61607995 1.00124291
1.00029032 0.55136595 1.00029209
1.00084792 0.55427414 0.97320347
1.00092689 0.51695115 0.92983148
0.00179379 0.98882086 1.00022472
0.00146309 0.98987663 1.00119558
0.00000000 0.96168399 1.00102541
0.00000000 0.91675346 1.00117022
0.00063833 0.89354696 1.00122176
0.13089733 0.87180255 1.00117868
0.84453819 0.81237929 1.00116096
1.00113481 0.76244571 0.96852755
1.00118389 0.72234746 0.90965905
0.00179379 0.99086049 1.00127611
0.00179379 0.99086049 1.00127611
0.00179379 0.99086049 1.00127611
0.00179379 0.99086049 1.00127611
0.00178168 0.99107121 1.00075462
0.00134392 0.98827328 1.00117906
0.08693157 0.98472560 0.99459862
0.93490934 0.93490934 0.93490934
1.00113611 0.88764446 0.89299426
0.00179379 0.99086049 1.00127611
0.00179379 0.99086049 1.00127611
0.00179379 0.99086049 1.00127611
0.00179379 0.99086049 1.00127611
0.00179379 0.99086049 1.00127611
0.00168644 0.99171621 0.99876836
0.00000000 0.99773214 0.97095941
0.44092532 1.00101088 0.85628460
0.98514157 1.00092878 0.80232241
0.34801811 0.00000000 1.00010203
0.37638592 0.00000000 1.00170820
0.87337993 0.00000000 1.00109669
1.00279514 0.00000000 1.00040097
1.00127611 0.00000000 1.00101840
1.00137097 0.45677406 0.99205015
1.00163436 0.68200077 0.80475871
1.00048647 0.49053836 0.00000000
1.00147478 0.40610769 0.14484633
0.39429912 0.00026884 1.00141335
0.38430456 0.00000000 1.00099778
0.52024084 0.00003612 1.00113841
0.81704854 0.00001736 1.00107885
1.00127611 0.00000000 1.00101840
1.00127322 0.00002355 1.00101074
1.00124839 0.04232083 0.99802397
1.00109860 0.11191456 0.95511601
1.00124248 0.16738385 0.87017830
0.40928050 0.00000000 1.00109020
0.40379705 0.00001127 1.00085018
0.40470448 0.00000000 1.00099998
0.62934054 0.00000476 1.00091994
0.94094080 0.00000000 1.00074784
1.00127611 0.00000000 1.00101840
1.00127611 0.00000000 1.00101658
1.00126153 0.01424337 1.00064012
1.00122990 0.07431321 0.99408982
0.40687422 0.79976715 1.00055641
0.42903968 0.00000000 1.00121021
0.41793382 0.00000000 1.00047556
0.51697261 0.00000000 1.00109250
0.81081747 0.00000000 1.00097405
1.00127611 0.00000000 1.00101840
1.00127611 0.00049243 1.00103956
1.00123311 0.01456746 1.00081282
1.00119953 0.03044711 1.00068763
0.00000000 0.90914502 1.00161586
0.21118113 0.44687154 1.00107643
0.37191365 0.18633942 1.00109465
0.43554706 0.06582293 1.00102466
0.64144168 0.04590410 1.00047291
0.94651165 0.03629189 1.00069042
1.00124287 0.06928072 1.00034278
1.00123319 0.19337538 1.00093777
1.00104261 0.19133060 1.00001974
0.02535072 1.00191837 0.99980490
0.00058164 0.87264988 1.00106313
0.00000000 0.74185484 1.00124279
0.07250549 0.60609104 1.00098438
0.39732362 0.46781773 1.00089605
0.72053202 0.45623906 1.00125774
0.99799362 0.43177605 1.00096262
1.00117488 0.43598582 1.00062131
1.00098662 0.41325024 1.00096376
0.00179379 0.98867555 1.00006505
0.00179379 0.99099517 1.00108253
0.00039162 0.97184972 1.00108900
0.00000000 0.92561795 1.00126553
0.00000000 0.86792784 1.00118800
0.31781825 0.77188662 1.00120653
0.81036231 0.72188084 1.00105188
1.00096784 0.67568312 1.00054616
1.00108306 0.64814551 1.00108776
0.00179379 0.99086049 1.00127611
0.00179379 0.99086049 1.00127611
0.00179379 0.99086049 1.00127611
0.00179379 0.99086049 1.00127611
0.00165736 0.99030494 1.00122322
0.00027177 0.97712187 1.00110442
0.18015207 0.94302879 1.00101590
0.90069631 0.88292986 0.99969558
1.00122080 0.84485471 0.99978888
0.00179379 0.99086049 1.00127611
0.00179379 0.99086049 1.00127611
0.00179379 0.99086049 1.00127611
0.00179379 0.99086049 1.00127611
0.00179379 0.99086049 1.00127611
0.00179379 0.99140660 1.00009097
0.00182323 0.99083849 1.00127611
0.32391967 1.00094790 0.99946902
0.99353469 0.99353469 0.99353469
