LUT/PROVIA.cube
TITLE "PROVIA"
LUT_3D_SIZE 33
# Apple Log/Rec2020 -> LA - :FLog2C_to_PROVIA/LA - :FLog2C_to_PROVIA, CineEI Shift 0.00, Black Level -0.02% IRE, Input 109% -> Output 100% - Created with LUTCalc v4.09 by Ben Turley February 2025
0.00000000 0.00000000 0.00000000
0.00000000 0.00000000 0.00000000
0.00000000 0.00000000 0.00000000
0.00000000 0.00000000 0.00000000
0.59910052 0.00334993 0.53821941
0.82760877 0.00034600 0.42443323
0.80991580 0.02786046 0.12740715
0.83454122 0.01014915 0.25944853
0.86527675 0.05592525 0.17861981
0.92861679 0.11014982 0.18516054
0.99790095 0.12991047 0.52763659
1.00244974 0.17015490 0.68240780
1.02502458 0.60482767 0.71289861
1.02936246 0.57157460 0.83666965
1.00820089 0.54216696 0.86198369
0.99925414 0.67873152 0.80140900
1.00152684 0.71579289 0.63565151
1.00055999 0.54980756 0.51962097
1.00127611 0.33403100 0.48705217
1.00127611 0.25654244 0.48084026
1.00127611 0.25654244 0.48084026
1.00127611 0.25654244 0.48084026
1.00127611 0.25654244 0.48084026
1.00127611 0.25654244 0.48084026
1.00127611 0.25654244 0.48084026
1.00127611 0.25654244 0.48084026
1.00127611 0.25654244 0.48084026
1.00127611 0.25654244 0.48084026
1.00127611 0.25654244 0.48084026
1.00127611 0.25654244 0.48084026
1.00127611 0.25654244 0.48084026
1.00127611 0.25654244 0.48084026
1.00127611 0.25654244 0.48084026
0.00000000 0.00000000 0.00000000
0.00000000 0.00000000 0.00000000
0.00000000 0.00000000 0.00000000
0.00000000 0.00000000 0.00000000
0.25530203 0.00036375 0.09121554
0.45492485 0.00000000 0.20695192
0.51165122 0.01947861 0.05097741
0.58528080 0.01134622 0.07545970
0.66502314 0.03983904 0.05760766
0.81478056 0.07114348 0.07025728
0.89981514 0.08020100 0.25786116
0.97681529 0.10527224 0.38264358
1.00949747 0.32501472 0.41693982
1.01491917 0.27280884 0.59319956
1.00387570 0.25882171 0.67988901
0.99847900 0.37395935 0.63351882
1.00118954 0.44459278 0.54333451
1.00171202 0.37754685 0.49239320
1.00127611 0.28671707 0.48131538
1.00127611 0.25654244 0.48084026
1.00127611 0.25654244 0.48084026
1.00127611 0.25654244 0.48084026
1.00127611 0.25654244 0.48084026
1.00127611 0.25654244 0.48084026
1.00127611 0.25654244 0.48084026
1.00127611 0.25654244 0.48084026
1.00127611 0.25654244 0.48084026
1.00127611 0.25654244 0.48084026
1.00127611 0.25654244 0.48084026
1.00127611 0.25654244 0.48084026
1.00127611 0.25654244 0.48084026
1.00127611 0.25654244 0.48084026
1.00127611 0.25654244 0.48084026
0.00000000 0.00000000 0.00000000
0.00000000 0.00000000 0.00000000
0.00000000 0.00000000 0.00000000
0.00000000 0.00000000 0.00000000
0.14302583 0.00000000 0.02633084
0.26726174 0.00114264 0.13720801
0.35976414 0.01633527 0.03285359
0.44309380 0.01181196 0.03970866
0.52926328 0.03567615 0.03269145
0.69998476 0.05915088 0.04337936
0.84139275 0.06584521 0.16755350
0.91701729 0.08505903 0.26063999
1.00306593 0.22048369 0.29076863
1.00893656 0.17124223 0.45288531
1.00208415 0.16422642 0.55635423
0.99820615 0.25115192 0.54830592
0.99999852 0.32463695 0.50351898
1.00153959 0.30777413 0.48107732
1.00127611 0.26810484 0.47894015
1.00127611 0.25654244 0.48084026
1.00127611 0.25654244 0.48084026
1.00127611 0.25654244 0.48084026
1.00127611 0.25654244 0.48084026
1.00127611 0.25654244 0.48084026
1.00127611 0.25654244 0.48084026
1.00127611 0.25654244 0.48084026
1.00127611 0.25654244 0.48084026
1.00127611 0.25654244 0.48084026
1.00127611 0.25654244 0.48084026
1.00127611 0.25654244 0.48084026
1.00127611 0.25654244 0.48084026
1.00127611 0.25654244 0.48084026
1.00127611 0.25654244 0.48084026
0.00000000 0.00000000 0.00000000
0.00000000 0.00000000 0.00000000
0.00000000 0.00000000 0.00000000
0.00000000 0.00000000 0.00000000
0.06373974 0.06972095 0.00850567
0.15478307 0.00350656 0.06429488
0.25645045 0.01150476 0.02014182
0.35761421 0.01186039 0.02587782
0.44009234 0.02787014 0.02457398
0.58982859 0.03951874 0.03892988
0.76154165 0.04193620 0.11188951
0.86153253 0.04748699 0.17721622
0.98993545 0.09351317 0.22730419
1.00218358 0.10142530 0.35097496
1.00057482 0.11941435 0.46089727
1.00060753 0.17776116 0.49342631
0.99818227 0.24937775 0.48616658
1.00041809 0.27479947 0.48114354
1.00127611 0.26282945 0.48214190
1.00127611 0.25654244 0.48084026
1.00127611 0.25654244 0.48084026
1.00127611 0.25654244 0.48084026
1.00127611 0.25654244 0.48084026
1.00127611 0.25654244 0.48084026
1.00127611 0.25654244 0.48084026
1.00127611 0.25654244 0.48084026
1.00127611 0.25654244 0.48084026
1.00127611 0.25654244 0.48084026
1.00127611 0.25654244 0.48084026
1.00127611 0.25654244 0.48084026
1.00127611 0.25654244 0.48084026
1.00127611 0.25654244 0.48084026
1.00127611 0.25654244 0.48084026
0.00000000 0.00000000 0.00000000
0.00000000 0.00000000 0.00000000
0.00000000 0.00000000 0.00000000
0.00000000 0.00000000 0.00000000
0.51652546 0.03179694 0.00000000
0.04885977 0.00314734 0.00000000
0.18010427 0.00079117 0.01789981
0.31725139 0.01882030 0.02737487
0.37647783 0.03038440 0.03519530
0.49504407 0.01477554 0.05391150
0.63059621 0.00602800 0.07076675
0.74783879 0.02709934 0.05835833
0.85440614 0.02638945 0.15203226
0.98402131 0.03241548 0.28185354
1.00009467 0.06182963 0.38334211
1.00006067 0.11644674 0.42827659
1.00064049 0.19076205 0.45437641
1.00008812 0.24734487 0.48640033
0.99998647 0.26309207 0.50153295
1.00127611 0.25654244 0.48084026
1.00127611 0.25654244 0.48084026
1.00127611 0.25654244 0.48084026
1.00127611 0.25654244 0.48084026
1.00127611 0.25654244 0.48084026
1.00127611 0.25654244 0.48084026
1.00127611 0.25654244 0.48084026
1.00127611 0.25654244 0.48084026
1.00127611 0.25654244 0.48084026
1.00127611 0.25654244 0.48084026
1.00127611 0.25654244 0.48084026
1.00127611 0.25654244 0.48084026
1.00127611 0.25654244 0.48084026
1.00127611 0.25654244 0.48084026
0.02398729 0.17793330 0.61390651
0.00957166 0.06570336 0.09918179
0.00073541 0.03971755 0.02445376
0.00006678 0.02479363 0.00000000
0.00000000 0.00698120 0.01858998
0.08089235 0.00000000 0.00000000
0.13560312 0.00000000 0.01295053
0.20156077 0.00000000 0.00864552
0.26052072 0.00760128 0.01373209
0.38823165 0.00981585 0.05366993
0.49970783 0.01795890 0.04537748
0.65105954 0.00000000 0.13692578
0.78923665 0.00547499 0.20145803
0.88184773 0.02735810 0.22596207
0.96425146 0.04471482 0.29302351
1.00135606 0.07930019 0.39933928
1.00104831 0.14820296 0.47622415
0.99802814 0.23143882 0.49182513
0.99785464 0.28636462 0.48144012
1.00127611 0.28767194 0.49024813
1.00127611 0.25654244 0.48084026
1.00127611 0.25654244 0.48084026
1.00127611 0.25654244 0.48084026
1.00127611 0.25654244 0.48084026
1.00127611 0.25654244 0.48084026
1.00127611 0.25654244 0.48084026
1.00127611 0.25654244 0.48084026
1.00127611 0.25654244 0.48084026
1.00127611 0.25654244 0.48084026
1.00127611 0.25654244 0.48084026
1.00127611 0.25654244 0.48084026
1.00127611 0.25654244 0.48084026
1.00127611 0.25654244 0.48084026
0.04157088 0.37263822 0.16221360
0.00981264 0.15230944 0.03285729
0.00033386 0.09284514 0.00425068
0.00000000 0.06313253 0.00000000
0.00000000 0.01675744 0.07793477
0.00763321 0.00052739 0.00000000
0.11395050 0.00000000 0.00000000
0.20912481 0.00000000 0.00000000
0.23059339 0.00018339 0.00000000
0.29717434 0.00018204 0.04997683
0.37858087 0.00865576 0.06106385
0.54913987 0.00000000 0.12050417
0.69937056 0.00413575 0.15124605
0.81752041 0.02061924 0.15923285
0.94372114 0.03441711 0.22619410
0.99995521 0.05770008 0.32735760
1.00004218 0.09861159 0.42367739
1.00139033 0.16616366 0.48029303
1.00076503 0.23740582 0.48135725
1.00129854 0.27116467 0.48278377
1.00128811 0.25681057 0.48088999
1.00127646 0.25655027 0.48084171
1.00127611 0.25654244 0.48084026
1.00127611 0.25654244 0.48084026
1.00127611 0.25654244 0.48084026
1.00127611 0.25654244 0.48084026
1.00127611 0.25654244 0.48084026
1.00127611 0.25654244 0.48084026
1.00127611 0.25654244 0.48084026
1.00127611 0.25654244 0.48084026
1.00127611 0.25654244 0.48084026
1.00127611 0.25654244 0.48084026
1.00127611 0.25654244 0.48084026
0.01868206 0.37983899 0.03740361
0.01460582 0.19235844 0.01178936
0.01289635 0.13167187 0.00000000
0.00896924 0.09866758 0.00014139
0.00000000 0.05680982 0.00000000
0.00000000 0.02225780 0.00460815
0.02820078 0.02797651 0.00000000
0.13689887 0.01501820 0.00000000
0.20640684 0.00028415 0.00000000
0.25098001 0.00012990 0.01295091
0.33499769 0.02182761 0.03772734
0.50594588 0.01523567 0.13489068
0.63875099 0.00491645 0.12427020
0.76659239 0.00000000 0.13193771
0.87331409 0.01931668 0.17882960
0.96708026 0.05852593 0.26569943
1.00105740 0.09890574 0.38296171
1.00184300 0.12762165 0.48530176
1.00029358 0.18149469 0.51742794
1.00169897 0.25406161 0.48295382
1.00169320 0.27502371 0.48396656
1.00130842 0.25727390 0.48097594
1.00127611 0.25654244 0.48084026
1.00127611 0.25654244 0.48084026
1.00127611 0.25654244 0.48084026
1.00127611 0.25654244 0.48084026
1.00127611 0.25654244 0.48084026
1.00127611 0.25654244 0.48084026
1.00127611 0.25654244 0.48084026
1.00127611 0.25654244 0.48084026
1.00127611 0.25654244 0.48084026
1.00127611 0.25654244 0.48084026
1.00127611 0.25654244 0.48084026
0.03612866 0.34835895 0.02682316
0.02652057 0.19745469 0.00015748
0.02293213 0.14612065 0.00000000
0.01612300 0.11999015 0.00003730
0.00038372 0.09846995 0.00000000
0.00000000 0.04506242 0.03827872
0.00732648 0.03453247 0.00000000
0.06442300 0.02013041 0.00000000
0.21558179 0.00673815 0.07511927
0.24714127 0.01194520 0.00000000
0.32123042 0.02834488 0.09127560
0.46375909 0.02662321 0.13510816
0.58372583 0.01977887 0.09062799
0.71716968 0.00214228 0.12056636
0.82367567 0.01572218 0.16733235
0.94295617 0.04561919 0.24758345
1.00155372 0.07793853 0.36484042
1.00364876 0.09684997 0.47454199
0.99996416 0.14220805 0.52099031
1.00159698 0.23527633 0.49610485
1.00046494 0.29808977 0.48281451
1.00134691 0.25804476 0.48096362
1.00127611 0.25654244 0.48084026
1.00127611 0.25654244 0.48084026
1.00127611 0.25654244 0.48084026
1.00127611 0.25654244 0.48084026
1.00127611 0.25654244 0.48084026
1.00127611 0.25654244 0.48084026
1.00127611 0.25654244 0.48084026
1.00127611 0.25654244 0.48084026
1.00127611 0.25654244 0.48084026
1.00127611 0.25654244 0.48084026
1.00127611 0.25654244 0.48084026
0.04130971 0.37569797 0.00000000
0.02839639 0.21687159 0.00000000
0.02278590 0.16356850 0.00000000
0.01572530 0.14096675 0.00000000
0.00030025 0.12924606 0.00000000
0.00000000 0.08576634 0.00000000
0.00225286 0.05727484 0.00000000
0.03603997 0.05292590 0.00000000
0.15371814 0.04044662 0.00887870
0.26054777 0.03925544 0.00000000
0.29259720 0.03606711 0.40066386
0.39419754 0.03327739 0.19210737
0.52201014 0.03205070 0.07933849
0.65561764 0.03983430 0.07468211
0.78821019 0.04513140 0.13909825
0.91322121 0.05299875 0.24563821
0.99911655 0.06171264 0.34674751
1.00016845 0.07359603 0.44810851
0.99786704 0.10574210 0.51294643
0.99820673 0.19615023 0.49996378
1.00138624 0.28819028 0.47113048
0.99877696 0.26145956 0.48179119
0.99961140 0.25280396 0.48045964
1.00109779 0.25549448 0.48076251
1.00127611 0.25654244 0.48084026
1.00127611 0.25654244 0.48084026
1.00127611 0.25654244 0.48084026
1.00127611 0.25654244 0.48084026
1.00127611 0.25654244 0.48084026
1.00127611 0.25654244 0.48084026
1.00127611 0.25654244 0.48084026
1.00127611 0.25654244 0.48084026
1.00127611 0.25654244 0.48084026
0.03451474 0.52459066 0.00000000
0.01968770 0.32566831 0.00000000
0.01462558 0.25087945 0.00000000
0.00031377 0.20821518 0.00000000
0.00000000 0.19777015 0.00000000
0.00372759 0.15400977 0.00000000
0.01107024 0.10124569 0.00000000
0.02309065 0.09080824 0.00000000
0.05590285 0.08115893 0.00000000
0.22059502 0.06685584 0.00000000
0.26529442 0.04931311 0.00000000
0.35644796 0.05214625 0.00420185
0.47423694 0.06538945 0.23838425
0.60664335 0.06330723 0.04116339
0.74305376 0.06743494 0.09044806
0.87011948 0.07080106 0.21374958
0.96126350 0.07050098 0.31139904
1.00061417 0.07668368 0.41329214
0.99771937 0.10756222 0.49860187
0.99623697 0.17659336 0.51388450
0.98370706 0.25947997 0.46719964
0.98596456 0.27768526 0.48595696
0.99486660 0.24041510 0.47786136
0.99970857 0.25002906 0.48012018
1.00156266 0.25384343 0.48149200
1.00156203 0.25415784 0.48250294
1.00140535 0.25547319 0.48196140
1.00128140 0.25650226 0.48088274
1.00127611 0.25654244 0.48084026
1.00127611 0.25654244 0.48084026
1.00127611 0.25654244 0.48084026
1.00127611 0.25654244 0.48084026
1.00127611 0.25654244 0.48084026
0.35764428 0.61334316 0.00000000
0.06783438 0.40269327 0.00000000
0.02347718 0.31581495 0.00000000
0.00000000 0.26090378 0.00000000
0.00000000 0.24519434 0.00000000
0.03208096 0.20116592 0.08022416
0.00668811 0.16591820 0.00000000
0.01127037 0.14762445 0.00000000
0.02232579 0.12400447 0.00000000
0.08974024 0.10512574 0.00000000
0.22385314 0.08271144 0.00000000
0.31631445 0.10234481 0.00992685
0.42927385 0.10327259 0.05238094
0.55645945 0.09600528 0.02070679
0.69330399 0.10101426 0.57892686
0.82503248 0.10407983 0.52222068
0.95563705 0.10153242 0.25449864
1.00072909 0.10589619 0.36034871
1.00114421 0.12951654 0.44147623
0.97965823 0.17853459 0.48755150
0.98129853 0.24292560 0.46116992
0.99857841 0.29807648 0.48311897
1.00113405 0.25313768 0.47174353
1.00130881 0.24093847 0.48017489
1.00017288 0.23159041 0.48619600
1.00029462 0.23354134 0.49536406
1.00154498 0.24629406 0.49199436
1.00133407 0.25608676 0.48132187
1.00127611 0.25654244 0.48084026
1.00127611 0.25654244 0.48084026
1.00127611 0.25654244 0.48084026
1.00127611 0.25654244 0.48084026
1.00127611 0.25654244 0.48084026
0.06675119 0.71321742 0.00000000
0.02154510 0.49030998 0.00000000
0.00656965 0.38927256 0.00000000
0.00000000 0.32179582 0.00000000
0.00000000 0.30266787 0.00000000
0.00000000 0.26176182 0.12119167
0.02611678 0.23008054 0.00000000
0.01695974 0.20281864 0.00000000
0.00000000 0.18529211 0.00000000
0.03898865 0.15068121 0.00000000
0.20438123 0.12724524 0.00000000
0.30663394 0.13808665 0.47957032
0.40656859 0.15037952 0.28676773
0.52230410 0.13853758 0.00000000
0.66221749 0.13844894 0.11492787
0.79370286 0.14894966 0.60660150
0.90603855 0.15460549 0.47964478
0.99802062 0.16123521 0.22169984
1.00017766 0.18311602 0.35295460
0.99611658 0.21206128 0.46255385
0.99042472 0.24277868 0.47539519
1.00156082 0.29042894 0.46440385
1.00020744 0.29432409 0.47587152
1.00003857 0.26780328 0.48660242
0.99996673 0.24883577 0.50220125
0.99860002 0.24794119 0.50085460
0.99794432 0.25982117 0.48459619
0.99830370 0.25791144 0.47749162
0.99793502 0.23388855 0.49228407
0.99879328 0.22393264 0.50367648
1.00115236 0.25220095 0.48388776
1.00127254 0.25640893 0.48093414
1.00127611 0.25654244 0.48084026
0.02837036 0.80394922 0.00000000
0.00030387 0.59113409 0.00000000
0.00022866 0.48251686 0.00000000
0.00000000 0.41070937 0.00000000
0.00000000 0.39161444 0.00000000
0.00001363 0.35182811 0.00000000
0.01852248 0.30399244 0.00000000
0.01423858 0.27434111 0.00000000
0.05932517 0.25882443 0.17534108
0.08667614 0.22487912 0.00000000
0.05514092 0.20082431 0.00000000
0.26855451 0.19589094 0.52150127
0.39009761 0.19993824 0.39569003
0.48835518 0.18471505 0.06003293
0.60052278 0.18970861 0.05941718
0.73321154 0.20423506 0.24733573
0.86020854 0.21063729 0.65666955
0.95515019 0.21258501 0.68458233
0.99997318 0.22586165 0.32039092
0.99997290 0.24770157 0.44680045
1.00166925 0.26235337 0.48215156
1.00001004 0.28583747 0.44304633
1.00018472 0.32019763 0.48076582
0.99773779 0.29808716 0.47964412
1.00154494 0.28427271 0.48051214
0.99609757 0.28223187 0.47670697
0.98820235 0.27687650 0.47720581
0.99777562 0.26746124 0.48438869
0.99769132 0.25265673 0.49301168
1.00161623 0.23170245 0.50282386
1.00023273 0.24200540 0.50065317
0.99782489 0.23978725 0.49656147
0.99784131 0.26488627 0.47164666
0.00000000 0.85693257 0.10694917
0.00000000 0.69199245 0.04484366
0.00000000 0.58123420 0.02972114
0.00000000 0.50941657 0.00000000
0.00000000 0.50026037 0.03980801
0.00000000 0.44803506 0.00000000
0.00000000 0.38811225 0.00000000
0.00000000 0.35350818 0.00000000
0.06109154 0.32819700 0.00000000
0.01964921 0.30653987 0.00000000
0.01063205 0.29060436 0.51236297
0.07897024 0.27726413 0.70897441
0.32188685 0.26429410 0.07445577
0.44260308 0.24077763 0.00000000
0.54585600 0.23968712 0.00000000
0.67368329 0.25770624 0.00000000
0.81190375 0.26431424 0.00000000
0.91583729 0.26128296 0.16511987
1.00168251 0.26991411 0.78070399
1.00083577 0.28751004 0.44099596
1.00171215 0.29640321 0.43275488
0.99983805 0.30964511 0.39922688
1.00001544 0.34211752 0.45074193
0.99793917 0.33335320 0.44584933
1.00165038 0.31362901 0.44727100
1.00139205 0.30381715 0.45951638
1.00056538 0.29406514 0.46143098
1.00147295 0.28956449 0.46589981
0.99774640 0.28672512 0.47813092
1.00013628 0.26605966 0.47883674
0.99998253 0.25225273 0.48622131
1.00152789 0.24645311 0.49266317
0.99621351 0.26067543 0.47665933
0.00000000 0.91477769 0.91576297
0.00000000 0.79828059 0.83941208
0.00000000 0.67882229 0.78501820
0.00000000 0.59735844 0.31316441
0.00000000 0.59991927 0.51312691
0.00000000 0.54664086 0.04083373
0.00000000 0.48149930 0.00000000
0.00000000 0.44088314 0.00000000
0.01334385 0.40648480 0.00000000
0.00001604 0.39234657 0.00000000
0.00000000 0.38682335 0.70237437
0.00000000 0.36972298 0.20505661
0.11587167 0.34548775 0.01111204
0.37512410 0.31695258 0.00000000
0.50793552 0.30451921 0.00000000
0.63269446 0.30779502 0.00000000
0.77625520 0.31218624 0.00000000
0.88724725 0.30903388 0.00000000
0.98145502 0.31522197 0.28075184
1.00030086 0.33473423 0.81033301
0.99876513 0.34309300 0.39825770
0.99786669 0.34967411 0.36518402
1.00165432 0.36771732 0.39881571
1.00171155 0.36986973 0.40517992
1.00159730 0.34857349 0.41217640
1.00147673 0.32534295 0.43685349
1.00113686 0.31811012 0.43894296
1.00169748 0.31940378 0.43650194
0.99769829 0.31962945 0.44781292
1.00088444 0.30596738 0.43800820
1.00027984 0.27751735 0.46216815
1.00105474 0.27436565 0.47425423
0.99875860 0.27042470 0.47848780
0.04227181 1.00003540 0.83231507
0.04857202 0.91356777 0.68931504
0.05140950 0.83693229 0.60447892
0.05248862 0.71905874 0.36975562
0.00000000 0.67922883 0.48239294
0.00000000 0.64822669 0.12751678
0.00000000 0.58386514 0.00000000
0.00000000 0.54249532 0.00000000
0.00003552 0.50482501 0.00000000
0.00000000 0.49006883 0.00000000
0.00000000 0.48439315 0.40584891
0.00000000 0.46304694 0.10537351
0.00000000 0.43830742 0.06901661
0.24023590 0.40820704 0.00000000
0.50205975 0.38318901 0.00000000
0.60416917 0.37149169 0.00000000
0.74205776 0.36792496 0.00000000
0.85050651 0.36803660 0.00000000
0.93514867 0.37196936 0.04886457
1.00164279 0.38591201 0.75844048
0.99995520 0.39510825 0.78277218
0.99943953 0.39559835 0.35487334
1.00110816 0.39906287 0.35883561
1.00168922 0.40068683 0.38212416
1.00012775 0.38642946 0.38052433
0.99837219 0.36286171 0.39189453
1.00047192 0.35536598 0.40350935
1.00148218 0.35562222 0.40086159
0.99770988 0.34844200 0.40305533
0.98860233 0.34065131 0.39948581
0.99795654 0.31560779 0.43314862
1.00114948 0.30631888 0.44886682
1.00164111 0.29810665 0.46317093
0.44278726 1.00512903 0.00000000
0.39742884 0.99803400 0.00000000
0.37954428 0.93167045 0.00000000
0.36268280 0.88035317 0.00231678
0.01539315 0.80496038 0.38780630
0.00000000 0.72953140 0.02182823
0.00000000 0.68199333 0.00865321
0.00000000 0.63849847 0.03117950
0.00000000 0.60111092 0.00000000
0.00000000 0.59597540 0.00000000
0.00000000 0.58605368 0.29713359
0.00000000 0.55987284 0.35046423
0.00000000 0.53676503 0.16770674
0.08376425 0.50981095 0.09358329
0.41799606 0.47588726 0.01921866
0.61073574 0.45134836 0.00001101
0.69703598 0.44479557 0.00000000
0.80852600 0.44449475 0.00000000
0.89567818 0.44233697 0.16829522
0.99769140 0.44429499 0.21668895
1.00040087 0.45213518 0.69007733
1.00140588 0.45534439 0.68896422
0.99780572 0.44304622 0.37640285
0.99775349 0.43377784 0.37722354
0.99648637 0.42369487 0.37428815
0.99380077 0.41429392 0.35066674
0.99772291 0.40453661 0.35687255
0.99982138 0.39345047 0.36145547
0.99784774 0.37915188 0.35541956
0.98157783 0.37179325 0.37248699
1.00113116 0.35907117 0.39945501
1.00112724 0.34469109 0.41318968
1.00168239 0.33211973 0.43116410
0.14628824 1.00312422 0.00000000
0.14422857 0.99997208 0.00000000
0.14338462 0.99038340 0.00000000
0.18108973 0.96954173 0.00000000
0.01284460 0.89622075 0.21810798
0.00000000 0.82967317 0.00000000
0.00000000 0.80947573 0.00000000
0.00000000 0.74914058 0.01437425
0.00000000 0.69138271 0.00000000
0.00000000 0.69513827 0.04092002
0.00000000 0.68279172 0.24739918
0.00000000 0.65375717 0.29177973
0.00000000 0.63531498 0.06335289
0.00000000 0.61086862 0.07733567
0.24956771 0.58027344 0.00000000
0.53976273 0.55064610 0.00000000
0.66421612 0.53413218 0.00000000
0.76437549 0.52978611 0.00061506
0.86151533 0.52106336 0.03846102
0.96627309 0.51126855 0.03938058
1.00025272 0.51548847 0.00064075
1.00038766 0.53025206 0.81148022
1.00010316 0.50452028 0.62389496
1.00051997 0.48203307 0.41174366
0.99581777 0.47157976 0.37915373
0.99475674 0.47000215 0.33323581
0.99884724 0.45609632 0.31765538
0.99985509 0.43436025 0.32117640
0.99405642 0.42167932 0.31244676
0.99613870 0.41037460 0.34068304
1.00001745 0.39523393 0.36592696
1.00120188 0.39445408 0.36866678
1.00051990 0.36593417 0.38643473
0.00000000 1.00127611 0.00000000
0.00000000 1.00127611 0.00000000
0.00000000 1.00127611 0.00000000
0.00000000 1.00127611 0.00000000
0.00000000 0.95607887 0.01117405
0.00000000 0.92871607 0.00000000
0.00000000 0.90616214 0.00000000
0.00000000 0.86004494 0.00000000
0.00000000 0.82779666 0.00000000
0.00000000 0.80797374 0.04890080
0.00000000 0.77843560 0.27462337
0.00000000 0.73683977 0.36813069
0.00000000 0.71715886 0.01077680
0.00000000 0.69413520 0.00000000
0.03311712 0.68029043 0.00000000
0.32518492 0.65586156 0.00000000
0.61485655 0.62787374 0.00000000
0.72488258 0.60789223 0.00000000
0.82312503 0.59404388 0.00000000
0.90933146 0.58114100 0.00000000
1.00021339 0.58415857 0.00000000
1.00234786 0.60127283 0.03811901
1.00043561 0.58307913 0.84465536
0.99994464 0.55326018 0.37689335
1.00135863 0.53622615 0.27251076
0.99784968 0.52372600 0.33316757
0.99772838 0.50057319 0.28716746
0.99793336 0.47607245 0.28244394
0.99750096 0.47109858 0.28341072
1.00080150 0.46561731 0.28945828
1.00065245 0.43182540 0.32301415
1.00115845 0.43689700 0.31906287
0.99788410 0.40344288 0.33082239
0.00000000 1.00127611 0.00000000
0.00000000 1.00127611 0.00000000
0.00000000 1.00127611 0.00000000
0.00000000 1.00127611 0.00000000
0.00000000 1.00127611 0.00000000
0.00000000 1.00022365 0.00001519
0.00063594 0.97926858 0.00000000
0.00775031 0.93758021 0.00000000
0.00000000 0.93196196 0.00000000
0.00000000 0.90950425 0.00000000
0.00000000 0.87628079 0.08852665
0.00000000 0.83109811 0.70504064
0.00000000 0.78145035 0.00047500
0.00000000 0.77024934 0.00000000
0.00003760 0.76188571 0.00000000
0.10571379 0.74148974 0.00000000
0.52156923 0.71722562 0.00000000
0.67537965 0.68623124 0.00000000
0.77715027 0.65581042 0.00000000
0.86798809 0.65505344 0.00000000
0.97983950 0.65444334 0.00000000
1.00188078 0.64392026 0.07969272
0.99993928 0.65604727 0.13256379
1.00108904 0.62833235 0.00000000
0.99995887 0.60623035 0.09577713
1.00031165 0.57811098 0.28173320
0.98654434 0.55278714 0.20975188
0.99746887 0.53135165 0.20148238
1.00137615 0.51173409 0.24454308
0.99771821 0.50593754 0.25107887
0.99656339 0.47982807 0.26587591
1.00139657 0.46291606 0.26522733
1.00091780 0.45241984 0.28144088
0.00000000 1.00127611 0.00000000
0.00000000 1.00127611 0.00000000
0.00000000 1.00127611 0.00000000
0.00000000 1.00127611 0.00000000
0.00000000 1.00127611 0.00000000
0.00000000 1.00125686 0.00000000
0.00000000 1.00104528 0.00000000
0.00000000 1.00063464 0.00003658
0.00000000 1.00054199 0.00000398
0.00000000 0.99647150 0.00000000
0.00000000 0.94034205 0.00000000
0.00000000 0.93739879 0.49135206
0.00000000 0.92223926 0.06077265
0.00000000 0.90986443 0.38674654
0.03475364 0.88423350 0.00000000
0.09154084 0.84999439 0.00000000
0.25285273 0.81414784 0.00000000
0.54334582 0.77314336 0.00000000
0.69022222 0.72264706 0.00000000
0.81349324 0.68622597 0.00000000
0.90794097 0.70049589 0.00000000
1.00019220 0.70213252 0.39948731
1.00189902 0.68926475 0.00002717
1.00036957 0.66126145 0.00000000
0.99775850 0.66736518 0.00000000
0.99396202 0.64850905 0.00000000
0.98118067 0.61148850 0.02949879
