LUT/REALA-ACE.cube
TITLE "REALA-ACE"
LUT_3D_SIZE 5
# Apple Log/Rec2020 -> LA - :FLog2C_to_REALA-ACE/LA - :FLog2C_to_REALA-ACE, CineEI Shift 0.00, Black Level -0.01% IRE, Input 109% -> Output 100% - Created with LUTCalc v4.09 by Ben Turley February 2025
0.00000000 0.00000000 0.00000000
0.97556609 0.19575074 0.12023844
0.98924164 0.71672568 0.67717700
0.94092114 0.32875546 0.47522898
0.94092114 0.32875546 0.47522898
0.00000000 0.35832489 0.00000000
0.16153798 0.01349918 0.00000000
0.90487099 0.18210057 0.32774234
0.94092114 0.32875546 0.47522898
0.94092114 0.32875546 0.47522898
0.85674151 0.96682889 0.85204862
0.15597618 0.48565681 0.11009332
0.70203583 0.36354176 0.10730028
0.97177522 0.43817195 0.41702052
0.93594182 0.34837316 0.45133701
0.66534701 0.92999431 0.59568840
0.66534701 0.92999431 0.59568840
0.66534701 0.92999431 0.59568840
0.99029500 0.83884962 0.00000000
0.94610315 0.72322424 0.00000000
0.66534701 0.92999431 0.59568840
0.66534701 0.92999431 0.59568840
0.66534701 0.92999431 0.59568840
0.71679295 0.93997441 0.58909793
0.99840338 0.98392014 0.40371516
0.26631230 0.00000000 0.00031441
0.91637391 0.00000000 0.00000000
0.97923340 0.67115412 0.75226908
0.94092114 0.32875546 0.47522898
0.94092114 0.32875546 0.47522898
0.03378378 0.39366466 0.52745093
0.07101590 0.07101590 0.07101590
0.81932107 0.05267058 0.15789655
0.94092114 0.32875546 0.47522898
0.94092114 0.32875546 0.47522898
0.85564500 0.99698017 0.84496678
0.26576414 0.63192128 0.20711105
0.48686333 0.45284938 0.00000000
0.97904870 0.50983249 0.32666493
0.95918733 0.40865585 0.40232279
0.66534701 0.92999431 0.59568840
0.66534701 0.92999431 0.59568840
0.66534701 0.92999431 0.59568840
0.98919491 0.92386445 0.01521717
0.98316841 0.78679107 0.00000000
0.65750321 0.92932563 0.66768231
0.66534701 0.92999431 0.59568840
0.66534701 0.92999431 0.59568840
0.66979141 0.93069594 0.59555870
0.99698791 0.98543105 0.42377882
0.00000000 0.07128984 0.42947784
0.86583965 0.00001337 0.03419928
0.99025758 0.39188509 0.40654208
0.92848323 0.29442214 0.33836116
0.94092114 0.32875546 0.47522898
0.84366005 0.43505530 0.84394154
0.02662973 0.00117460 0.48564696
0.79059362 0.06836254 0.47359253
0.94432046 0.35279749 0.58441562
0.94146974 0.33069340 0.48653758
0.79439987 0.94009119 0.94181208
0.17828156 0.64867387 0.63214708
0.49158119 0.49158119 0.49158119
0.98256530 0.53977439 0.62854578
0.96560186 0.44280884 0.54547663
0.64962869 0.94558943 0.87558739
0.65901018 0.93207084 0.65976856
0.66279582 0.93089002 0.61870942
0.98875638 0.97095590 0.39984446
0.99888643 0.79860328 0.35963784
0.65309525 0.91579301 0.99781202
0.65296822 0.93624755 0.77363793
0.66425086 0.93011845 0.60588317
0.66622329 0.93011881 0.59585779
0.99698093 0.98564392 0.42487759
0.05386120 0.00000000 0.66748033
0.75674633 0.09843471 0.50025490
0.88585943 0.30361379 0.58088274
0.99292321 0.31799121 0.41806710
0.93874620 0.28326969 0.34110451
0.20196487 0.08122413 0.72960445
0.15669904 0.03293458 0.70043412
0.76026739 0.32431891 0.81808375
0.87808647 0.38666175 0.75446327
0.91665864 0.37273382 0.67206613
0.27134169 0.68828569 0.85724569
0.20205874 0.53941351 0.84101820
0.50784191 0.44184289 0.86327026
0.90554642 0.55164206 0.85349373
0.92294140 0.49102674 0.75952746
0.64874623 0.92902894 0.92019445
0.64552844 0.92635607 0.92050279
0.60774701 0.90311213 0.90501924
0.89820152 0.89820152 0.89820152
0.99944245 0.78394485 0.80770840
0.64906246 0.92946551 0.91998085
0.64906246 0.92946551 0.91998085
0.65086761 0.93142893 0.90470254
0.65252162 0.93710275 0.79824340
0.99654942 0.99136467 0.64896101
0.07860133 0.02348100 0.67662149
0.89697495 0.57552893 0.84752525
0.84175648 0.37200461 0.82716507
0.88205909 0.44804151 0.80871092
0.94202748 0.35264439 0.52438662
0.19295421 0.07066701 0.72430984
0.14122045 0.03357298 0.70073802
0.76971087 0.33029684 0.82023024
0.84194179 0.37243809 0.82728665
0.84929734 0.39199291 0.82927044
0.31413770 0.87895441 0.88974739
0.18673574 0.20880542 0.77906516
0.42562711 0.19146562 0.78279816
0.85000364 0.39982002 0.83527790
0.85931707 0.43336673 0.84571318
0.64916793 0.92960968 0.91990990
0.62557833 0.91445100 0.91586241
0.43265798 0.79851861 0.86696524
0.77076867 0.74331054 0.95700145
0.93846080 0.72447665 0.93517273
0.64906246 0.92946551 0.91998085
0.64906246 0.92946551 0.91998085
0.64906246 0.92946551 0.91998085
0.64798307 0.92768265 0.92218630
0.99780727 0.99785017 0.99783603
