LUT/REALA-ACE.cube
TITLE "REALA-ACE"
LUT_3D_SIZE 9
# Apple Log/Rec2020 -> LA - :FLog2C_to_REALA-ACE/LA - :FLog2C_to_REALA-ACE, CineEI Shift 0.00, Black Level -0.01% IRE, Input 109% -> Output 100% - Created with LUTCalc v4.09 by Ben Turley February 2025
0.00000000 0.00000000 0.00000000
0.34261320 0.02640536 0.00000000
0.97556609 0.19575074 0.12023844
0.99819561 0.96073144 0.87556940
0.98924164 0.71672568 0.67717700
0.94092114 0.32875546 0.47522898
0.94092114 0.32875546 0.47522898
0.94092114 0.32875546 0.47522898
0.94092114 0.32875546 0.47522898
0.00000000 0.00000000 0.00000000
0.06904041 0.07884832 0.11365738
0.41327563 0.00000000 0.01058615
0.78519647 0.00000000 0.07625468
0.93274596 0.27419466 0.47197809
0.94092114 0.32875546 0.47522898
0.94092114 0.32875546 0.47522898
0.94092114 0.32875546 0.47522898
0.94092114 0.32875546 0.47522898
0.00000000 0.35832489 0.00000000
0.00000000 0.09219054 0.00000000
0.16153798 0.01349918 0.00000000
0.56073382 0.00050548 0.01021735
0.90487099 0.18210057 0.32774234
0.95598969 0.36773103 0.48546529
0.94092114 0.32875546 0.47522898
0.94092114 0.32875546 0.47522898
0.94092114 0.32875546 0.47522898
0.40771954 0.72357460 0.31643408
0.03479458 0.32791222 0.02229973
0.00021624 0.21898775 0.12997091
0.47518201 0.15563566 0.33745854
0.83647357 0.16061396 0.56025692
0.94018677 0.31282828 0.48186730
0.93426999 0.31733731 0.46640791
0.93269051 0.32950251 0.49916445
0.94092114 0.32875546 0.47522898
0.85674151 0.96682889 0.85204862
0.28297801 0.63336923 0.22283822
0.15597618 0.48565681 0.11009332
0.16952905 0.43300864 0.06598026
0.70203583 0.36354176 0.10730028
0.96482111 0.41832587 0.16885335
0.97177522 0.43817195 0.41702052
0.95930361 0.39272260 0.43185330
0.93594182 0.34837316 0.45133701
0.66534701 0.92999431 0.59568840
0.66534701 0.92999431 0.59568840
0.60002757 0.89415326 0.53240420
0.46476863 0.77349624 0.39725007
0.47968784 0.72891091 0.22221094
0.97833991 0.65621624 0.00000000
0.98258432 0.62676250 0.50922711
0.99315170 0.59672125 0.29093742
0.97748751 0.50317149 0.31820649
0.66534701 0.92999431 0.59568840
0.66534701 0.92999431 0.59568840
0.66534701 0.92999431 0.59568840
0.66534701 0.92999431 0.59568840
0.66534701 0.92999431 0.59568840
0.85296203 0.94673222 0.44699387
0.99029500 0.83884962 0.00000000
0.98035829 0.74601038 0.00184202
0.94610315 0.72322424 0.00000000
0.66534701 0.92999431 0.59568840
0.66534701 0.92999431 0.59568840
0.66534701 0.92999431 0.59568840
0.66534701 0.92999431 0.59568840
0.66534701 0.92999431 0.59568840
0.67557770 0.93243111 0.59309014
0.97499825 0.98297253 0.47760906
0.99875628 0.90611442 0.00000000
0.98420910 0.84855847 0.06134042
0.66534701 0.92999431 0.59568840
0.66534701 0.92999431 0.59568840
0.66534701 0.92999431 0.59568840
0.66534701 0.92999431 0.59568840
0.66534701 0.92999431 0.59568840
0.66534701 0.92999431 0.59568840
0.71679295 0.93997441 0.58909793
0.99867110 0.98081522 0.37201915
0.99840338 0.98392014 0.40371516
0.00000000 0.00000000 0.00000000
0.11765805 0.07701047 0.08033785
0.95275832 0.00000000 0.13480700
0.99426206 0.87043008 0.83919301
0.97952738 0.66599166 0.67854697
0.94092114 0.32875546 0.47522898
0.94092114 0.32875546 0.47522898
0.94092114 0.32875546 0.47522898
0.94092114 0.32875546 0.47522898
0.00000000 0.00000000 0.00000000
0.00000000 0.00000000 0.00000000
0.20497618 0.00000000 0.00677039
0.66949403 0.00000000 0.06381415
0.91669353 0.21611921 0.40346101
0.94092114 0.32875546 0.47522898
0.94092114 0.32875546 0.47522898
0.94092114 0.32875546 0.47522898
0.94092114 0.32875546 0.47522898
0.01007329 0.65305505 0.06967836
0.00000000 0.10768761 0.00000000
0.06322275 0.05215557 0.00000000
0.42245045 0.01437566 0.00012339
0.84739850 0.08308947 0.18366964
0.93624536 0.30450375 0.46403860
0.94092114 0.32875546 0.47522898
0.94092114 0.32875546 0.47522898
0.94092114 0.32875546 0.47522898
0.55694570 0.79311493 0.46242226
0.07535430 0.37926598 0.04117085
0.00272498 0.26752128 0.00058222
0.26853772 0.21818574 0.00000000
0.71519439 0.16952283 0.00020184
0.93546520 0.30233840 0.34522065
0.94739686 0.35498532 0.45063298
0.94265434 0.33483313 0.47051433
0.94092114 0.32875546 0.47522898
0.88854222 0.99916635 0.87993524
0.39734759 0.75733426 0.33205617
0.22495838 0.58847003 0.17221387
0.16640139 0.49523730 0.10989370
0.52737619 0.43271517 0.00000000
0.95695975 0.47481809 0.07964580
0.97405132 0.49458634 0.31413600
0.96631519 0.43953161 0.37127476
0.95670408 0.39692413 0.41319209
0.66534701 0.92999431 0.59568840
0.66534701 0.92999431 0.59568840
0.66066555 0.92687925 0.59115373
0.56742458 0.86787433 0.49592425
0.48213673 0.78942037 0.35412955
0.86237114 0.73369616 0.00000986
0.98117595 0.70471773 0.00000000
0.98215221 0.62116676 0.09805484
0.98165543 0.56067808 0.22008220
0.66534701 0.92999431 0.59568840
0.66534701 0.92999431 0.59568840
0.66534701 0.92999431 0.59568840
0.66534701 0.92999431 0.59568840
0.66534701 0.92999431 0.59568840
0.76685814 0.93903725 0.56528319
0.98808343 0.91018978 0.00006935
0.98361687 0.80902590 0.00000000
0.98288283 0.75962528 0.00000000
0.66534701 0.92999431 0.59568840
0.66534701 0.92999431 0.59568840
0.66534701 0.92999431 0.59568840
0.66534701 0.92999431 0.59568840
0.66534701 0.92999431 0.59568840
0.66541515 0.92999660 0.59569080
0.88690483 0.96727994 0.55837132
0.99826923 0.96585739 0.25065983
0.98938745 0.91133669 0.00052983
0.66534701 0.92999431 0.59568840
0.66534701 0.92999431 0.59568840
0.66534701 0.92999431 0.59568840
0.66534701 0.92999431 0.59568840
0.66534701 0.92999431 0.59568840
0.66534701 0.92999431 0.59568840
0.67840135 0.93207941 0.59563072
0.96004027 0.98128818 0.50155434
0.99699402 0.98530301 0.42312897
0.26631230 0.00000000 0.00031441
0.07034769 0.00000000 0.00000000
0.91637391 0.00000000 0.00000000
0.97347494 0.01612523 0.60747090
0.97923340 0.67115412 0.75226908
0.94092114 0.32875546 0.47522898
0.94092114 0.32875546 0.47522898
0.94092114 0.32875546 0.47522898
0.94092114 0.32875546 0.47522898
0.00000000 0.00000000 0.37165285
0.00001723 0.00000000 0.04285192
0.17139994 0.00000000 0.02053363
0.62259960 0.00000000 0.04629294
0.91391169 0.20277912 0.37888580
0.94092114 0.32875546 0.47522898
0.94092114 0.32875546 0.47522898
0.94092114 0.32875546 0.47522898
0.94092114 0.32875546 0.47522898
0.03378378 0.39366466 0.52745093
0.00000000 0.12015839 0.11523873
0.07101590 0.07101590 0.07101590
0.38892165 0.01622274 0.05038181
0.81932107 0.05267058 0.15789655
0.93253285 0.28609893 0.45332590
0.94092114 0.32875546 0.47522898
0.94092114 0.32875546 0.47522898
0.94092114 0.32875546 0.47522898
0.47121445 0.80908255 0.72425486
0.07053421 0.40434854 0.10573305
0.00112235 0.27932571 0.01259917
0.23206668 0.22512597 0.00679328
0.68337391 0.17059774 0.02577373
0.93487597 0.30079314 0.33488569
0.94948311 0.36459381 0.44298132
0.94358199 0.33859856 0.46700619
0.94091705 0.32877089 0.47523912
0.85564500 0.99698017 0.84496678
0.46937899 0.81536897 0.39616854
0.26576414 0.63192128 0.20711105
0.17943916 0.52334123 0.12890632
0.48686333 0.45284938 0.00000000
0.94696259 0.47567503 0.08409587
0.97904870 0.50983249 0.32666493
0.96937370 0.45669444 0.35653820
0.95918733 0.40865585 0.40232279
0.66534701 0.92999431 0.59568840
0.66534701 0.92999431 0.59568840
0.66534701 0.92999431 0.59568840
0.60852993 0.89476328 0.53556930
0.51062543 0.82270281 0.40981640
0.82609174 0.75478868 0.00000000
0.98255796 0.73288400 0.00606629
0.98397653 0.63938002 0.12981794
0.98224066 0.57828846 0.19080443
0.66534701 0.92999431 0.59568840
0.66534701 0.92999431 0.59568840
0.66534701 0.92999431 0.59568840
0.66534701 0.92999431 0.59568840
0.66534701 0.92999431 0.59568840
0.73521480 0.93798390 0.58331508
0.98919491 0.92386445 0.01521717
0.98578609 0.83295815 0.00000000
0.98316841 0.78679107 0.00000000
0.66534701 0.92999431 0.59568840
0.66534701 0.92999431 0.59568840
0.66534701 0.92999431 0.59568840
0.66534701 0.92999431 0.59568840
0.66534701 0.92999431 0.59568840
0.66534701 0.92999431 0.59568840
0.85562011 0.96010599 0.57359015
0.99704876 0.97631349 0.34077815
0.99012185 0.92215965 0.00570658
0.65750321 0.92932563 0.66768231
0.66531105 0.92991868 0.59630558
0.66534701 0.92999431 0.59568840
0.66534701 0.92999431 0.59568840
0.66534701 0.92999431 0.59568840
0.66534701 0.92999431 0.59568840
0.66979141 0.93069594 0.59555870
0.93052552 0.97459648 0.53005036
0.99698791 0.98543105 0.42377882
0.00000000 0.05065637 0.12010501
0.00000000 0.00000000 0.00000000
0.86237144 0.05580982 0.00000061
0.95486135 0.00000000 0.04504865
0.97272614 0.61830991 0.54464030
0.94092114 0.32875546 0.47522898
0.94092114 0.32875546 0.47522898
0.94092114 0.32875546 0.47522898
0.94092114 0.32875546 0.47522898
0.01200452 0.08377212 0.84638034
0.00000963 0.00000947 0.21976897
0.20846348 0.00000000 0.14989599
0.60139596 0.00000436 0.14923675
0.90923829 0.18714922 0.38622819
0.94092114 0.32875546 0.47522898
0.94092114 0.32875546 0.47522898
0.94092114 0.32875546 0.47522898
0.94092114 0.32875546 0.47522898
0.00000000 0.35894690 0.78957698
0.00000000 0.08194719 0.33996228
0.03939043 0.03317836 0.23907355
0.38048067 0.01144121 0.21899952
0.80516845 0.02736047 0.28209217
0.93117853 0.28152855 0.50810266
0.94138710 0.33086301 0.48651533
0.94092114 0.32875546 0.47522898
0.94092114 0.32875546 0.47522898
0.01279888 0.82118086 0.83542642
0.00000000 0.36874727 0.36621201
0.00001258 0.25948363 0.23835639
0.22912907 0.22912907 0.22912907
0.66480390 0.15797694 0.21818730
0.93471124 0.29540068 0.46054824
0.95306457 0.38386693 0.50833560
0.94562315 0.34662116 0.48249679
0.94093729 0.32880440 0.47516952
0.83496304 0.99736528 0.90424687
0.46802322 0.82803934 0.57668627
0.26811787 0.66406047 0.33257493
0.16593353 0.54450295 0.20921015
0.47524923 0.46753720 0.11387661
0.95220581 0.47689425 0.26903717
0.98224738 0.52153158 0.46719619
0.97191236 0.47148155 0.44430015
0.96144687 0.41938528 0.42131428
0.65078278 0.93558774 0.74064163
0.66165407 0.93084954 0.62718890
0.66422289 0.93025000 0.60446609
0.62697011 0.90601107 0.55711647
0.53684114 0.84340986 0.44594373
0.80680313 0.78969369 0.00864477
0.99405595 0.74055368 0.23068832
0.99778097 0.65263225 0.33355458
0.98997599 0.59293102 0.31829438
0.66208999 0.93079335 0.60216480
0.66534701 0.92999431 0.59568840
0.66534701 0.92999431 0.59568840
0.66534701 0.92999431 0.59568840
0.66534701 0.92999431 0.59568840
0.71836531 0.93722264 0.59142559
0.99214206 0.93896334 0.07989533
0.98982298 0.85839964 0.06053732
0.98766738 0.80069716 0.06278965
0.63420818 0.94215652 0.85040674
0.66340827 0.93084173 0.60909514
0.66534701 0.92999431 0.59568840
0.66534701 0.92999431 0.59568840
0.66534701 0.92999431 0.59568840
0.66534701 0.92999431 0.59568840
0.82598439 0.95497255 0.58127528
0.99846916 0.98015094 0.36677373
0.99028289 0.92746792 0.00320973
0.63306025 0.94681200 0.91360625
0.65541115 0.93421297 0.71167155
0.66411945 0.93028239 0.60872133
0.66534701 0.92999431 0.59568840
0.66534701 0.92999431 0.59568840
0.66534701 0.92999431 0.59568840
0.66694547 0.93009725 0.59569568
0.90607683 0.97047919 0.54600862
0.99697816 0.98555205 0.42444636
0.00000000 0.07128984 0.42947784
0.09246199 0.00000000 0.03875224
0.86583965 0.00001337 0.03419928
0.94598041 0.00000000 0.08926676
0.99025758 0.39188509 0.40654208
0.93167581 0.26300370 0.31622300
0.92848323 0.29442214 0.33836116
0.94085813 0.32872677 0.47370203
0.94092114 0.32875546 0.47522898
0.00000000 0.00000000 0.84529857
0.00001931 0.00000000 0.47040414
0.21697114 0.00000000 0.35686135
0.59373389 0.00000000 0.33719796
0.90147035 0.19508694 0.51417110
0.94431516 0.34498256 0.55120020
0.94212876 0.33353370 0.50087874
0.94093518 0.32888439 0.47633663
0.94092114 0.32875546 0.47522898
0.84366005 0.43505530 0.84394154
0.00036077 0.03902493 0.62153032
0.02662973 0.00117460 0.48564696
0.37624646 0.00048888 0.44391698
0.79059362 0.06836254 0.47359253
0.91290528 0.30040416 0.61820770
0.94432046 0.35279749 0.58441562
0.94383486 0.34001462 0.52972351
0.94146974 0.33069340 0.48653758
0.91154532 0.85292915 0.93773398
0.00968570 0.35014947 0.70317039
0.00000000 0.21059513 0.53070560
0.18179294 0.17398117 0.48546680
0.65862260 0.15047115 0.47348578
0.91508216 0.31970987 0.62769021
0.95592250 0.41952173 0.62353619
0.95048357 0.37566891 0.58348656
0.94451320 0.34388937 0.53684407
0.79439987 0.94009119 0.94181208
0.41018711 0.78820067 0.78446920
0.17828156 0.64867387 0.63214708
0.03224213 0.52450013 0.50269112
0.49158119 0.49158119 0.49158119
0.95093499 0.47178382 0.54160464
0.98256530 0.53977439 0.62854578
0.97492460 0.49709194 0.58968273
0.96560186 0.44280884 0.54547663
0.66804663 0.93931807 0.87833093
0.65170086 0.93645364 0.81456572
0.64262492 0.93126521 0.77387670
0.60352663 0.90501707 0.70652854
0.51733834 0.84610926 0.59983805
0.80017380 0.79719775 0.40077522
0.99918978 0.73950010 0.52577480
0.99916948 0.65927826 0.53953467
0.99736520 0.60426138 0.50290588
0.64962869 0.94558943 0.87558739
0.65626760 0.93342064 0.69943921
0.65901018 0.93207084 0.65976856
0.66093779 0.93106143 0.63622785
0.66279582 0.93089002 0.61870942
0.69859755 0.93555156 0.60870900
0.98875638 0.97095590 0.39984446
0.99868111 0.85233482 0.37990449
0.99888643 0.79860328 0.35963784
0.65365295 0.93163224 0.97174929
0.65274011 0.93598955 0.78564884
0.65908479 0.93215934 0.65725908
0.66430975 0.93030185 0.60353599
0.66534701 0.92999431 0.59568840
0.66528976 0.92999539 0.59582665
0.79161386 0.94995826 0.58693534
0.99711725 0.98813688 0.44078862
0.99743567 0.96953859 0.28406802
0.65309525 0.91579301 0.99781202
0.65272184 0.93511514 0.86914202
0.65296822 0.93624755 0.77363793
0.65757435 0.93291324 0.68186910
0.66425086 0.93011845 0.60588317
0.66532524 0.93003242 0.59601572
0.66622329 0.93011881 0.59585779
0.87933641 0.96614461 0.56243828
0.99698093 0.98564392 0.42487759
0.74956944 0.93666365 0.66144682
0.00000000 0.00000000 0.35567440
0.89938467 0.00000000 0.25210019
0.94110825 0.02250632 0.31795733
0.95939804 0.27062505 0.42017346
0.99772356 0.32401655 0.42474064
0.95221387 0.29383796 0.34589036
0.92500736 0.26743840 0.29919394
0.93130738 0.30130714 0.35779086
0.33545563 0.06976011 0.74754211
0.06426445 0.00117751 0.66262813
0.19284155 0.00041479 0.58062784
0.59167402 0.07377765 0.56367313
0.86824471 0.28166038 0.67561519
0.92897748 0.36729104 0.64540184
0.94417522 0.35899415 0.60466180
0.94420991 0.34484748 0.55067635
0.94184891 0.33220510 0.49828321
0.31759737 0.42007073 0.82082126
0.14103857 0.05225941 0.70865072
0.11030794 0.00827092 0.67178536
0.37737719 0.08142094 0.65528330
0.75378646 0.23580463 0.69030614
0.86916125 0.34146774 0.73287953
0.91668919 0.37279934 0.67184370
0.93646508 0.36320528 0.62746549
0.94427479 0.35334331 0.58551329
0.22123277 0.79747762 0.87011711
0.16313113 0.35810392 0.82093318
0.15180799 0.21624802 0.76750891
0.22782822 0.15180145 0.71088671
0.64004504 0.23505728 0.71438223
0.86577019 0.38120597 0.77868783
0.92430203 0.43686003 0.71266791
0.92972317 0.40181428 0.67457734
0.93531858 0.37050313 0.63473382
0.57888275 0.83544654 0.86888726
0.32010478 0.72144424 0.85924010
0.23231407 0.62509356 0.84897054
0.12455790 0.51498589 0.80171891
0.46825283 0.45763902 0.80151227
0.89924724 0.51294808 0.79425277
0.95881804 0.55940565 0.75960920
0.96720771 0.52505944 0.71127021
0.96549301 0.48150048 0.67069844
0.69035144 0.96205949 0.95289024
0.59438597 0.89366057 0.90551099
0.55863605 0.87309064 0.87481224
0.52582598 0.85430769 0.84315792
0.45748163 0.81137033 0.79069406
0.78550886 0.78550886 0.78550886
0.99917449 0.72954898 0.77408965
0.99759954 0.67052969 0.71891728
0.99797700 0.61878477 0.67824920
0.65110922 0.92250175 0.98778344
0.65295550 0.93525934 0.85689576
0.65227274 0.93607062 0.83349082
0.65247114 0.93665690 0.81889772
0.65210366 0.93640335 0.80258896
0.66948819 0.93749077 0.77966018
0.94521250 0.93942870 0.64312410
0.99941826 0.83983463 0.65496430
0.99917747 0.78764451 0.61711115
0.61140501 0.90054551 0.98064466
0.65142811 0.93192674 0.90567589
0.65252084 0.93572162 0.83480249
0.65327611 0.93546658 0.75855244
0.65638051 0.93299634 0.68910375
0.65769693 0.93240339 0.67143811
0.75619551 0.94808512 0.67630370
0.99632425 0.99000383 0.57047037
0.99924684 0.95376856 0.49235454
0.64906246 0.92946551 0.91998085
0.64906246 0.92946551 0.91998085
0.65136245 0.93176294 0.90137498
0.65268696 0.93574982 0.85259430
0.65314837 0.93654493 0.78043907
0.65660227 0.93318629 0.69076103
0.66395868 0.93135759 0.63627924
0.85556534 0.96103536 0.58274757
0.99801003 0.98814628 0.45454870
0.05386120 0.00000000 0.66748033
0.06084433 0.00000000 0.65045811
0.75674633 0.09843471 0.50025490
0.91656270 0.31927886 0.46934304
0.88585943 0.30361379 0.58088274
0.97570184 0.35511923 0.49480695
0.99292321 0.31799121 0.41806710
0.99118751 0.34265890 0.44792331
0.93874620 0.28326969 0.34110451
0.18495045 0.12091553 0.71652970
0.10972113 0.01310946 0.68556807
0.25034139 0.07141630 0.71226244
0.58489864 0.20445431 0.74539721
0.84096035 0.36064350 0.81355468
0.88962139 0.38226083 0.72933150
0.90902152 0.37676108 0.68842208
0.92898535 0.36674030 0.64489017
0.94416315 0.35795175 0.60444688
0.20196487 0.08122413 0.72960445
0.14809787 0.03444961 0.70263684
0.15669904 0.03293458 0.70043412
0.42354223 0.16165101 0.77353835
0.76026739 0.32431891 0.81808375
0.84408513 0.37419508 0.82434096
0.87808647 0.38666175 0.75446327
0.89745250 0.38085492 0.71316325
0.91665864 0.37273382 0.67206613
0.15421100 0.43917764 0.83481209
0.16719885 0.26128335 0.79636362
0.17657118 0.19028285 0.77120779
0.30481499 0.15638025 0.76465821
0.66275447 0.28182528 0.81110412
0.84713535 0.38967533 0.83214883
0.88372097 0.44195887 0.79752971
0.89036959 0.41528768 0.75682635
0.89835427 0.38891831 0.71897227
0.27134169 0.68828569 0.85724569
0.21621798 0.58773638 0.84620152
0.20205874 0.53941351 0.84101820
0.18649348 0.48476782 0.83510448
0.50784191 0.44184289 0.86327026
0.86849820 0.51908672 0.87337597
0.90554642 0.55164206 0.85349373
0.92060353 0.52655218 0.80067230
0.92294140 0.49102674 0.75952746
0.61542197 0.87839494 0.89436473
0.47026421 0.81708891 0.87110478
0.42992706 0.79351503 0.86568406
0.39511234 0.77152226 0.86238320
0.34211144 0.73438677 0.86156292
0.73923903 0.73250595 0.95293960
0.94353205 0.71832826 0.91890251
0.96937231 0.67300218 0.83370996
0.97012072 0.63034469 0.79967647
0.64874623 0.92902894 0.92019445
0.64874623 0.92902894 0.92019445
0.64552844 0.92635607 0.92050279
0.63080835 0.91751788 0.91748108
0.60774701 0.90311213 0.90501924
0.60230101 0.89535084 0.88579648
0.89820152 0.89820152 0.89820152
0.99940168 0.83178371 0.84625805
0.99944245 0.78394485 0.80770840
0.64906246 0.92946551 0.91998085
0.64906246 0.92946551 0.91998085
0.64887380 0.92933085 0.91922753
0.65240731 0.93312259 0.89571500
0.65211924 0.93532514 0.84965596
0.65234110 0.93603140 0.83149136
0.71345164 0.94884360 0.83016109
0.99342161 0.99158052 0.76693628
0.99899539 0.93000486 0.73842202
0.64906246 0.92946551 0.91998085
0.64906246 0.92946551 0.91998085
0.64906246 0.92946551 0.91998085
0.64906330 0.92947390 0.91990597
0.65086761 0.93142893 0.90470254
0.65256255 0.93562286 0.85654071
0.65252162 0.93710275 0.79824340
0.83041346 0.96540456 0.77012445
0.99654942 0.99136467 0.64896101
0.12131555 0.03152982 0.69425407
0.11295800 0.01714866 0.68605907
0.80388482 0.34593595 0.82679493
0.89734060 0.55512280 0.85190455
0.84185415 0.37213795 0.82710356
0.93757523 0.36944095 0.52046024
0.94551644 0.35704869 0.51014863
0.97988025 0.35769198 0.50007890
0.98624023 0.33396157 0.45157644
0.12859679 0.03218085 0.68227392
0.12284446 0.02955907 0.69527702
0.28950761 0.10200163 0.74432377
0.62895053 0.25750172 0.80343027
0.84106993 0.37149456 0.82711802
0.85413186 0.39021095 0.81688257
0.87147741 0.38849487 0.77099961
0.88981666 0.38320657 0.72927254
0.90892896 0.37566199 0.68760975
0.16833008 0.03784639 0.71101230
0.14564547 0.03443559 0.70195660
0.15852638 0.03819804 0.70544511
0.46692518 0.17911846 0.78133576
0.79058609 0.33973734 0.82197531
0.84176712 0.37201541 0.82717375
0.84988201 0.39203050 0.82815916
0.86222604 0.39137965 0.79905915
0.87812519 0.38585477 0.75395950
0.22816550 0.16529211 0.77040892
0.18419174 0.08671947 0.72986978
0.17292910 0.06894398 0.72095655
0.32721544 0.12083981 0.75693258
0.69131720 0.28519083 0.81081697
0.84190239 0.37222083 0.82710988
0.85609435 0.42036672 0.84167367
0.85760248 0.41753366 0.83420589
0.86372940 0.40067357 0.80357985
0.28856637 0.84119036 0.87440128
0.16767204 0.39195699 0.82481442
0.16228772 0.33793191 0.81778912
0.17408751 0.31546114 0.81351748
0.49546885 0.35213638 0.83330901
0.84439180 0.45191912 0.85407883
0.87517097 0.49381196 0.86455257
0.88124362 0.50832427 0.86537263
0.88283474 0.48340924 0.83643550
0.82473751 0.94928606 0.93785768
0.41673890 0.78611060 0.86579576
0.26028746 0.66620450 0.85485212
0.23553050 0.63523149 0.85143960
0.26003648 0.61197163 0.85469314
0.67762927 0.63927276 0.92134181
0.91877172 0.65377829 0.91434735
0.92274910 0.64979381 0.90295658
0.92233894 0.61555517 0.87382714
0.65299044 0.93427343 0.91739530
0.64843751 0.92901022 0.92025905
0.61301969 0.90593726 0.91211175
0.53178994 0.85691347 0.88764729
0.48797086 0.82764788 0.87395189
0.48680218 0.81661369 0.88084411
0.84104798 0.83803136 0.98290306
0.96826720 0.81004052 0.94679992
0.97213228 0.76784868 0.90255819
0.64906246 0.92946551 0.91998085
0.64906246 0.92946551 0.91998085
0.64906246 0.92946551 0.91998085
0.64906246 0.92946551 0.91998085
0.64892135 0.92927147 0.92007599
0.64755336 0.92768350 0.92107549
0.68119484 0.93752689 0.93267417
0.95957553 0.95769067 0.95829709
0.99936736 0.90978166 0.91307679
0.64906246 0.92946551 0.91998085
0.64906246 0.92946551 0.91998085
0.64906246 0.92946551 0.91998085
0.64906246 0.92946551 0.91998085
0.64906246 0.92946551 0.91998085
0.64808078 0.92816238 0.92007328
0.65076626 0.93149958 0.90680252
0.78996517 0.96459218 0.89118273
0.99798490 0.99819907 0.82826132
0.07860133 0.02348100 0.67662149
0.12011714 0.02924534 0.69419637
0.89697495 0.57552893 0.84752525
0.92885385 0.61589444 0.84959533
0.84175648 0.37200461 0.82716507
0.86578004 0.45092496 0.84375085
0.88205909 0.44804151 0.80871092
0.91891394 0.36237422 0.49561405
0.94202748 0.35264439 0.52438662
0.13998466 0.03306676 0.70307202
0.12285242 0.02975774 0.69431333
0.26848561 0.09056289 0.73770099
0.64783609 0.26708111 0.80550522
0.84175648 0.37200461 0.82716507
0.84275482 0.37467313 0.82792151
0.84675200 0.38616239 0.82911522
0.85677507 0.39348026 0.81576611
0.87090713 0.38852083 0.77240503
0.19295421 0.07066701 0.72430984
0.13916733 0.03305416 0.69972023
0.14122045 0.03357298 0.70073802
0.39974145 0.15113753 0.77029352
0.76971087 0.33029684 0.82023024
0.84175648 0.37200461 0.82716507
0.84194179 0.37243809 0.82728665
0.84407361 0.37903634 0.82867333
0.84929734 0.39199291 0.82927044
0.47158688 0.71751226 0.86603781
0.16148938 0.03999159 0.70621225
0.15237099 0.03574372 0.70390746
0.26464241 0.08997413 0.73895563
0.61717019 0.24928080 0.80225207
0.84175648 0.37200461 0.82716507
0.84316884 0.37533884 0.82833330
0.84438463 0.38007669 0.82912090
0.84475363 0.38391593 0.82991353
0.31413770 0.87895441 0.88974739
0.17311890 0.39983561 0.82539432
0.18673574 0.20880542 0.77906516
0.21260557 0.12985179 0.75154958
0.42562711 0.19146562 0.78279816
0.77222723 0.34483137 0.82453162
0.85000364 0.39982002 0.83527790
0.85965812 0.43523437 0.84651626
0.85931707 0.43336673 0.84571318
0.80867527 0.96102803 0.93754239
0.45067447 0.80665191 0.86920716
0.26969350 0.67258756 0.85548485
0.20443209 0.54541110 0.84194921
0.24150278 0.42952714 0.83943022
0.59725097 0.49321581 0.87464557
0.88718548 0.57395223 0.89098763
0.89796704 0.57269755 0.88945500
0.89499408 0.55805510 0.88479328
0.64916793 0.92960968 0.91990990
0.64889975 0.92924165 0.92009058
0.62557833 0.91445100 0.91586241
0.54494007 0.86601488 0.89192562
0.43265798 0.79851861 0.86696524
0.36952562 0.71446601 0.87418247
0.77076867 0.74331054 0.95700145
0.94422987 0.74247881 0.94092260
0.93846080 0.72447665 0.93517273
0.64906246 0.92946551 0.91998085
0.64906246 0.92946551 0.91998085
0.64906246 0.92946551 0.91998085
0.64906246 0.92946551 0.91998085
0.64864533 0.92915179 0.92008485
0.63341406 0.91924236 0.91826178
0.63775862 0.90203556 0.92292784
0.90301200 0.90255122 0.99773904
0.98076853 0.87482092 0.97946174
0.64906246 0.92946551 0.91998085
0.64906246 0.92946551 0.91998085
0.64906246 0.92946551 0.91998085
0.64906246 0.92946551 0.91998085
0.64906246 0.92946551 0.91998085
0.64848055 0.92865771 0.92037502
0.64798307 0.92768265 0.92218630
0.73773257 0.95364093 0.94702633
0.99780727 0.99785017 0.99783603
