LUT/REALA-ACE.cube
TITLE "REALA-ACE"
LUT_3D_SIZE 33
# Apple Log/Rec2020 -> LA - :FLog2C_to_REALA-ACE/LA - :FLog2C_to_REALA-ACE, CineEI Shift 0.00, Black Level -0.01% IRE, Input 109% -> Output 100% - Created with LUTCalc v4.09 by Ben Turley February 2025
0.00000000 0.00000000 0.00000000
0.00000000 0.00000000 0.00000000
0.00000000 0.00000000 0.00000000
0.00000000 0.00000000 0.00000000
0.34261320 0.02640536 0.00000000
0.50414818 0.00000000 0.65993076
0.88062223 0.00000000 0.00000000
0.96354295 0.03370200 0.05520417
0.97556609 0.19575074 0.12023844
0.93538695 0.16304137 0.20640329
0.94775977 0.79863024 0.38414154
0.98342885 0.00000000 0.45371239
0.99819561 0.96073144 0.87556940
0.99957335 0.93066290 0.94285073
0.99755013 0.72060306 0.89307253
0.98333172 0.66734105 0.78768456
0.98924164 0.71672568 0.67717700
0.98041836 0.59093715 0.58550047
0.95199383 0.38960873 0.47799728
0.94092114 0.32875546 0.47522898
0.94092114 0.32875546 0.47522898
0.94092114 0.32875546 0.47522898
0.94092114 0.32875546 0.47522898
0.94092114 0.32875546 0.47522898
0.94092114 0.32875546 0.47522898
0.94092114 0.32875546 0.47522898
0.94092114 0.32875546 0.47522898
0.94092114 0.32875546 0.47522898
0.94092114 0.32875546 0.47522898
0.94092114 0.32875546 0.47522898
0.94092114 0.32875546 0.47522898
0.94092114 0.32875546 0.47522898
0.94092114 0.32875546 0.47522898
0.00000000 0.00000000 0.00000000
0.00000000 0.00000000 0.00000000
0.00000000 0.00000000 0.00000000
0.00000000 0.00000000 0.00000000
0.14751658 0.01775343 0.00000000
0.22934068 0.00000000 0.33669265
0.55116825 0.00000000 0.00000000
0.82209444 0.01011093 0.00544382
0.86036957 0.07961703 0.03579156
0.83484662 0.07390204 0.12262186
0.86790897 0.42591976 0.22270534
0.91236061 0.00000000 0.21109676
0.96035617 0.55449279 0.47714731
0.98246212 0.64030887 0.76683201
0.95921444 0.39607575 0.71780656
0.95625738 0.40810620 0.60991674
0.96806904 0.47917100 0.56913226
0.96175956 0.42833663 0.53343816
0.94570240 0.35037685 0.47335033
0.94092114 0.32875546 0.47522898
0.94092114 0.32875546 0.47522898
0.94092114 0.32875546 0.47522898
0.94092114 0.32875546 0.47522898
0.94092114 0.32875546 0.47522898
0.94092114 0.32875546 0.47522898
0.94092114 0.32875546 0.47522898
0.94092114 0.32875546 0.47522898
0.94092114 0.32875546 0.47522898
0.94092114 0.32875546 0.47522898
0.94092114 0.32875546 0.47522898
0.94092114 0.32875546 0.47522898
0.94092114 0.32875546 0.47522898
0.94092114 0.32875546 0.47522898
0.00000000 0.00000000 0.00000000
0.00000000 0.00000000 0.00000000
0.00000000 0.00000000 0.00000000
0.00000000 0.00000000 0.00000000
0.08845712 0.01549771 0.00000000
0.15521999 0.00000000 0.24172558
0.34290074 0.00000000 0.00000000
0.62188250 0.00248639 0.00049952
0.72342955 0.03892100 0.01730455
0.72124322 0.03994903 0.09471711
0.80851422 0.29118694 0.16992759
0.86996058 0.00000000 0.13760588
0.91486475 0.22588653 0.27927326
0.93847360 0.35995803 0.54437416
0.93111898 0.28867517 0.56570822
0.94094441 0.32307084 0.51772063
0.95570430 0.37927281 0.51975297
0.95348438 0.37093463 0.51326765
0.94283279 0.33779268 0.47141392
0.94092114 0.32875546 0.47522898
0.94092114 0.32875546 0.47522898
0.94092114 0.32875546 0.47522898
0.94092114 0.32875546 0.47522898
0.94092114 0.32875546 0.47522898
0.94092114 0.32875546 0.47522898
0.94092114 0.32875546 0.47522898
0.94092114 0.32875546 0.47522898
0.94092114 0.32875546 0.47522898
0.94092114 0.32875546 0.47522898
0.94092114 0.32875546 0.47522898
0.94092114 0.32875546 0.47522898
0.94092114 0.32875546 0.47522898
0.94092114 0.32875546 0.47522898
0.00000000 0.00000000 0.00000000
0.00000000 0.00000000 0.00000000
0.00000000 0.00000000 0.00000000
0.00000000 0.00000000 0.00000000
0.03491152 0.05115722 0.21373469
0.10806936 0.00000000 0.04539605
0.22103886 0.00000000 0.00000000
0.39788676 0.00001878 0.00000000
0.54414139 0.00000000 0.01432115
0.61198475 0.00000173 0.07934400
0.71807448 0.00000000 0.11639198
0.81819177 0.00000000 0.09133543
0.86699479 0.07228577 0.18047056
0.90699268 0.22260595 0.36567257
0.92002774 0.23816449 0.47459711
0.93062364 0.27329969 0.48117961
0.94387756 0.32714331 0.49427766
0.94761861 0.34378196 0.50324107
0.94190279 0.33293223 0.47660520
0.94092114 0.32875546 0.47522898
0.94092114 0.32875546 0.47522898
0.94092114 0.32875546 0.47522898
0.94092114 0.32875546 0.47522898
0.94092114 0.32875546 0.47522898
0.94092114 0.32875546 0.47522898
0.94092114 0.32875546 0.47522898
0.94092114 0.32875546 0.47522898
0.94092114 0.32875546 0.47522898
0.94092114 0.32875546 0.47522898
0.94092114 0.32875546 0.47522898
0.94092114 0.32875546 0.47522898
0.94092114 0.32875546 0.47522898
0.94092114 0.32875546 0.47522898
0.00000000 0.00000000 0.00000000
0.00000000 0.00000000 0.00000000
0.00000000 0.00000000 0.00000000
0.00000000 0.00000000 0.00000000
0.06904041 0.07884832 0.11365738
0.03838537 0.08440044 0.00001784
0.14454303 0.22872221 0.00000000
0.30322824 0.08686312 0.01328991
0.41327563 0.00000000 0.01058615
0.51797072 0.00000000 0.00917928
0.59728155 0.00000000 0.01736411
0.68148494 0.00000000 0.01758259
0.78519647 0.00000000 0.07625468
0.86963241 0.08068812 0.23923829
0.92207241 0.21860517 0.39698704
0.93381661 0.24183710 0.46626579
0.93274596 0.27419466 0.47197809
0.93690207 0.31854069 0.47566341
0.93940287 0.33464547 0.47981567
0.94092114 0.32875546 0.47522898
0.94092114 0.32875546 0.47522898
0.94092114 0.32875546 0.47522898
0.94092114 0.32875546 0.47522898
0.94092114 0.32875546 0.47522898
0.94092114 0.32875546 0.47522898
0.94092114 0.32875546 0.47522898
0.94092114 0.32875546 0.47522898
0.94092114 0.32875546 0.47522898
0.94092114 0.32875546 0.47522898
0.94092114 0.32875546 0.47522898
0.94092114 0.32875546 0.47522898
0.94092114 0.32875546 0.47522898
0.94092114 0.32875546 0.47522898
0.00000000 0.12728507 0.00000000
0.00000000 0.04967114 0.00000000
0.00000000 0.02760685 0.00000000
0.00000000 0.01483406 0.00000000
0.00000000 0.00346091 0.00000000
0.03371351 0.00000000 0.00000000
0.07897486 0.01274017 0.05692460
0.11725269 0.18610204 0.01026497
0.21652071 0.05727996 0.01225538
0.39175106 0.00000000 0.02073474
0.54077897 0.00000000 0.01251774
0.59410984 0.00000000 0.07050298
0.69976394 0.00000000 0.12680973
0.81492238 0.00748749 0.15953205
0.87913206 0.15292541 0.23814037
0.91681686 0.20540112 0.35533859
0.93196916 0.24217658 0.44773824
0.93654609 0.28725636 0.47648493
0.95345076 0.35045078 0.48674513
0.96230715 0.37124587 0.50223262
0.94092114 0.32875546 0.47522898
0.94092114 0.32875546 0.47522898
0.94092114 0.32875546 0.47522898
0.94092114 0.32875546 0.47522898
0.94092114 0.32875546 0.47522898
0.94092114 0.32875546 0.47522898
0.94092114 0.32875546 0.47522898
0.94092114 0.32875546 0.47522898
0.94092114 0.32875546 0.47522898
0.94092114 0.32875546 0.47522898
0.94092114 0.32875546 0.47522898
0.94092114 0.32875546 0.47522898
0.94092114 0.32875546 0.47522898
0.00000000 0.20550849 0.00468848
0.00000000 0.10178703 0.00055221
0.00000000 0.06900327 0.00000000
0.00000000 0.04146166 0.00001605
0.00000000 0.00894669 0.00000000
0.00000000 0.00027199 0.00000000
0.03997901 0.00000000 0.00000000
0.08558988 0.00000000 0.00000000
0.16081113 0.00000000 0.04250232
0.31712528 0.00000000 0.12360622
0.45079855 0.00000000 0.04297796
0.57079265 0.00000000 0.12079178
0.65914768 0.00000000 0.08030157
0.74881169 0.00000000 0.06955901
0.83602263 0.03315890 0.15465399
0.88643845 0.18101675 0.29782354
0.91982638 0.22213243 0.41394789
0.93295816 0.25217013 0.46085363
0.94417920 0.31875749 0.47982398
0.94611154 0.35207939 0.49547792
0.94100151 0.32898693 0.47528237
0.94092348 0.32876222 0.47523054
0.94092114 0.32875546 0.47522898
0.94092114 0.32875546 0.47522898
0.94092114 0.32875546 0.47522898
0.94092114 0.32875546 0.47522898
0.94092114 0.32875546 0.47522898
0.94092114 0.32875546 0.47522898
0.94092114 0.32875546 0.47522898
0.94092114 0.32875546 0.47522898
0.94092114 0.32875546 0.47522898
0.94092114 0.32875546 0.47522898
0.94092114 0.32875546 0.47522898
0.00000000 0.28195777 0.00000000
0.00000000 0.13947317 0.00000000
0.00000000 0.09424709 0.00000000
0.00000000 0.06926261 0.00000000
0.00000000 0.04180288 0.00000000
0.00000000 0.00839402 0.00000000
0.01165317 0.01023622 0.00000000
0.07848287 0.00000000 0.00000000
0.13403401 0.00000000 0.09418220
0.22097772 0.00001151 0.55391048
0.39028079 0.00000000 0.25484610
0.55280499 0.00000000 0.08654180
0.61366402 0.00000000 0.03766948
0.68715771 0.00000000 0.05423684
0.78264063 0.18178496 0.11349293
0.86075636 0.28011294 0.22301249
0.91118262 0.21193363 0.36206590
0.93409713 0.24548173 0.46735366
0.93601447 0.28369804 0.48349057
0.94426757 0.33293974 0.46783660
0.94742612 0.34522348 0.47825343
0.94113966 0.32938552 0.47537461
0.94092114 0.32875546 0.47522898
0.94092114 0.32875546 0.47522898
0.94092114 0.32875546 0.47522898
0.94092114 0.32875546 0.47522898
0.94092114 0.32875546 0.47522898
0.94092114 0.32875546 0.47522898
0.94092114 0.32875546 0.47522898
0.94092114 0.32875546 0.47522898
0.94092114 0.32875546 0.47522898
0.94092114 0.32875546 0.47522898
0.94092114 0.32875546 0.47522898
0.00000000 0.35832489 0.00000000
0.00000000 0.17161144 0.00000000
0.00000000 0.11473038 0.00000000
0.00000000 0.09320053 0.00000000
0.00000000 0.09219054 0.00000000
0.00000000 0.01678797 0.00000000
0.00174014 0.01506884 0.00000000
0.06483947 0.01432643 0.00000000
0.16153798 0.01349918 0.00000000
0.23563621 0.01145174 0.10291123
0.35387557 0.01413944 0.38619772
0.48824962 0.00024633 0.02290765
0.56073382 0.00050548 0.01021735
0.65944748 0.00000000 0.04142622
0.76110698 0.09566777 0.09449532
0.84765487 0.21306840 0.17583922
0.90487099 0.18210057 0.32774234
0.93607366 0.24235808 0.48726751
0.93254726 0.25945653 0.50476350
0.94755449 0.32539415 0.46078887
0.95598969 0.36773103 0.48546529
0.94147623 0.33008297 0.47563359
0.94092114 0.32875546 0.47522898
0.94092114 0.32875546 0.47522898
0.94092114 0.32875546 0.47522898
0.94092114 0.32875546 0.47522898
0.94092114 0.32875546 0.47522898
0.94092114 0.32875546 0.47522898
0.94092114 0.32875546 0.47522898
0.94092114 0.32875546 0.47522898
0.94092114 0.32875546 0.47522898
0.94092114 0.32875546 0.47522898
0.94092114 0.32875546 0.47522898
0.00000000 0.43953324 0.00000000
0.00000000 0.23031703 0.00000000
0.00000000 0.16737292 0.00000000
0.00000000 0.14521867 0.00000000
0.00031902 0.13694767 0.00000000
0.00000000 0.06457210 0.00000000
0.00000000 0.02182139 0.00000000
0.06300711 0.04633752 0.00000000
0.15033451 0.05685895 0.00000000
0.23743300 0.03742468 0.00000000
0.28794691 0.02586492 0.26952321
0.39605326 0.01201999 0.06672897
0.51919331 0.01185648 0.05874534
0.64177277 0.00000000 0.09656179
0.74091181 0.00000000 0.10166143
0.82678449 0.01475070 0.15720912
0.88471824 0.12723460 0.28782410
0.92121026 0.21319044 0.43645955
0.92912915 0.23380068 0.49225089
0.94172503 0.29944875 0.46320807
0.95588085 0.35826896 0.49154259
0.94354801 0.33426995 0.48064322
0.93973740 0.32733625 0.47980665
0.94055642 0.32820385 0.47616165
0.94092114 0.32875546 0.47522898
0.94092114 0.32875546 0.47522898
0.94092114 0.32875546 0.47522898
0.94092114 0.32875546 0.47522898
0.94092114 0.32875546 0.47522898
0.94092114 0.32875546 0.47522898
0.94092114 0.32875546 0.47522898
0.94092114 0.32875546 0.47522898
0.94092114 0.32875546 0.47522898
0.00000000 0.65493071 0.00000000
0.00000000 0.38473093 0.00000000
0.00000000 0.29895014 0.00000000
0.00000000 0.24769619 0.00000000
0.00000000 0.21906704 0.00550273
0.00000000 0.16712993 0.00000000
0.02539788 0.10518234 0.00000000
0.07686727 0.09338500 0.00000000
0.05224693 0.08327631 0.00000000
0.20384530 0.07777841 0.00000000
0.27695731 0.03128343 0.23721165
0.38262564 0.03556156 0.06017600
0.49666236 0.06427918 0.78268589
0.60268743 0.03278359 0.75997075
0.70579360 0.01339345 0.19944293
0.80395567 0.01788078 0.10560680
0.87646896 0.08325598 0.21992829
0.92584922 0.19642173 0.37829803
0.94388925 0.25509144 0.48938422
0.93416335 0.28298817 0.48739713
0.94401507 0.34559331 0.48456567
0.95019972 0.35232963 0.50035054
0.93573595 0.32336211 0.49523999
0.93913844 0.32664213 0.48035879
0.94000212 0.32661022 0.47573846
0.94124061 0.32707182 0.47628061
0.94157656 0.32829900 0.47606488
0.94094618 0.32873862 0.47526075
0.94092114 0.32875546 0.47522898
0.94092114 0.32875546 0.47522898
0.94092114 0.32875546 0.47522898
0.94092114 0.32875546 0.47522898
0.94092114 0.32875546 0.47522898
0.25795851 0.70006708 0.25431338
0.09443164 0.45988619 0.07998771
0.04370772 0.36539139 0.03130244
0.02035385 0.30924905 0.01146663
0.00000000 0.27398071 0.00000000
0.00000000 0.23501048 0.00000000
0.00000000 0.19836423 0.07854811
0.00000000 0.17636315 0.36318193
0.00000000 0.15228027 0.32898110
0.20786757 0.11715400 0.17410871
0.28902491 0.07520258 0.01376609
0.37808071 0.09200158 0.02345018
0.54600304 0.09783691 0.10609659
0.59960239 0.08029036 0.26713530
0.67548049 0.06356900 0.25118621
0.77856661 0.07056009 0.14997347
0.85832497 0.11288292 0.17825628
0.91399057 0.18488895 0.34057245
0.94466033 0.25066914 0.46737479
0.92307899 0.27491444 0.49113732
0.93007295 0.33307993 0.47982505
0.94572458 0.36144951 0.52211469
0.93564222 0.33392673 0.48602952
0.93962470 0.33160948 0.48111056
0.93309163 0.30744191 0.47881106
0.94324178 0.31032087 0.48468525
0.94836877 0.32512141 0.48344128
0.94120554 0.32856440 0.47558900
0.94092114 0.32875546 0.47522898
0.94092114 0.32875546 0.47522898
0.94092114 0.32875546 0.47522898
0.94092114 0.32875546 0.47522898
0.94092114 0.32875546 0.47522898
0.40771954 0.72357460 0.31643408
0.18030433 0.51890310 0.12920563
0.11506227 0.42471719 0.07509265
0.07624145 0.36573945 0.04033138
0.03479458 0.32791222 0.02229973
0.00000000 0.28387177 0.00000000
0.00058713 0.26654752 0.00301361
0.00000000 0.24711388 0.03435634
0.00021624 0.21898775 0.12997091
0.08709329 0.17164417 0.10380745
0.24132043 0.16468808 0.00559234
0.34471243 0.14863310 0.00000000
0.47518201 0.15563566 0.33745854
0.55932822 0.14427652 0.25949195
0.64166904 0.12681992 0.30940208
0.74152730 0.13504106 0.73533621
0.83647357 0.16061396 0.56025692
0.89639628 0.19386726 0.21448500
0.93533984 0.23828019 0.34765268
0.93401657 0.27643741 0.43489054
0.94018677 0.31282828 0.48186730
0.94514817 0.36085194 0.51565810
0.93574360 0.35986200 0.47958425
0.93363011 0.34416095 0.45940457
0.93426999 0.31733731 0.46640791
0.94613065 0.31748384 0.46689563
0.94756462 0.32288291 0.45794274
0.93643638 0.32428904 0.46870193
0.93269051 0.32950251 0.49916445
0.93469939 0.31900550 0.50175681
0.94012819 0.32729878 0.47866507
0.94089655 0.32871097 0.47533527
0.94092114 0.32875546 0.47522898
0.44450945 0.76848469 0.34333948
0.22631448 0.58565652 0.16711237
0.16230898 0.49414415 0.11235427
0.12251071 0.43001095 0.08139174
0.09401457 0.40108540 0.05985418
0.06266560 0.35600929 0.03254538
0.02594252 0.31546395 0.01457763
0.01572041 0.30226592 0.01436268
0.01786733 0.28651057 0.01836609
0.03125020 0.24480902 0.01412507
0.09986923 0.23911962 0.00000000
0.21670374 0.21681312 0.00000000
0.41210120 0.20853103 0.01060140
0.52416396 0.19900762 0.20094872
0.59976339 0.18111870 0.12003305
0.69897419 0.18439229 0.28104254
0.80725627 0.20006648 0.47522238
0.88097429 0.21877910 0.35775480
0.93680596 0.26543632 0.23983462
0.95616588 0.31195186 0.42198401
0.94544642 0.32474324 0.47475347
0.94716678 0.36851998 0.48422732
0.94412123 0.38974851 0.47286218
0.94215731 0.37031074 0.46422540
0.94182567 0.34831296 0.47045537
0.94999191 0.34211486 0.46392917
0.95200090 0.34028861 0.43927718
0.94626732 0.34161834 0.45076902
0.94268916 0.34383416 0.50719969
0.93785626 0.32784207 0.51578373
0.93634458 0.32635706 0.49011434
0.93614703 0.32604788 0.47870791
0.93973665 0.32765691 0.48383322
0.68727500 0.83575593 0.62907341
0.32905595 0.66544584 0.27374202
0.22288450 0.56498888 0.17285299
0.15870447 0.49495803 0.11055058
0.14045245 0.48195925 0.09834064
0.11937621 0.43198751 0.08090976
0.07921793 0.37588136 0.04849947
0.06686314 0.36160688 0.03335199
0.05928976 0.34861316 0.02899794
0.04879491 0.32329757 0.02141953
0.06906920 0.32308341 0.01537442
0.13439687 0.30041009 0.00000000
0.28719064 0.27388879 0.00000000
0.47013815 0.25213639 0.00000000
0.59280082 0.23737774 0.00962898
0.67633325 0.23534316 0.03012117
0.77422177 0.23453377 0.16376083
0.85877295 0.24247837 0.25994705
0.92642008 0.28161237 0.16913460
0.97296486 0.34391251 0.32807605
0.94687199 0.35237037 0.39960274
0.94867137 0.38202348 0.41483875
0.95490859 0.40682069 0.44723898
0.95583879 0.39501654 0.45732581
0.95404765 0.37935159 0.45138751
0.95102577 0.36764555 0.45037523
0.95092889 0.35864661 0.43139411
0.95248823 0.35569445 0.43442457
0.95156222 0.35727792 0.48005685
0.94707909 0.35168441 0.49088392
0.94098450 0.34173023 0.49512312
0.93526837 0.33588118 0.46495085
0.93706404 0.33114013 0.48980432
0.82750460 0.88764309 0.83034965
0.47333586 0.76818025 0.42453504
0.32175227 0.66458525 0.27539201
0.23139938 0.58022076 0.17577371
0.18975945 0.55542894 0.13942598
0.16356004 0.50518072 0.11390378
0.12793913 0.45321690 0.09047585
0.12151901 0.43291767 0.08315027
0.10736744 0.41155596 0.06902368
0.09560057 0.39560498 0.06205879
0.09730945 0.40253864 0.06974380
0.11916692 0.38715730 0.06062364
0.20238180 0.35131612 0.00075098
0.35279131 0.32484722 0.00000000
0.52333462 0.30825570 0.00000000
0.64368769 0.30294139 0.00000000
0.73733993 0.29394528 0.17403239
0.83104199 0.28946305 0.31204569
0.90191650 0.31086563 0.22794593
0.96870530 0.36081027 0.16255474
0.94736843 0.38187438 0.26703075
0.95573113 0.40219805 0.33659505
0.96100277 0.42282319 0.39836739
0.96628084 0.41565177 0.45497601
0.96515398 0.40883083 0.43689241
0.95410757 0.40117451 0.43642052
0.95109282 0.38632468 0.42933498
0.95464978 0.37150207 0.42441575
0.95530610 0.36886014 0.45026010
0.95581170 0.37366929 0.45968577
0.94849403 0.35935855 0.46729779
0.93761349 0.34472422 0.45540627
0.93535421 0.33633148 0.48127085
0.85674151 0.96682889 0.85204862
0.61550129 0.86648483 0.56705614
0.45620221 0.77064450 0.39813302
0.35288504 0.64244162 0.29812678
0.28297801 0.63336923 0.22283822
0.22332865 0.59651747 0.16434730
0.17928226 0.54049921 0.13313140
0.17403711 0.51762405 0.12994456
0.15597618 0.48565681 0.11009332
0.14474831 0.47601010 0.10326401
0.14462375 0.47677889 0.11145588
0.14222492 0.46193313 0.10487675
0.16952905 0.43300864 0.06598026
0.27440936 0.40779642 0.01233218
0.40637185 0.38883907 0.00000000
0.57693506 0.37392589 0.00000000
0.70203583 0.36354176 0.10730028
0.79572541 0.35848188 0.24749446
0.87631618 0.36393346 0.23907753
0.95528311 0.39410184 0.52278808
0.96482111 0.41832587 0.16885335
0.96802500 0.43385708 0.25394880
0.96596333 0.44342636 0.34118025
0.97055411 0.43883374 0.43468231
0.97177522 0.43817195 0.41702052
0.96333226 0.43387915 0.40960438
0.95872169 0.41686343 0.42039392
0.95989867 0.39821201 0.41981595
0.95930361 0.39272260 0.43185330
0.96251767 0.39342308 0.43956167
0.95699819 0.38079901 0.42877938
0.94461415 0.35756057 0.43794526
0.93594182 0.34837316 0.45133701
0.85517995 0.99910551 0.82808072
0.70049244 0.93060975 0.64236056
0.59989960 0.87389601 0.53507212
0.51323895 0.81404422 0.44836008
0.42743751 0.75505260 0.36051702
0.33787452 0.70488066 0.27580348
0.27503324 0.63446199 0.21383654
0.25612758 0.61527964 0.19715276
0.22074161 0.58077818 0.16602392
0.21216220 0.57155325 0.16039125
0.20418629 0.55268175 0.15636693
0.18508378 0.52855352 0.14085489
0.18241937 0.50685317 0.12325961
0.23132863 0.49096958 0.08333305
0.32937602 0.47555665 0.03198279
0.49187981 0.45187653 0.00000000
0.64928805 0.43532547 0.00000000
0.75629695 0.43374582 0.06312537
0.85130883 0.43885980 0.29546374
0.93556080 0.45202232 0.90837833
0.98856831 0.48066972 0.16293095
0.97507761 0.49400049 0.15147637
0.96862990 0.47564184 0.24249607
0.96559760 0.47046237 0.34157708
0.97591402 0.47872756 0.39237745
0.97403492 0.47154920 0.37411316
0.97140427 0.44782263 0.38918138
0.97077173 0.43200135 0.40170346
0.96704011 0.42912290 0.39985048
0.96686586 0.42014541 0.42040774
0.96732000 0.40844348 0.40587532
0.95757873 0.39152843 0.41173609
0.94409876 0.38073880 0.41829683
0.81139095 0.99803018 0.76001513
0.71579473 0.95864326 0.65982311
0.66898657 0.93127880 0.61200387
0.63090403 0.90749273 0.57090442
0.58454667 0.87348621 0.51647017
0.49869390 0.82616497 0.42869777
0.42443999 0.76124196 0.34803555
0.37332010 0.72009298 0.30353076
0.32882876 0.67983831 0.26580006
0.31503235 0.67114517 0.25514642
0.28913552 0.64546244 0.22885393
0.25660376 0.61417425 0.19455383
0.23442822 0.58802017 0.17375733
0.23868867 0.57051063 0.15097589
0.29150544 0.55879597 0.11203174
0.40918391 0.54156112 0.06029244
0.57861262 0.52556328 0.00001966
0.70884997 0.51605532 0.00000000
0.82258026 0.51563396 0.00025706
0.90538260 0.51914807 0.23747819
0.99480354 0.54466686 0.12032865
0.98231044 0.56026534 0.05103194
0.96890377 0.52353774 0.01311916
0.95791540 0.51774048 0.13778306
0.97555623 0.51988178 0.33185592
0.98322783 0.50777678 0.34897774
0.98257900 0.48952703 0.34116634
0.98216131 0.48213150 0.36296737
0.97804017 0.48181074 0.35154820
0.96876922 0.46229977 0.38356560
0.97423832 0.44072183 0.37622183
0.97164546 0.43749458 0.37506752
0.95949174 0.42320654 0.39400126
0.66534701 0.92999431 0.59568840
0.66534701 0.92999431 0.59568840
0.66534701 0.92999431 0.59568840
0.66534701 0.92999431 0.59568840
0.66534701 0.92999431 0.59568840
0.62430101 0.89582023 0.55325934
0.58566178 0.87866142 0.50996842
0.52440693 0.84436307 0.44846439
0.46380281 0.79440048 0.39728609
0.44062405 0.77703791 0.37940519
0.40749405 0.73882477 0.34059872
0.35591800 0.70972583 0.29495347
0.33329950 0.68188668 0.26438020
0.31035945 0.66249425 0.23073701
0.30921340 0.64634684 0.20367000
0.36625524 0.63823274 0.15540645
0.49704020 0.63214076 0.08438322
0.64463850 0.62013305 0.00000000
0.78419493 0.60151714 0.00000000
0.89088091 0.58789028 0.00000000
0.98967471 0.59716752 0.00001776
0.99769072 0.61132686 0.00147295
0.98016396 0.58951670 0.00000000
0.97032419 0.59602792 0.00000000
0.97479861 0.56792555 0.25591573
0.98984548 0.54367935 0.34620314
0.99109376 0.53618595 0.28198111
0.99010866 0.54073459 0.30920597
0.98949300 0.54064009 0.32789978
0.97050293 0.51510059 0.33313419
0.97697150 0.48454646 0.31908881
0.97783131 0.48051855 0.32630851
0.97173527 0.45815109 0.36596898
0.66534701 0.92999431 0.59568840
0.66534701 0.92999431 0.59568840
0.66534701 0.92999431 0.59568840
0.66534701 0.92999431 0.59568840
0.66534701 0.92999431 0.59568840
0.66534701 0.92999431 0.59568840
0.66512332 0.92985186 0.59546228
0.64255418 0.91591045 0.57228957
0.60002757 0.89415326 0.53240420
0.56427694 0.87972421 0.50683799
0.52927266 0.84324277 0.46608781
0.50296064 0.79758022 0.43161365
0.46476863 0.77349624 0.39725007
0.44116039 0.77240800 0.36080975
0.41805813 0.74281184 0.33040880
0.41923761 0.73068599 0.28731468
0.47968784 0.72891091 0.22221094
0.59217124 0.71725813 0.11005538
0.72102087 0.69431945 0.00000000
0.86332809 0.66784962 0.00000000
0.97833991 0.65621624 0.00000000
0.99975250 0.65394205 0.00000000
0.99736359 0.65104377 0.00000000
0.99137092 0.67652514 0.00000000
0.98258432 0.62676250 0.50922711
0.99015184 0.59285036 0.39609938
0.99335504 0.58537487 0.15487821
0.99301521 0.58907108 0.22403007
0.99315170 0.59672125 0.29093742
0.96879423 0.56448544 0.26074173
0.97022599 0.53280149 0.24915345
0.97743536 0.52085135 0.28076716
0.97748751 0.50317149 0.31820649
0.66534701 0.92999431 0.59568840
0.66534701 0.92999431 0.59568840
0.66534701 0.92999431 0.59568840
0.66534701 0.92999431 0.59568840
0.66534701 0.92999431 0.59568840
0.66534701 0.92999431 0.59568840
0.66534049 0.92999016 0.59568180
0.66473643 0.92960365 0.59507116
0.66352870 0.92892734 0.59394016
0.66249355 0.92852060 0.59309282
0.66145204 0.92757859 0.59176604
0.66091464 0.92706774 0.59097270
0.62090240 0.90491423 0.54888958
0.58389591 0.88195296 0.50934875
0.55482439 0.86171151 0.47962638
0.53358476 0.83491371 0.44011940
0.53837144 0.80228192 0.39161399
0.59337265 0.78040463 0.30605259
0.68650472 0.76716590 0.14695645
0.80474024 0.73504102 0.00000000
0.90173496 0.69643682 0.00000000
0.99694047 0.69423048 0.00000000
0.99751378 0.71607148 0.00000000
0.98049946 0.70015551 0.00000000
0.98352834 0.68531748 0.23156154
0.98699820 0.66169443 0.09089485
0.98764136 0.63904775 0.01019988
