LUT/VELVIA.cube
TITLE "Velvia"
LUT_3D_SIZE 9
# Apple Log/Rec2020 -> LA - :FLog2C_to_Velvia/LA - :FLog2C_to_Velvia, CineEI Shift 0.00, Black Level -0.00% IRE, Input 109% -> Output 100% - Created with LUTCalc v4.09 by Ben Turley February 2025
0.00000000 0.00000000 0.00000000
0.00000000 0.00000000 0.00000000
0.93255073 0.00000000 0.00000000
1.01168615 0.99681482 0.72119696
1.00027872 0.68162228 0.54566042
0.99993787 0.28687360 0.49275557
0.99993787 0.28687360 0.49275557
0.99993787 0.28687360 0.49275557
0.99993787 0.28687360 0.49275557
0.00000000 0.00000000 0.00000000
0.00000000 0.00000000 0.00000000
0.39815111 0.02048385 0.00000000
0.93974864 0.00000000 0.13389849
0.99997727 0.20927119 0.50174703
0.99993787 0.28687360 0.49275557
0.99993787 0.28687360 0.49275557
0.99993787 0.28687360 0.49275557
0.99993787 0.28687360 0.49275557
0.00000000 0.24362300 0.00000000
0.00001113 0.05051282 0.02046630
0.13716353 0.00056598 0.02023326
0.61070502 0.00000000 0.00000000
1.00004478 0.12976637 0.38528651
0.99628807 0.33734977 0.47256475
0.99993787 0.28687360 0.49275557
0.99993787 0.28687360 0.49275557
0.99993787 0.28687360 0.49275557
0.00000774 0.81423738 0.62494011
0.00000000 0.33422409 0.00000232
0.00001097 0.15825516 0.00000000
0.42367264 0.10093687 0.01346871
0.95042178 0.14781103 0.98166452
0.99993636 0.27206972 0.48384045
1.00001725 0.29120553 0.51713686
0.99212272 0.27856938 0.50402607
0.99993787 0.28687360 0.49275557
0.00000556 1.00030643 0.60840640
0.00000000 0.76339756 0.00000000
0.00000000 0.58933063 0.01064635
0.06497495 0.51179694 0.00081763
0.76323591 0.40548969 0.00000000
0.99959212 0.46522289 0.78482080
0.99303440 0.42603471 0.36738002
1.00012665 0.38015684 0.41508647
1.00022509 0.33716042 0.44314902
0.00000000 0.99994648 0.00000395
0.00000000 0.99994648 0.00000395
0.00000000 0.98401131 0.01558351
0.00000377 0.89804869 0.39194013
0.03619962 0.71868806 0.00000000
0.99993711 0.62013628 0.00000000
1.00022465 0.64568414 0.00000000
1.00008411 0.55386826 0.12633201
1.00029393 0.47611325 0.26717265
0.00000000 0.99994648 0.00000395
0.00000000 0.99994648 0.00000395
0.00000000 0.99994648 0.00000395
0.00000000 0.99994648 0.00000395
0.00000000 0.99994648 0.00000395
0.51673858 0.96909716 0.00000022
1.00032718 0.78207047 0.00000000
0.99997282 0.71151228 0.00000300
1.00058551 0.67321217 0.00000000
0.00000000 0.99994648 0.00000395
0.00000000 0.99994648 0.00000395
0.00000000 0.99994648 0.00000395
0.00000000 0.99994648 0.00000395
0.00000000 0.99994648 0.00000395
0.00000000 0.99994678 0.00000283
0.89912785 0.99776921 0.00215154
1.00003806 0.92048378 0.00179563
1.00012401 0.86234590 0.34406264
0.00000000 0.99994648 0.00000395
0.00000000 0.99994648 0.00000395
0.00000000 0.99994648 0.00000395
0.00000000 0.99994648 0.00000395
0.00000000 0.99994648 0.00000395
0.00000000 0.99994648 0.00000395
0.52146037 0.99995390 0.00000000
1.00055379 0.97571443 0.00000000
1.00057847 0.96678896 0.00000056
0.00000000 0.00000000 0.00000000
0.00000000 0.00000000 0.00000000
0.89259292 0.21578578 0.00000000
1.01441458 0.00000000 0.70559476
1.00114786 0.63008053 0.66026892
0.99993787 0.28687360 0.49275557
0.99993787 0.28687360 0.49275557
0.99993787 0.28687360 0.49275557
0.99993787 0.28687360 0.49275557
0.00000000 0.00000000 0.00000000
0.00000000 0.00000000 0.00000000
0.20510339 0.00001130 0.00005499
0.78854395 0.00000000 0.05148417
0.99993579 0.12008372 0.46314837
0.99993787 0.28687360 0.49275557
0.99993787 0.28687360 0.49275557
0.99993787 0.28687360 0.49275557
0.99993787 0.28687360 0.49275557
0.05552723 0.38186239 0.00000000
0.00001126 0.05784495 0.00000441
0.01905390 0.01935767 0.00041874
0.43812106 0.00073745 0.00000794
0.98672364 0.01565579 0.20220404
0.99993772 0.25634159 0.49234449
0.99993787 0.28687360 0.49275557
0.99993787 0.28687360 0.49275557
0.99993787 0.28687360 0.49275557
0.00000000 0.90137592 0.50939630
0.00000319 0.41942565 0.00000000
0.00000250 0.23000173 0.00000000
0.19363931 0.17189795 0.00000000
0.83221740 0.16896913 0.00000586
0.99993595 0.28530574 0.33699559
0.99998129 0.32884472 0.45348923
0.99993595 0.29652072 0.48418048
0.99993787 0.28687360 0.49275557
0.00000000 1.00165679 0.00000000
0.00000121 0.85255165 0.00000000
0.00000797 0.67942049 0.00000000
0.00000757 0.58134852 0.00000000
0.54968152 0.49419850 0.00000000
1.00001936 0.49415293 0.00001077
0.99997865 0.48226683 0.25805849
0.99997322 0.42924010 0.33804842
1.00000002 0.37953399 0.39827333
0.00000000 0.99994648 0.00000395
0.00000000 0.99994648 0.00000395
0.00000000 0.99994317 0.00000595
0.00001117 0.95194786 0.00000769
0.00120030 0.87049239 0.00001143
0.87418310 0.71000464 0.00001074
1.00012250 0.67648528 0.00001116
1.00006043 0.61595013 0.02474084
1.00007456 0.55115201 0.14244844
0.00000000 0.99994648 0.00000395
0.00000000 0.99994648 0.00000395
0.00000000 0.99994648 0.00000395
0.00000000 0.99994648 0.00000395
0.00000000 0.99994648 0.00000395
0.17316534 0.99789494 0.00000000
1.00000067 0.89557227 0.00000904
1.00008792 0.77751492 0.00000285
0.99996012 0.72166138 0.00000901
0.00000000 0.99994648 0.00000395
0.00000000 0.99994648 0.00000395
0.00000000 0.99994648 0.00000395
0.00000000 0.99994648 0.00000395
0.00000000 0.99994648 0.00000395
0.00000000 0.99994648 0.00000395
0.54259854 1.00051410 0.00000136
1.00056552 0.95529955 0.00000246
1.00013839 0.90522961 0.00000648
0.00000000 0.99994648 0.00000395
0.00000000 0.99994648 0.00000395
0.00000000 0.99994648 0.00000395
0.00000000 0.99994648 0.00000395
0.00000000 0.99994648 0.00000395
0.00000000 0.99994648 0.00000395
0.00000000 0.99994648 0.00000395
0.87600772 0.99057388 0.00000359
1.00066936 0.96845175 0.00001148
0.00000000 0.00000000 0.93550799
0.00000000 0.00000000 0.00000000
0.83689021 0.02751476 0.00000000
1.00914111 0.10092185 0.69469437
1.00100453 0.64110064 0.68625378
0.99993787 0.28687360 0.49275557
0.99993787 0.28687360 0.49275557
0.99993787 0.28687360 0.49275557
0.99993787 0.28687360 0.49275557
0.00000854 0.00000000 0.43799758
0.00000819 0.00000643 0.01619693
0.16756072 0.00000741 0.00561386
0.71968605 0.00000689 0.03605734
0.99993581 0.09551633 0.43902625
0.99993787 0.28687360 0.49275557
0.99993787 0.28687360 0.49275557
0.99993787 0.28687360 0.49275557
0.99993787 0.28687360 0.49275557
0.00000000 0.47708363 0.52995411
0.00000000 0.06662051 0.06462797
0.01793229 0.01793229 0.01793229
0.40261133 0.00308292 0.01990334
0.96850923 0.00053987 0.17380100
0.99993729 0.23248280 0.48740085
0.99993787 0.28687360 0.49275557
0.99993787 0.28687360 0.49275557
0.99993787 0.28687360 0.49275557
0.00000000 0.88929733 0.49827282
0.00000000 0.46842422 0.00218005
0.00000960 0.26833593 0.00000821
0.17239669 0.18995101 0.00000000
0.78465495 0.17248708 0.00000000
1.00008308 0.28707654 0.31943773
0.99995927 0.34201188 0.44144677
0.99993660 0.30289019 0.47915042
0.99993768 0.28689026 0.49276504
0.00000000 1.00402341 0.00000000
0.00000355 0.89112280 0.00000000
0.00000000 0.72657954 0.00000883
0.00000876 0.61696585 0.00000406
0.50440113 0.51820644 0.00000000
1.00080500 0.49953450 0.00000777
1.00001283 0.49554378 0.27055051
1.00009632 0.44522609 0.31868510
1.00027681 0.39375405 0.38058229
0.00000000 0.99994648 0.00000395
0.00000000 0.99994648 0.00000395
0.00000000 0.99994648 0.00000395
0.00000000 0.96996914 0.00000911
0.00043164 0.89611809 0.00000000
0.80884118 0.73257664 0.00000745
1.00028924 0.70600334 0.00000000
1.00014138 0.62919410 0.05063144
1.00005726 0.56952142 0.10885575
0.00000000 0.99994648 0.00000395
0.00000000 0.99994648 0.00000395
0.00000000 0.99994648 0.00000395
0.00000000 0.99994648 0.00000395
0.00000000 0.99994648 0.00000395
0.05851604 1.00079550 0.00000000
1.00005158 0.90966893 0.00000466
1.00041592 0.80064293 0.00000000
1.00043635 0.74693648 0.00000796
0.00000000 0.99994648 0.00000395
0.00000000 0.99994648 0.00000395
0.00000000 0.99994648 0.00000395
0.00000000 0.99994648 0.00000395
0.00000000 0.99994648 0.00000395
0.00000000 0.99994648 0.00000395
0.32819375 1.00005490 0.00000014
1.00071851 0.96418997 0.00000922
1.00036840 0.91781985 0.00000000
0.00000000 0.99994016 0.02975855
0.00000000 0.99994648 0.00000395
0.00000000 0.99994648 0.00000395
0.00000000 0.99994648 0.00000395
0.00000000 0.99994648 0.00000395
0.00000000 0.99994648 0.00000395
0.00000000 0.99994648 0.00000395
0.75691123 0.99710866 0.00000000
1.00064782 0.96844919 0.00001141
0.38179453 0.00000000 0.06002867
0.00000000 0.00000000 0.00000000
0.78271069 0.00000000 0.00000000
1.00459564 0.00000000 0.17535969
0.99445044 0.70370421 0.43429188
0.99993787 0.28687360 0.49275557
0.99993787 0.28687360 0.49275557
0.99993787 0.28687360 0.49275557
0.99993787 0.28687360 0.49275557
0.46491008 0.00000000 0.67747789
0.00000000 0.00000000 0.15056526
0.17861961 0.00001134 0.08575461
0.69504437 0.00000993 0.14570949
0.99993595 0.06641559 0.46058424
0.99993787 0.28687360 0.49275557
0.99993787 0.28687360 0.49275557
0.99993787 0.28687360 0.49275557
0.99993787 0.28687360 0.49275557
0.11332424 0.51345981 0.94801523
0.00000000 0.04535334 0.39327075
0.02464188 0.00326145 0.19299011
0.41553537 0.00021352 0.19254438
0.95845006 0.00000000 0.37763219
0.99997095 0.20929508 0.55825137
0.99993883 0.28743434 0.50536692
0.99993787 0.28687360 0.49275557
0.99993787 0.28687360 0.49275557
0.00000000 0.87539633 0.90447210
0.00000000 0.46265642 0.47258539
0.00000218 0.28029102 0.26548894
0.18766237 0.18766237 0.18766237
0.76792187 0.14635831 0.22355941
0.99993759 0.25616240 0.48040303
0.99994772 0.35335518 0.50774740
1.00012646 0.31139837 0.49224695
0.99993777 0.28695337 0.49269271
0.00000000 1.00194298 0.75684757
0.00000000 0.86486623 0.36780221
0.00000625 0.71707019 0.16957501
0.00000000 0.62031576 0.04895872
0.48598858 0.51491958 0.01729718
0.99870322 0.47681527 0.18122487
0.99997035 0.49696013 0.42568959
1.00011982 0.45188537 0.41501975
0.99993805 0.40341948 0.40085562
0.18047553 1.00003877 0.43342272
0.00000000 0.99994605 0.03581485
0.00000382 0.99993995 0.00088833
0.00000000 0.99167642 0.00000291
0.00030279 0.91816932 0.00000000
0.77065005 0.77057099 0.00000293
1.00048499 0.70861978 0.12983586
1.00001082 0.62421478 0.26959922
0.99996329 0.57045964 0.26012797
0.00000000 0.99994648 0.00000395
0.00000000 0.99994648 0.00000395
0.00000000 0.99994648 0.00000395
0.00000000 0.99994648 0.00000395
0.00000000 0.99994648 0.00000395
0.00075078 1.00011216 0.00000000
1.00049785 0.91625225 0.00000000
1.00018211 0.84906929 0.00000000
1.00012860 0.78319550 0.00020207
0.00000000 1.00035174 0.95163492
0.00000000 0.99994648 0.00034348
0.00000000 0.99994648 0.00000395
0.00000000 0.99994648 0.00000395
0.00000000 0.99994648 0.00000395
0.00000000 0.99994648 0.00000395
0.21584480 0.99993713 0.00000000
1.00036252 0.96638982 0.00000000
1.00009743 0.92090978 0.00000000
0.00000000 1.00035409 0.99729852
0.00001108 0.99993788 0.34346049
0.00000000 0.99994560 0.00170725
0.00000000 0.99994648 0.00000395
0.00000000 0.99994648 0.00000395
0.00000000 0.99994648 0.00000395
0.00000000 0.99994648 0.00000395
0.64222828 1.00081370 0.00001080
1.00044853 0.96875336 0.00000000
0.98566947 0.00000000 0.10708693
0.00000000 0.00000000 0.00000672
0.76691689 0.09142177 0.00411612
1.00297861 0.00057239 0.23749875
1.00003490 0.89885549 0.24307512
1.00008527 0.23969283 0.24417139
0.99994119 0.29130933 0.29439623
0.99993787 0.28718775 0.49118025
0.99993787 0.28687360 0.49275557
0.30682315 0.00000000 0.97764362
0.00865827 0.00000000 0.48355314
0.22076862 0.00000896 0.34128129
0.70176140 0.00000722 0.41072739
0.99993693 0.00252194 0.64072992
0.99995041 0.29443378 0.57432789
0.99993766 0.28827031 0.52036334
0.99993825 0.28696535 0.49403063
0.99993787 0.28687360 0.49275557
0.12007478 0.38776997 1.00461396
0.00887834 0.00284544 0.80198347
0.05918330 0.00001014 0.56520088
0.46172186 0.00000317 0.54652290
0.95595933 0.00000000 0.65508965
0.99993949 0.15219103 0.70803427
0.99997234 0.29750990 0.60871837
0.99994968 0.29145010 0.55309169
0.99993583 0.28791627 0.50485695
0.18083511 0.81533607 1.00838512
0.00000000 0.43144514 0.91014862
0.00000000 0.25870739 0.73554629
0.23770735 0.14761317 0.62893209
0.76953692 0.09584315 0.59838753
0.99994932 0.19950888 0.68944018
0.99995405 0.36981012 0.62666028
0.99993724 0.32930968 0.59628208
0.99993607 0.29585293 0.55841420
0.00000000 0.98151695 1.00222822
0.00000000 0.82237718 0.85544689
0.00000117 0.69385386 0.68869440
0.00016268 0.60301029 0.58323354
0.48842494 0.48842494 0.48842494
0.99642358 0.44652798 0.51258564
0.99993587 0.49681098 0.59046379
1.00005712 0.45949472 0.55969203
0.99993858 0.41367885 0.53137348
0.00000000 1.00078247 0.89680494
0.00000000 1.00008025 0.63372533
0.00000833 0.99720208 0.52479771
0.00000054 0.96780333 0.43315232
0.00041573 0.89109242 0.35896901
0.73233583 0.75840044 0.30741829
0.99997805 0.69214585 0.44059634
1.00005889 0.61913935 0.47929498
0.99994237 0.57005996 0.45079721
0.00000000 1.00070414 0.90794191
0.00000865 0.99995193 0.30791757
0.00000000 0.99993953 0.16220743
0.00000000 0.99993629 0.06978933
0.00000000 0.99993905 0.01660763
0.00057833 0.99993797 0.01130885
0.98033242 0.98786008 0.02119732
1.00015755 0.84085736 0.26434771
1.00031586 0.76852814 0.26783071
0.69104744 1.00054460 1.00089957
0.00000076 0.99997353 0.56440707
0.00000165 0.99993582 0.14392373
0.00000000 0.99994229 0.00020768
0.00000000 0.99994648 0.00000395
0.00000000 0.99994648 0.00000395
0.13905478 0.99994457 0.00000911
1.00014995 0.98135009 0.00612210
1.00024510 0.96735455 0.00044229
0.70135890 0.90003373 1.01140756
0.00000018 1.00076553 0.88170834
0.00000884 0.99994162 0.53480326
0.00000756 0.99993744 0.23008222
0.00001013 0.99994042 0.00100371
0.00000000 0.99994648 0.00000395
0.00000000 0.99994648 0.00000395
0.54386964 1.00029053 0.00000000
1.00064782 0.96829628 0.00000579
0.01648685 0.00153319 1.00056225
0.00000000 0.10178009 0.00736484
0.75921787 0.01208562 0.00290578
1.00197613 0.00000000 0.32226927
1.00010527 0.05887605 0.14400710
0.99745795 0.40104431 0.31741010
1.00064120 0.27616180 0.31537614
1.00001408 0.23803981 0.22995241
1.00007935 0.29304804 0.31934571
0.48629211 0.00000000 1.00003017
0.07463638 0.00000166 0.84938295
0.29655193 0.00000885 0.73157272
0.73139141 0.00000013 0.75223298
0.99994025 0.00000195 0.87936052
0.99994074 0.27702478 0.68674892
0.99993819 0.29850963 0.62977349
0.99999900 0.29443531 0.57435676
0.99993884 0.28729606 0.51823557
0.54563614 0.31970181 1.00801217
0.18674604 0.00000044 0.96160194
0.17786121 0.00001137 0.91500512
0.54024177 0.00001139 0.93252246
0.96195193 0.00000982 0.94228473
0.99994367 0.03480453 0.92269680
0.99994105 0.25799322 0.73209199
1.00000412 0.28806906 0.66314281
0.99994071 0.29764970 0.60915016
0.15661736 0.72179584 1.00083645
0.01092418 0.33502152 0.99994569
0.00358427 0.16957640 1.00078900
0.35683313 0.04683974 1.00037851
0.80056854 0.01782845 0.96223140
0.99994476 0.09476413 0.95449775
0.99997963 0.33762288 0.75593459
0.99993883 0.31164281 0.70989374
0.99995266 0.29391370 0.66885263
0.00471784 0.88545820 0.99998113
0.00000000 0.74155564 0.99993694
0.00000000 0.64377625 0.99994073
0.00129568 0.56097153 0.98529664
0.52811956 0.44648560 0.88250350
0.99370586 0.39302402 0.82957036
0.99993593 0.47854951 0.75768372
0.99993897 0.46370911 0.69647420
0.99993587 0.42689658 0.66062345
0.00000000 0.99508522 1.00034363
0.00000461 0.94992342 0.99998841
0.00000828 0.92469195 0.98504861
0.00000000 0.89681349 0.92279125
0.00161971 0.84956615 0.83274149
0.72221023 0.72221023 0.72221023
0.99994190 0.66303035 0.71626092
0.99993661 0.61696546 0.66906960
0.99994153 0.57111620 0.63057236
0.41633002 0.98222509 1.00626197
0.00001110 1.00014133 0.83224803
0.00000000 0.99994369 0.73841557
0.00000078 0.99995126 0.66821161
0.00000861 1.00003044 0.59674759
0.00095818 1.00061915 0.53527495
0.92523992 0.95058603 0.47092893
1.00001914 0.81764799 0.54837319
1.00012283 0.75121488 0.53003202
0.00000000 0.95713896 1.00084951
0.00000869 0.99183361 0.98927922
0.00000000 0.99993585 0.74418314
0.00001152 1.00000786 0.48721069
0.00000738 0.99994573 0.27417847
0.00000000 0.99994622 0.19285377
0.05802421 0.99999954 0.17691424
1.00057314 0.99993639 0.15669275
1.00023717 0.97798380 0.25145956
0.00000595 0.98622846 0.99996515
0.00000595 0.98622846 0.99996515
0.00000000 0.99314726 0.98460885
0.00001118 1.00007368 0.81214046
0.00000000 0.99994341 0.54763955
0.00000000 0.99998786 0.27189256
0.00000114 0.99993618 0.04733622
0.47034137 0.99993584 0.00000602
1.00052747 0.99634272 0.01676814
0.06710902 0.00000000 1.00251812
0.00070974 0.49389155 0.00579645
0.76570434 0.00000000 0.85627232
1.00236643 0.00000000 0.82462051
0.99994648 0.09435743 0.92263073
0.99995769 0.44283985 0.20565430
0.99533154 0.43221867 0.29651147
1.00006544 0.40373644 0.35020767
1.00042873 0.25899064 0.28836778
0.67627081 0.00001123 1.00138259
0.25775256 0.00000878 0.99396539
0.41631680 0.00000215 1.00081244
0.77230177 0.00000000 1.00044494
0.99994648 0.00000000 0.99994811
0.99993687 0.19713394 0.84750623
0.99994377 0.24498298 0.76146730
0.99994800 0.27697157 0.68664469
0.99994154 0.29859003 0.62996299
0.76914909 0.00000000 0.99993617
0.46025173 0.00001154 0.99995574
0.36235092 0.00000172 1.00032844
0.62391396 0.00000223 0.99995995
0.97934997 0.00001152 0.99994472
0.99994648 0.00000000 0.99994500
0.99993886 0.16609515 0.90210638
0.99993641 0.22002403 0.80932871
0.99994143 0.25779456 0.73247938
0.31708162 0.36705925 1.00002155
0.39315922 0.06185253 0.99994284
0.33709164 0.00937118 0.99993722
0.51382737 0.00000960 1.00008427
0.85608970 0.00001112 1.00015126
0.99994353 0.00000000 0.99995595
0.99993703 0.25622175 0.93253597
0.99993906 0.24491951 0.86884285
0.99993639 0.23234042 0.81327710
0.00000000 0.72410888 1.00025845
0.00175040 0.58103804 0.99993705
0.00284137 0.52244243 0.99993659
0.11431410 0.44540778 0.99993703
0.60606459 0.32875953 1.00002033
0.99975239 0.28169648 0.99994870
0.99994162 0.40012057 0.98241554
0.99993885 0.41396904 0.85489577
0.99993680 0.38269066 0.80446825
0.00000000 0.95184735 1.00006941
0.00000000 0.85997757 0.99993583
0.00000855 0.82812131 0.99996293
0.00000813 0.80128300 0.99994529
0.03779078 0.75406841 0.99997811
0.73329862 0.65020784 1.00015818
0.99994253 0.59580373 1.00080417
0.99993607 0.59181353 0.84368420
1.00004796 0.55660097 0.78811108
0.00000000 0.99289208 1.00082932
0.00000000 0.98518650 0.99994321
0.00000867 0.98012059 0.99993619
0.00000000 0.97023981 0.99993606
0.00000000 0.95902953 0.99993850
0.00534775 0.96236781 0.98165029
0.87934675 0.87934675 0.87934675
0.99996494 0.79079563 0.81886551
1.00007432 0.73357881 0.76280199
0.00000595 0.98622846 0.99996515
0.00000595 0.98622846 0.99996515
0.00000000 0.98688557 0.99994281
0.00000878 0.99545417 0.96980351
0.00000000 1.00001611 0.80738384
0.00000000 0.99994397 0.72114543
0.01730387 0.99993588 0.67029201
0.99265796 1.00080218 0.58141456
1.00010384 0.94380719 0.60011089
0.00000595 0.98622846 0.99996515
0.00000595 0.98622846 0.99996515
0.00000595 0.98622846 0.99996515
0.00000000 0.98627066 0.99996392
0.00000000 0.99186219 0.99140066
0.00000172 0.99993601 0.83139488
0.00000527 0.99996595 0.59193135
0.44160301 0.99993616 0.44657328
1.00014216 0.99994134 0.31082616
0.43352639 0.00000000 0.99718923
0.03620956 0.04706440 0.99991741
0.76595581 0.00000000 1.00054155
1.00380686 0.00000000 1.00068269
0.99994648 0.00000000 0.99994811
0.99993596 0.60688981 0.07059716
0.99152441 0.49833878 0.00114198
1.00029465 0.43591104 0.21159973
1.00054827 0.41105734 0.36266680
0.60970076 0.00661835 1.00022731
0.47142156 0.00000000 0.99997841
0.53702148 0.00000797 1.00012011
0.82397246 0.00000747 0.99998406
0.99994648 0.00000000 0.99994811
0.99993767 0.03856631 0.99775850
0.99996725 0.13855795 0.94484473
0.99993621 0.20141723 0.84337652
0.99993770 0.24387021 0.76303791
0.53164741 0.00000000 0.99134366
0.51734762 0.00000503 0.99997632
0.52614248 0.00000000 1.00032047
0.70296875 0.00001147 1.00030432
0.98916992 0.00001086 0.99994159
0.99994648 0.00000000 0.99994811
0.99993656 0.01171992 1.00035743
0.99994557 0.08883895 0.99343360
0.99993673 0.16532358 0.90685469
0.52635842 0.00000000 0.99999806
0.52547953 0.00000960 0.99993601
0.52264131 0.00000748 1.00031288
0.64669624 0.00000960 1.00007293
0.92328073 0.00000000 0.99997262
0.99994648 0.00000000 0.99994811
0.99993749 0.07113743 1.00024495
0.99994550 0.10568744 1.00030055
0.99996404 0.11612073 0.99193361
0.00000000 0.88848501 1.00062404
0.29889868 0.30856814 0.99993778
0.34463243 0.21084038 0.99993590
0.41774774 0.15082839 0.99994706
0.70515834 0.09066382 1.00018426
1.00083658 0.05223391 0.99998145
0.99993594 0.21954776 0.99995986
0.99994426 0.31133451 1.00000482
0.99993636 0.29380221 0.99057765
0.00000000 0.99996033 1.00004615
0.00000000 0.82291904 0.99994087
0.00006355 0.68187890 0.99993729
0.00009123 0.64400356 0.99994089
0.28753703 0.58630736 0.99993694
0.75827269 0.52282926 1.00009173
0.99997561 0.47370897 1.00005433
0.99993609 0.51673572 0.99996021
0.99993601 0.49056315 0.98480971
0.00000595 0.98622846 0.99996515
0.00000000 0.98512280 0.99995051
0.00001151 0.96181689 0.99996391
0.00000000 0.90946826 0.99993627
0.00000615 0.87632507 0.99994224
0.13177338 0.86079128 0.99999200
0.85703211 0.77243188 0.99994204
1.00003966 0.71908466 1.00017735
0.99994771 0.68305319 0.96751453
0.00000595 0.98622846 0.99996515
0.00000595 0.98622846 0.99996515
0.00000595 0.98622846 0.99996515
0.00000595 0.98622846 0.99996515
0.00000000 0.98604772 0.99996111
0.00048007 0.98272573 0.99993719
0.06151888 0.99124447 1.00039062
0.95522010 0.95522010 0.95522010
0.99993671 0.89738331 0.90538709
0.00000595 0.98622846 0.99996515
0.00000595 0.98622846 0.99996515
0.00000595 0.98622846 0.99996515
0.00000595 0.98622846 0.99996515
0.00000595 0.98622846 0.99996515
0.00000000 0.98649360 0.99999281
0.00000000 0.99110960 0.98476497
0.35182359 0.99994197 0.85201643
1.00006716 1.00005558 0.72522871
0.47133187 0.51393391 1.00011203
0.47750977 0.00000000 1.00006088
0.90966241 0.49342584 0.99995131
1.00500563 0.00000000 1.00132792
0.99994648 0.00000000 0.99994811
0.99994127 0.00263049 0.99996137
1.00070418 0.41143614 0.99288857
1.00012141 0.61464797 0.43372494
0.99214865 0.48937782 0.00801925
0.49733883 0.00000000 1.00004485
0.49699019 0.00000000 1.00001993
0.60974202 0.00000017 1.00012433
0.88708592 0.00000000 0.99993580
0.99994648 0.00000000 0.99994811
0.99994648 0.00000000 0.99994811
0.99994560 0.00214185 0.99996455
0.99993608 0.05053309 0.99776763
0.99998520 0.13778440 0.94508578
0.52282707 0.00000000 1.00063432
0.51264010 0.00001154 1.00038445
0.51306863 0.00000000 1.00000724
0.70017119 0.00000831 1.00027076
0.99326504 0.00001004 0.99993925
0.99994648 0.00000000 0.99994811
0.99994648 0.00000000 0.99994811
0.99994648 0.00000729 0.99994929
0.99994607 0.00933194 0.99996637
0.52257499 0.00000000 0.99993763
0.53251354 0.00000946 1.00004601
0.52397208 0.00001136 1.00010608
0.60754064 0.00000717 0.99998210
0.88229890 0.00000934 0.99999858
0.99994648 0.00000000 0.99994811
0.99994648 0.00000000 0.99994811
0.99994648 0.00000000 0.99994811
0.99994648 0.00000000 0.99994811
0.00000171 0.94854861 1.00122999
0.28202632 0.31980558 0.99994151
0.47507706 0.00277241 0.99995960
0.53877770 0.00000567 1.00003628
0.70998535 0.00000938 0.99997505
0.99872440 0.00000000 0.99996172
0.99994624 0.00000000 0.99994762
0.99993705 0.07349116 1.00000234
0.99993871 0.09083312 1.00028330
0.83666687 1.00019939 1.00047205
0.00000000 0.84503902 0.99993877
0.00000000 0.68878015 0.99993584
0.08460565 0.52562183 0.99993590
0.45978923 0.34422151 0.99993667
0.74191864 0.32375270 0.99993678
1.00012777 0.30307347 0.99998640
0.99993585 0.36920982 1.00032245
0.99994648 0.36075796 1.00004525
0.00000595 0.98622846 0.99996515
0.00000595 0.98622846 0.99996515
0.00000845 0.97046470 0.99996011
0.00000000 0.92161258 0.99993963
0.00000125 0.83972687 0.99994197
0.33875817 0.71024796 0.99993756
0.82163045 0.64521711 0.99993761
0.99994018 0.60015721 0.99993858
0.99993611 0.58700386 1.00002005
0.00000595 0.98622846 0.99996515
0.00000595 0.98622846 0.99996515
0.00000595 0.98622846 0.99996515
0.00000595 0.98622846 0.99996515
0.00000609 0.98577113 0.99995784
0.00000000 0.97569135 0.99997373
0.16560469 0.95565761 0.99994149
0.92450851 0.87323933 1.00022553
0.99994610 0.82210531 0.99994099
0.00000595 0.98622846 0.99996515
0.00000595 0.98622846 0.99996515
0.00000595 0.98622846 0.99996515
0.00000595 0.98622846 0.99996515
0.00000595 0.98622846 0.99996515
0.00000595 0.98622846 0.99996515
0.00000595 0.98579550 0.99994174
0.24098998 1.00014643 0.99993874
0.99989392 0.99989392 0.99989392
