LUT/VELVIA.cube
TITLE "Velvia"
LUT_3D_SIZE 5
# Apple Log/Rec2020 -> LA - :FLog2C_to_Velvia/LA - :FLog2C_to_Velvia, CineEI Shift 0.00, Black Level -0.00% IRE, Input 109% -> Output 100% - Created with LUTCalc v4.09 by Ben Turley February 2025
0.00000000 0.00000000 0.00000000
0.93255073 0.00000000 0.00000000
1.00027872 0.68162228 0.54566042
0.99993787 0.28687360 0.49275557
0.99993787 0.28687360 0.49275557
0.00000000 0.24362300 0.00000000
0.13716353 0.00056598 0.02023326
1.00004478 0.12976637 0.38528651
0.99993787 0.28687360 0.49275557
0.99993787 0.28687360 0.49275557
0.00000556 1.00030643 0.60840640
0.00000000 0.58933063 0.01064635
0.76323591 0.40548969 0.00000000
0.99303440 0.42603471 0.36738002
1.00022509 0.33716042 0.44314902
0.00000000 0.99994648 0.00000395
0.00000000 0.99994648 0.00000395
0.00000000 0.99994648 0.00000395
1.00032718 0.78207047 0.00000000
1.00058551 0.67321217 0.00000000
0.00000000 0.99994648 0.00000395
0.00000000 0.99994648 0.00000395
0.00000000 0.99994648 0.00000395
0.52146037 0.99995390 0.00000000
1.00057847 0.96678896 0.00000056
0.00000000 0.00000000 0.93550799
0.83689021 0.02751476 0.00000000
1.00100453 0.64110064 0.68625378
0.99993787 0.28687360 0.49275557
0.99993787 0.28687360 0.49275557
0.00000000 0.47708363 0.52995411
0.01793229 0.01793229 0.01793229
0.96850923 0.00053987 0.17380100
0.99993787 0.28687360 0.49275557
0.99993787 0.28687360 0.49275557
0.00000000 1.00402341 0.00000000
0.00000000 0.72657954 0.00000883
0.50440113 0.51820644 0.00000000
1.00001283 0.49554378 0.27055051
1.00027681 0.39375405 0.38058229
0.00000000 0.99994648 0.00000395
0.00000000 0.99994648 0.00000395
0.00000000 0.99994648 0.00000395
1.00005158 0.90966893 0.00000466
1.00043635 0.74693648 0.00000796
0.00000000 0.99994016 0.02975855
0.00000000 0.99994648 0.00000395
0.00000000 0.99994648 0.00000395
0.00000000 0.99994648 0.00000395
1.00064782 0.96844919 0.00001141
0.98566947 0.00000000 0.10708693
0.76691689 0.09142177 0.00411612
1.00003490 0.89885549 0.24307512
0.99994119 0.29130933 0.29439623
0.99993787 0.28687360 0.49275557
0.12007478 0.38776997 1.00461396
0.05918330 0.00001014 0.56520088
0.95595933 0.00000000 0.65508965
0.99997234 0.29750990 0.60871837
0.99993583 0.28791627 0.50485695
0.00000000 0.98151695 1.00222822
0.00000117 0.69385386 0.68869440
0.48842494 0.48842494 0.48842494
0.99993587 0.49681098 0.59046379
0.99993858 0.41367885 0.53137348
0.00000000 1.00070414 0.90794191
0.00000000 0.99993953 0.16220743
0.00000000 0.99993905 0.01660763
0.98033242 0.98786008 0.02119732
1.00031586 0.76852814 0.26783071
0.70135890 0.90003373 1.01140756
0.00000884 0.99994162 0.53480326
0.00001013 0.99994042 0.00100371
0.00000000 0.99994648 0.00000395
1.00064782 0.96829628 0.00000579
0.06710902 0.00000000 1.00251812
0.76570434 0.00000000 0.85627232
0.99994648 0.09435743 0.92263073
0.99533154 0.43221867 0.29651147
1.00042873 0.25899064 0.28836778
0.76914909 0.00000000 0.99993617
0.36235092 0.00000172 1.00032844
0.97934997 0.00001152 0.99994472
0.99993886 0.16609515 0.90210638
0.99994143 0.25779456 0.73247938
0.00000000 0.72410888 1.00025845
0.00284137 0.52244243 0.99993659
0.60606459 0.32875953 1.00002033
0.99994162 0.40012057 0.98241554
0.99993680 0.38269066 0.80446825
0.00000000 0.99289208 1.00082932
0.00000867 0.98012059 0.99993619
0.00000000 0.95902953 0.99993850
0.87934675 0.87934675 0.87934675
1.00007432 0.73357881 0.76280199
0.00000595 0.98622846 0.99996515
0.00000595 0.98622846 0.99996515
0.00000000 0.99186219 0.99140066
0.00000527 0.99996595 0.59193135
1.00014216 0.99994134 0.31082616
0.47133187 0.51393391 1.00011203
0.90966241 0.49342584 0.99995131
0.99994648 0.00000000 0.99994811
1.00070418 0.41143614 0.99288857
0.99214865 0.48937782 0.00801925
0.52282707 0.00000000 1.00063432
0.51306863 0.00000000 1.00000724
0.99326504 0.00001004 0.99993925
0.99994648 0.00000000 0.99994811
0.99994607 0.00933194 0.99996637
0.00000171 0.94854861 1.00122999
0.47507706 0.00277241 0.99995960
0.70998535 0.00000938 0.99997505
0.99994624 0.00000000 0.99994762
0.99993871 0.09083312 1.00028330
0.00000595 0.98622846 0.99996515
0.00000845 0.97046470 0.99996011
0.00000125 0.83972687 0.99994197
0.82163045 0.64521711 0.99993761
0.99993611 0.58700386 1.00002005
0.00000595 0.98622846 0.99996515
0.00000595 0.98622846 0.99996515
0.00000595 0.98622846 0.99996515
0.00000595 0.98579550 0.99994174
0.99989392 0.99989392 0.99989392
