LUT/VELVIA.cube
TITLE "Velvia"
LUT_3D_SIZE 33
# Apple Log/Rec2020 -> LA - :FLog2C_to_Velvia/LA - :FLog2C_to_Velvia, CineEI Shift 0.00, Black Level -0.00% IRE, Input 109% -> Output 100% - Created with LUTCalc v4.09 by Ben Turley February 2025
0.00000000 0.00000000 0.00000000
0.00000000 0.00000000 0.00000000
0.00000000 0.00000000 0.00000000
0.00000000 0.00000000 0.00000000
0.00000000 0.00000000 0.00000000
0.68289792 0.00000000 0.00000000
0.81451512 0.00000000 1.00097236
0.88593044 0.00000000 0.00000000
0.93255073 0.00000000 0.00000000
0.98870302 0.00000000 0.00000000
1.00128264 0.11663352 0.62096831
1.00602941 0.82119056 0.61677153
1.01168615 0.99681482 0.72119696
1.00779497 0.74675740 0.88451813
1.00136851 0.63020964 0.90237536
0.99994397 0.71976602 0.77096984
1.00027872 0.68162228 0.54566042
1.00022188 0.52850419 0.47332501
1.00096356 0.35313414 0.48967377
0.99993787 0.28687360 0.49275557
0.99993787 0.28687360 0.49275557
0.99993787 0.28687360 0.49275557
0.99993787 0.28687360 0.49275557
0.99993787 0.28687360 0.49275557
0.99993787 0.28687360 0.49275557
0.99993787 0.28687360 0.49275557
0.99993787 0.28687360 0.49275557
0.99993787 0.28687360 0.49275557
0.99993787 0.28687360 0.49275557
0.99993787 0.28687360 0.49275557
0.99993787 0.28687360 0.49275557
0.99993787 0.28687360 0.49275557
0.99993787 0.28687360 0.49275557
0.00000000 0.00000000 0.00000000
0.00000000 0.00000000 0.00000000
0.00000000 0.00000000 0.00000000
0.00000000 0.00000000 0.00000000
0.00000000 0.00000000 0.00000000
0.36576911 0.00000049 0.00000000
0.54362162 0.00000000 0.96545702
0.66138775 0.00000000 0.00000000
0.75587951 0.00000000 0.00000000
0.86591504 0.00000000 0.00000000
0.98286235 0.03016759 0.39608736
1.00130681 0.52096173 0.33665962
1.00426638 0.87264775 0.45068778
1.00300752 0.41300849 0.65004666
1.00013649 0.33979164 0.71107313
1.00009436 0.46567255 0.60789279
1.00074039 0.47590616 0.49855453
1.00132383 0.39723857 0.47728920
1.00024485 0.31389286 0.49042072
0.99993787 0.28687360 0.49275557
0.99993787 0.28687360 0.49275557
0.99993787 0.28687360 0.49275557
0.99993787 0.28687360 0.49275557
0.99993787 0.28687360 0.49275557
0.99993787 0.28687360 0.49275557
0.99993787 0.28687360 0.49275557
0.99993787 0.28687360 0.49275557
0.99993787 0.28687360 0.49275557
0.99993787 0.28687360 0.49275557
0.99993787 0.28687360 0.49275557
0.99993787 0.28687360 0.49275557
0.99993787 0.28687360 0.49275557
0.99993787 0.28687360 0.49275557
0.00000000 0.00000000 0.00000000
0.00000000 0.00000000 0.00000000
0.00000000 0.00000000 0.00000000
0.00000000 0.00000000 0.00000000
0.00000000 0.00000000 0.00000000
0.20070325 0.00912009 0.00000000
0.39784819 0.00010403 0.88007091
0.53459360 0.00000000 0.00000000
0.61718429 0.00000000 0.00000000
0.74661768 0.00000000 0.00000000
0.92492910 0.01413504 0.28135284
1.00132776 0.35194352 0.19724114
1.00119301 0.73584704 0.30645584
1.00102449 0.23392682 0.51767617
1.00014115 0.19406602 0.58941859
1.00027613 0.33238894 0.53692697
1.00017983 0.36981158 0.47809040
1.00066297 0.33742025 0.47892652
0.99999540 0.29653543 0.49073021
0.99993787 0.28687360 0.49275557
0.99993787 0.28687360 0.49275557
0.99993787 0.28687360 0.49275557
0.99993787 0.28687360 0.49275557
0.99993787 0.28687360 0.49275557
0.99993787 0.28687360 0.49275557
0.99993787 0.28687360 0.49275557
0.99993787 0.28687360 0.49275557
0.99993787 0.28687360 0.49275557
0.99993787 0.28687360 0.49275557
0.99993787 0.28687360 0.49275557
0.99993787 0.28687360 0.49275557
0.99993787 0.28687360 0.49275557
0.99993787 0.28687360 0.49275557
0.00000000 0.00000000 0.00000000
0.00000000 0.00000000 0.00000000
0.00000000 0.00000000 0.00000000
0.00000000 0.00000000 0.00000000
0.00000000 0.00000000 0.00000000
0.08877080 0.49699076 0.00000000
0.25230574 0.01614895 0.31594734
0.41265185 0.00000000 0.00000000
0.50864917 0.00000000 0.00000000
0.61765395 0.00000000 0.00094781
0.82834043 0.00185958 0.20184210
0.95117646 0.00186207 0.12838584
1.00056739 0.16304971 0.22633897
1.00043063 0.08370006 0.40045330
1.00022281 0.11367323 0.50717698
1.00078951 0.21609021 0.51332269
1.00053073 0.29141158 0.48757273
1.00005579 0.30708271 0.48601577
0.99996597 0.29289749 0.49291004
0.99993787 0.28687360 0.49275557
0.99993787 0.28687360 0.49275557
0.99993787 0.28687360 0.49275557
0.99993787 0.28687360 0.49275557
0.99993787 0.28687360 0.49275557
0.99993787 0.28687360 0.49275557
0.99993787 0.28687360 0.49275557
0.99993787 0.28687360 0.49275557
0.99993787 0.28687360 0.49275557
0.99993787 0.28687360 0.49275557
0.99993787 0.28687360 0.49275557
0.99993787 0.28687360 0.49275557
0.99993787 0.28687360 0.49275557
0.99993787 0.28687360 0.49275557
0.00000000 0.00000000 0.00000000
0.00000000 0.00000000 0.00000000
0.00000000 0.00000000 0.00000000
0.00000000 0.00000000 0.00000000
0.00000000 0.00000000 0.00000000
0.01445370 0.02105405 0.00001126
0.11106517 0.00343970 0.00000000
0.27722689 0.00096500 0.00000000
0.39815111 0.02048385 0.00000000
0.52909474 0.57121145 0.00000989
0.65747076 0.62581944 0.49823446
0.79387207 0.00000000 0.06979542
0.93974864 0.00000000 0.13389849
1.00130334 0.69200761 0.27022910
1.00107758 0.42312862 0.41901832
1.00010545 0.12440129 0.49173527
0.99997727 0.20927119 0.50174703
0.99993993 0.28126739 0.49782287
0.99996492 0.29953913 0.50184745
0.99993787 0.28687360 0.49275557
0.99993787 0.28687360 0.49275557
0.99993787 0.28687360 0.49275557
0.99993787 0.28687360 0.49275557
0.99993787 0.28687360 0.49275557
0.99993787 0.28687360 0.49275557
0.99993787 0.28687360 0.49275557
0.99993787 0.28687360 0.49275557
0.99993787 0.28687360 0.49275557
0.99993787 0.28687360 0.49275557
0.99993787 0.28687360 0.49275557
0.99993787 0.28687360 0.49275557
0.99993787 0.28687360 0.49275557
0.99993787 0.28687360 0.49275557
0.36396302 0.39030311 0.49978862
0.03290546 0.05180033 0.06104764
0.00427068 0.00990011 0.00769057
0.00055123 0.00170400 0.00072359
0.00000000 0.00000480 0.00000000
0.00011252 0.00000717 0.00000000
0.09408587 0.00725633 0.00000000
0.12448981 0.00143102 0.00000000
0.21968323 0.00061570 0.00000000
0.38874506 0.00000000 0.00000000
0.50737439 0.00000000 0.00000000
0.68652777 0.00000000 0.19782012
0.82831142 0.00000000 0.18561672
0.96039797 0.00000000 0.20042566
1.00043126 0.00057631 0.27965575
1.00011912 0.10761269 0.40662262
1.00014277 0.18837081 0.48688240
1.00011307 0.26074269 0.49237280
0.99943254 0.32623984 0.47224275
0.99597432 0.32731829 0.49250439
0.99993787 0.28687360 0.49275557
0.99993787 0.28687360 0.49275557
0.99993787 0.28687360 0.49275557
0.99993787 0.28687360 0.49275557
0.99993787 0.28687360 0.49275557
0.99993787 0.28687360 0.49275557
0.99993787 0.28687360 0.49275557
0.99993787 0.28687360 0.49275557
0.99993787 0.28687360 0.49275557
0.99993787 0.28687360 0.49275557
0.99993787 0.28687360 0.49275557
0.99993787 0.28687360 0.49275557
0.99993787 0.28687360 0.49275557
0.00000000 0.27871662 0.00052326
0.00000000 0.08131465 0.00004208
0.00001109 0.03782959 0.00000000
0.00000000 0.01938108 0.00015459
0.00000000 0.00148103 0.00000000
0.21648668 0.00037268 0.03780369
0.29986694 0.00044914 0.00000000
0.13554132 0.01091837 0.00000000
0.16797999 0.00163862 0.00201739
0.30836847 0.00000000 0.00000916
0.42124985 0.00000000 0.00000000
0.59108165 0.47618658 0.40337571
0.76269821 0.06873363 0.21467838
0.88746223 0.00000000 0.12836336
0.97580815 0.00066263 0.19024723
0.99993821 0.05021107 0.34775513
1.00038067 0.10313990 0.47039453
1.00083693 0.17694775 0.51302767
1.00060212 0.26306272 0.49362180
1.00029144 0.29831429 0.50078379
0.99993692 0.28719825 0.49268406
0.99993784 0.28688307 0.49275348
0.99993787 0.28687360 0.49275557
0.99993787 0.28687360 0.49275557
0.99993787 0.28687360 0.49275557
0.99993787 0.28687360 0.49275557
0.99993787 0.28687360 0.49275557
0.99993787 0.28687360 0.49275557
0.99993787 0.28687360 0.49275557
0.99993787 0.28687360 0.49275557
0.99993787 0.28687360 0.49275557
0.99993787 0.28687360 0.49275557
0.99993787 0.28687360 0.49275557
0.00000000 0.26319229 0.00000000
0.00000000 0.10649967 0.00000000
0.00000000 0.06403658 0.00000000
0.00000000 0.04225553 0.00000632
0.00000000 0.02057844 0.00000000
0.00008874 0.00151216 0.62708915
0.31365251 0.00342447 0.00000000
0.10360049 0.00056374 0.00000000
0.15205456 0.00001154 0.00000000
0.23725710 0.00000000 0.35148481
0.36418826 0.00000000 0.15496975
0.54106191 0.15827716 0.03205625
0.69180960 0.00705679 0.00114658
0.82658376 0.00000000 0.07945634
0.93739096 0.00000000 0.15875898
1.00019511 0.01233952 0.26458312
1.00000353 0.11396092 0.41385728
1.00046092 0.14173556 0.50931977
1.00020671 0.19910063 0.52332506
1.00068074 0.27793783 0.48949468
1.00065435 0.31130398 0.48618219
0.99993594 0.28777203 0.49256050
0.99993787 0.28687360 0.49275557
0.99993787 0.28687360 0.49275557
0.99993787 0.28687360 0.49275557
0.99993787 0.28687360 0.49275557
0.99993787 0.28687360 0.49275557
0.99993787 0.28687360 0.49275557
0.99993787 0.28687360 0.49275557
0.99993787 0.28687360 0.49275557
0.99993787 0.28687360 0.49275557
0.99993787 0.28687360 0.49275557
0.99993787 0.28687360 0.49275557
0.00000000 0.24362300 0.00000000
0.00000000 0.11254204 0.00000000
0.00000000 0.07472817 0.00000000
0.00000000 0.05804881 0.00000000
0.00001113 0.05051282 0.02046630
0.00000000 0.00386057 0.38758976
0.00106982 0.00458164 0.47255827
0.00176974 0.00181905 0.00302665
0.13716353 0.00056598 0.02023326
0.21151956 0.00030666 0.00382855
0.30699931 0.00462290 0.00000000
0.46338242 0.00249111 0.00000000
0.61070502 0.00000000 0.00000000
0.78681743 0.00000000 0.25248778
0.92321302 0.00000546 0.37371333
0.99820938 0.01293714 0.26018353
1.00004478 0.12976637 0.38528651
1.00020724 0.12109219 0.49422438
1.00053902 0.17398206 0.52369352
0.99998286 0.27631675 0.47493201
0.99628807 0.33734977 0.47256475
0.99993833 0.28870262 0.49213936
0.99993787 0.28687360 0.49275557
0.99993787 0.28687360 0.49275557
0.99993787 0.28687360 0.49275557
0.99993787 0.28687360 0.49275557
0.99993787 0.28687360 0.49275557
0.99993787 0.28687360 0.49275557
0.99993787 0.28687360 0.49275557
0.99993787 0.28687360 0.49275557
0.99993787 0.28687360 0.49275557
0.99993787 0.28687360 0.49275557
0.99993787 0.28687360 0.49275557
0.00000000 0.33186482 0.00000000
0.00000000 0.14784755 0.00000000
0.00000000 0.09064285 0.00000000
0.00000000 0.07350144 0.00000000
0.00070553 0.08661471 0.51978379
0.09365094 0.03087557 0.00000000
0.00000000 0.01785648 0.65499974
0.00000000 0.01748227 0.58589863
0.11810136 0.01344028 0.14628916
0.24289963 0.00853303 0.00348465
0.24191938 0.01144676 0.00000000
0.37440313 0.00376542 0.00000000
0.53284422 0.00004968 0.00000000
0.72449875 0.00000000 0.38568642
0.87791960 0.00000000 0.68486001
0.97240148 0.00105927 0.45509224
1.00095471 0.04626354 0.38343510
1.00015494 0.06662870 0.47920910
0.99926587 0.11990565 0.52689905
1.00066624 0.23407984 0.48216508
1.00013748 0.32177774 0.46307395
1.00013118 0.29290045 0.49211639
0.99993873 0.28686803 0.49784713
0.99993787 0.28663188 0.49397081
0.99993787 0.28687360 0.49275557
0.99993787 0.28687360 0.49275557
0.99993787 0.28687360 0.49275557
0.99993787 0.28687360 0.49275557
0.99993787 0.28687360 0.49275557
0.99993787 0.28687360 0.49275557
0.99993787 0.28687360 0.49275557
0.99993787 0.28687360 0.49275557
0.99993787 0.28687360 0.49275557
0.00000000 0.54795896 0.00000000
0.00000000 0.31627391 0.00000000
0.00000000 0.20806773 0.00000000
0.00000000 0.15112829 0.00000000
0.00000035 0.16034655 0.03578651
0.00339292 0.11011259 0.00000000
0.00000000 0.05652815 0.38455594
0.00000000 0.05028335 0.00899613
0.05578813 0.04539678 0.02008188
0.12350990 0.03379432 0.23801102
0.23240441 0.01506976 0.00000000
0.35489690 0.01630656 0.00000201
0.50495671 0.02065843 0.00000000
0.66022456 0.01198733 0.00000000
0.80963003 0.01055355 0.40234547
0.95011404 0.01687240 0.81265318
1.00030101 0.03263266 0.44543189
1.00112521 0.06879009 0.43357830
1.00015733 0.13955605 0.51155022
0.99994676 0.22837736 0.51424886
1.00095367 0.29595528 0.46847309
1.00132649 0.31390662 0.49198208
0.99994904 0.28950271 0.51417295
0.99995856 0.28530712 0.50284244
0.99998512 0.28487971 0.49758924
0.99995868 0.28464038 0.49343689
0.99997031 0.28564201 0.49189495
0.99993738 0.28682701 0.49272210
0.99993787 0.28687360 0.49275557
0.99993787 0.28687360 0.49275557
0.99993787 0.28687360 0.49275557
0.99993787 0.28687360 0.49275557
0.99993787 0.28687360 0.49275557
0.00000000 0.67849128 0.00000000
0.00000215 0.44860404 0.00000000
0.00000000 0.32857647 0.00000000
0.00000000 0.25205258 0.00000000
0.00000000 0.25024576 0.00187979
0.00000000 0.18618809 0.00035407
0.00000000 0.12668908 0.04661521
0.00000000 0.10860209 0.00000000
0.00000000 0.08557955 0.00000000
0.02144712 0.06050976 0.00000000
0.17598852 0.04019951 0.00000000
0.30502404 0.05496677 0.02199173
0.45679858 0.05620549 0.00213853
0.59335460 0.03914091 0.00000000
0.75172960 0.04487469 0.00000000
0.89736116 0.06039850 0.23407690
0.99408568 0.06795516 0.92952691
0.99996336 0.08722163 0.45389354
1.00111332 0.15197994 0.48436151
1.00001589 0.23235283 0.49975750
1.00011249 0.28409751 0.46969589
1.00050986 0.33830441 0.48085575
0.99994422 0.30955056 0.49340295
1.00099774 0.27975762 0.53436250
1.00123828 0.26951576 0.53873872
1.00078335 0.26686900 0.50028540
0.99827933 0.27526783 0.48187593
0.99993738 0.28634579 0.49237615
0.99993787 0.28687360 0.49275557
0.99993787 0.28687360 0.49275557
0.99993787 0.28687360 0.49275557
0.99993787 0.28687360 0.49275557
0.99993787 0.28687360 0.49275557
0.00000774 0.81423738 0.62494011
0.00000021 0.57839598 0.10119845
0.00000433 0.46015143 0.01105344
0.00000000 0.35998669 0.00000000
0.00000000 0.33422409 0.00000232
0.00459113 0.26606323 0.65715949
0.00000000 0.20400956 0.01163116
0.00044257 0.16545711 0.00000000
0.00001097 0.15825516 0.00000000
0.00000000 0.11906702 0.00000000
0.08503150 0.09889559 0.00000000
0.28982241 0.09587992 0.00000829
0.42367264 0.10093687 0.01346871
0.56549609 0.08783148 0.79088512
0.70906393 0.08915232 0.80513578
0.83522722 0.11724746 0.78616340
0.95042178 0.14781103 0.98166452
0.99995508 0.16875937 0.98185881
1.00046649 0.20217611 0.47110591
1.00019531 0.24532761 0.47147254
0.99993636 0.27206972 0.48384045
0.99994586 0.32612025 0.47471301
1.00015279 0.33375948 0.47158339
0.99997009 0.29703991 0.50761729
1.00001725 0.29120553 0.51713686
0.99993654 0.28022245 0.49227321
0.99189631 0.28015757 0.47829077
0.99307192 0.28794273 0.49134829
0.99212272 0.27856938 0.50402607
1.00026048 0.26958233 0.50172639
0.99996057 0.28428031 0.49391058
0.99993751 0.28679333 0.49279113
0.99993787 0.28687360 0.49275557
0.99060627 0.87342551 0.93413782
0.85860227 0.66933809 0.78786015
0.71862073 0.55855647 0.66970555
0.36551755 0.47268976 0.08401272
0.00000928 0.43315718 0.05486991
0.00114870 0.37957153 0.81028131
0.00000000 0.32949665 0.73525888
0.00029382 0.27790620 0.00000000
0.00008110 0.26307691 0.00000000
0.00000000 0.21724090 0.00000000
0.00034798 0.18726757 0.00342184
0.18188832 0.17036416 0.05043967
0.37536178 0.16162831 0.00520003
0.52056637 0.15153344 0.36737968
0.64873676 0.14977684 0.60029336
0.77781345 0.17032223 0.28222180
0.89952259 0.20175417 0.25452540
0.99995061 0.22855378 0.81922272
1.00088774 0.25458980 0.93347814
1.00067780 0.28616391 0.45262272
1.00009410 0.30685006 0.47734611
1.00034464 0.33420581 0.43599346
1.00131706 0.35758645 0.45887438
1.00083445 0.32545503 0.48208471
1.00130602 0.31987032 0.49245042
1.00021263 0.30850688 0.47361053
0.99072649 0.30136379 0.45033865
0.99114134 0.30535032 0.46373451
0.99405082 0.29883705 0.50427959
1.00059637 0.28323415 0.51763296
0.99993788 0.28625496 0.48364199
1.00054177 0.27685215 0.51684670
1.00132783 0.29080737 0.50441807
0.82130130 0.91304582 1.00054000
0.55767319 0.76755482 1.00060364
0.41762341 0.65955972 1.00029819
0.31381404 0.58763285 0.75654872
0.00189271 0.54931267 0.00000040
0.00000709 0.50017713 0.60917162
0.00000000 0.44518467 0.22206446
0.00000000 0.40156087 0.00000000
0.00000847 0.37332940 0.00000000
0.00000000 0.33590647 0.00000000
0.00000000 0.30952566 0.00000000
0.00000963 0.28777957 0.00000000
0.39997160 0.25908655 0.32818767
0.49354605 0.22754102 0.02093903
0.58515933 0.21815511 0.00015799
0.72330253 0.23433630 0.00000000
0.85101074 0.25523177 0.00000000
0.96798220 0.27311583 0.00000000
1.00023929 0.29644817 0.67451473
0.99996476 0.32637410 0.96370865
1.00105923 0.34247349 0.39479806
1.00006909 0.35517232 0.39119112
1.00012297 0.38666625 0.42529932
1.00014605 0.36770600 0.43540699
1.00048727 0.35554445 0.45698516
1.00078835 0.34170553 0.46315470
0.99362686 0.32824202 0.44181819
0.99313657 0.32712867 0.44313050
1.00020320 0.32247673 0.48704818
1.00066748 0.30154326 0.50407150
1.00131151 0.29140996 0.48002706
1.00028044 0.27429305 0.49815199
1.00068974 0.28558649 0.49546986
0.02255916 0.97370497 0.96974393
0.00557009 0.86200236 0.92490419
0.00266358 0.76901467 0.89898945
0.00197011 0.68260464 0.56278108
0.00000768 0.65090810 0.00000000
0.00000000 0.60404937 0.36285348
0.00000000 0.55508030 0.00000957
0.00000619 0.52108358 0.00000000
0.00000000 0.48695386 0.00000000
0.00000000 0.45347595 0.00000000
0.00000000 0.43391638 0.00000000
0.00000000 0.41413817 0.00000000
0.36081622 0.38956154 0.57746662
0.47594987 0.34053001 0.08997586
0.54714017 0.30834262 0.00000000
0.66959579 0.31491139 0.00000000
0.80781401 0.32881804 0.00000000
0.91806388 0.33753667 0.00000000
1.00052754 0.35601992 0.00120999
1.00015893 0.38417554 0.59992024
1.00024766 0.39156426 0.94721571
1.00010147 0.39086506 0.34819945
1.00025248 0.41046567 0.37799157
1.00017528 0.40569778 0.39667658
0.99181744 0.39328673 0.41283823
1.00078869 0.37911831 0.43348236
0.99749826 0.36474832 0.43493898
0.99330801 0.35618042 0.43572342
1.00042244 0.34627107 0.45873221
1.00129156 0.32299764 0.46994790
1.00000558 0.30676324 0.46457266
1.00085055 0.29178173 0.46280146
1.00036157 0.29898731 0.47183374
0.00000556 1.00030643 0.60840640
0.00000077 0.96072500 0.50289231
0.00000049 0.89295174 0.45355584
0.00000000 0.81195513 0.31710689
0.00000000 0.76339756 0.00000000
0.00448616 0.69605039 0.00000549
0.00000000 0.65388001 0.00000000
0.00000776 0.62464910 0.00000000
0.00000000 0.58933063 0.01064635
0.00034050 0.56388291 0.00000000
0.00187803 0.54586781 0.00000000
0.00116271 0.52745022 0.00000000
0.06497495 0.51179694 0.00081763
0.33478773 0.46976830 0.03261615
0.47424248 0.42450103 0.00621576
0.62480468 0.40368888 0.00000753
0.76323591 0.40548969 0.00000000
0.87934892 0.41145890 0.00024049
0.98351222 0.42327245 0.00000466
1.00056904 0.45025965 0.00001036
0.99959212 0.46522289 0.78482080
1.00059868 0.46071524 0.89244073
1.00009046 0.44245961 0.42628193
0.99663036 0.43419241 0.37611740
0.99303440 0.42603471 0.36738002
0.99994829 0.41967667 0.37084072
0.99799396 0.40813204 0.40415077
0.99632371 0.39426240 0.41609789
1.00012665 0.38015684 0.41508647
1.00060252 0.35522415 0.42263729
0.99993289 0.34575271 0.41914839
1.00055876 0.33180558 0.43142638
1.00022509 0.33716042 0.44314902
0.00000000 1.00511663 0.00578452
0.00000000 1.00074589 0.02414471
0.00000000 1.00080886 0.03792850
0.00000000 0.94364709 0.14241448
0.00000000 0.86502931 0.00000000
0.00046763 0.81000754 0.00000000
0.00000000 0.75012867 0.04303500
0.00000192 0.71145009 0.00000000
0.00000000 0.67492871 0.02682911
0.02413508 0.66144115 0.00000000
0.74349676 0.63788373 0.12377573
0.58014000 0.62019779 0.00000000
0.01720320 0.60615160 0.00000000
0.00006443 0.57907130 0.00000000
0.21827989 0.54270349 0.00514610
0.55635331 0.50478366 0.00054955
0.70801660 0.48563303 0.00002147
0.83725168 0.48473601 0.00205251
0.94314053 0.48611029 0.00391163
1.00024103 0.49522369 0.00000327
1.00023053 0.51753434 0.00000896
1.00071364 0.53494192 0.88592400
1.00000794 0.49635430 0.83283570
0.99877776 0.46586852 0.52224775
0.99932285 0.45758709 0.33539791
0.99943879 0.45807832 0.30866719
1.00037973 0.44971362 0.34584161
1.00002218 0.43670463 0.36940944
1.00009344 0.42203773 0.36142053
0.99287075 0.39454478 0.37454061
1.00132804 0.38853735 0.35619020
1.00001238 0.38030960 0.39536936
0.99940136 0.38023398 0.41275662
0.00000000 1.00714375 0.00000000
0.00000000 1.00265541 0.00000000
0.00000000 1.00079629 0.00000000
0.00000000 1.00070628 0.00000944
0.00000000 0.95614444 0.00000000
0.00000000 0.92569588 0.00000000
0.00000000 0.83950807 0.22571867
0.00000000 0.80947260 0.01031106
0.00142048 0.78068650 0.00108578
0.00091482 0.75852272 0.00000000
0.49866622 0.72242287 0.18713198
0.33185204 0.70217568 0.29459370
0.03447125 0.68776886 0.00051019
0.00000000 0.66760392 0.03840585
0.00427075 0.64455665 0.00125601
0.40897792 0.61101596 0.00000000
0.62197655 0.57398463 0.00155642
0.78289248 0.55644542 0.06077941
0.89273954 0.54889589 0.00667080
0.99594815 0.53557032 0.00040547
1.00150624 0.53098927 0.00000000
1.00025347 0.56800947 0.00000000
1.00020925 0.56078327 0.92343299
1.00001576 0.52125366 0.76309265
0.99962348 0.50554241 0.45010162
1.00001696 0.49826559 0.26732401
1.00037767 0.48815222 0.27114712
1.00132057 0.47810449 0.30990764
1.00086110 0.46504051 0.31169553
0.99678015 0.43541289 0.33990980
1.00051283 0.41539267 0.30059286
1.00127895 0.42581912 0.34049570
1.00010545 0.41484081 0.38112300
0.00000000 0.99994648 0.00000395
0.00000000 0.99994648 0.00000395
0.00000000 0.99994648 0.00000395
0.00000000 0.99994648 0.00000395
0.00000000 0.99994648 0.00000395
0.00000000 0.99809668 0.00000000
0.00000000 0.94258372 0.00000251
0.00000000 0.92470979 0.00000000
0.00296805 0.89934507 0.00000614
0.00027406 0.83805689 0.00000000
0.02437258 0.81488758 0.34921117
0.00000000 0.79547295 0.05770904
0.00001023 0.78294961 0.41065001
0.07437462 0.76312251 0.88385157
0.07679749 0.74269925 0.34604719
0.06644020 0.71278911 0.00000000
0.40743918 0.66199554 0.00000000
0.70049735 0.61764981 0.15392898
0.85559098 0.60931196 0.05242115
0.95983311 0.58617605 0.00000000
1.00135390 0.56375289 0.00000000
1.00042569 0.57282188 0.00000162
1.00077465 0.61563018 0.00072008
1.00013546 0.59507075 0.62080719
0.99574340 0.57792212 0.41911183
1.00118726 0.55508145 0.09551798
1.00122011 0.53484955 0.18240896
1.00012516 0.52121919 0.28587307
1.00082314 0.50923062 0.25598537
1.00082385 0.48611907 0.30057086
1.00011042 0.44820605 0.24652501
1.00025491 0.46051071 0.27388217
1.00047793 0.44159900 0.34064425
0.00000000 0.99994648 0.00000395
0.00000000 0.99994648 0.00000395
0.00000000 0.99994648 0.00000395
0.00000000 0.99994648 0.00000395
0.00000000 0.99994648 0.00000395
0.00000000 0.99994648 0.00000395
0.00000000 0.99994648 0.00000395
0.00000000 0.99994648 0.00000395
0.00000000 0.98401131 0.01558351
0.00000000 0.90023486 0.63361339
0.15902455 0.91826289 0.54253313
0.00606023 0.90608142 0.01424016
0.00000377 0.89804869 0.39194013
0.40308249 0.86095456 0.26806266
0.48725413 0.82927994 0.21102993
0.01933489 0.79221501 0.00000000
0.03619962 0.71868806 0.00000000
0.57334855 0.65710108 0.00000000
0.80164228 0.65457030 0.01537115
0.90217683 0.64765550 0.00000000
0.99993711 0.62013628 0.00000000
1.00077140 0.62545003 0.00048843
1.00020408 0.65519175 0.00000900
0.99471893 0.65204614 0.00000000
1.00022465 0.64568414 0.00000000
1.00132816 0.62981412 0.00000000
1.00080435 0.59767667 0.01482050
0.99194260 0.56755306 0.30314860
1.00008411 0.55386826 0.12633201
0.99448315 0.54347991 0.18211951
0.99354579 0.51262253 0.20093294
0.99605722 0.50120546 0.23004662
1.00029393 0.47611325 0.26717265
0.00000000 0.99994648 0.00000395
0.00000000 0.99994648 0.00000395
0.00000000 0.99994648 0.00000395
0.00000000 0.99994648 0.00000395
0.00000000 0.99994648 0.00000395
0.00000000 0.99994648 0.00000395
0.00000000 0.99994648 0.00000395
0.00000000 0.99994648 0.00000395
0.00000000 0.99994327 0.00000000
0.00000000 1.00036071 0.00000000
0.00001153 1.00029771 0.00000000
0.00000752 1.00031432 0.00000000
0.00000000 1.00029540 0.00000000
0.25494664 0.95193553 0.11274102
0.39150745 0.89447980 0.14696872
0.00698371 0.87317741 0.05580290
0.10872160 0.85018549 0.00000000
0.71805801 0.79108339 0.00000000
0.70774688 0.72184379 0.00000000
0.85210090 0.72075209 0.00347941
0.95531021 0.68029611 0.23459067
1.00205889 0.67546764 0.30217102
1.00023392 0.68812422 0.00000000
0.99993052 0.66702536 0.22904433
1.00079717 0.65614173 0.00000000
0.99593475 0.67135137 0.00000000
0.98969533 0.66121404 0.00000778
