LUT/WDR.cube
TITLE "WDR"
LUT_3D_SIZE 33
# Apple Log/Rec2020 -> LA - :FLog2C_to_WDR/LA - :FLog2C_to_WDR, CineEI Shift 0.00, Black Level -0.02% IRE, Input 109% -> Output 100% - Created with LUTCalc v4.09 by Ben Turley February 2025
0.00000000 0.00000000 0.00000000
0.00000000 0.00000000 0.00000000
0.00000000 0.00000000 0.00000000
0.00000000 0.00000000 0.00000000
0.00000000 0.00000000 0.00000000
0.00000000 0.00000197 0.00000197
0.04645570 0.00598413 0.00598413
0.08492014 0.01145160 0.01145160
0.12029613 0.01524558 0.01524558
0.15588847 0.01892110 0.01892110
0.19311425 0.02301721 0.02301721
0.23433894 0.02768608 0.02768608
0.27917158 0.03304502 0.03304502
0.32901959 0.03868892 0.03868892
0.38586601 0.04366939 0.04366939
0.45237491 0.04789166 0.04789166
0.52269471 0.05198621 0.05198621
0.59355708 0.05614320 0.05614320
0.66178275 0.05990988 0.05990988
0.72691576 0.06305822 0.06305822
0.78721948 0.06554575 0.06554575
0.83676980 0.06723823 0.06723823
0.84122661 0.06738376 0.06738376
0.84166310 0.06739717 0.06739717
0.84166310 0.06739717 0.06739717
0.84166310 0.06739717 0.06739717
0.84166310 0.06739717 0.06739717
0.84166310 0.06739717 0.06739717
0.84166310 0.06739717 0.06739717
0.84166310 0.06739717 0.06739717
0.84166310 0.06739717 0.06739717
0.84166310 0.06739717 0.06739717
0.84166310 0.06739717 0.06739717
0.00000000 0.00000000 0.00000000
0.00000000 0.00000000 0.00000000
0.00000000 0.00000000 0.00000000
0.00000000 0.00000000 0.00000000
0.00000000 0.00000000 0.00000000
0.00000000 0.00000197 0.00000197
0.04645570 0.00598413 0.00598413
0.08492014 0.01145160 0.01145160
0.12029613 0.01524558 0.01524558
0.15588847 0.01892110 0.01892110
0.19311425 0.02301721 0.02301721
0.23433894 0.02768608 0.02768608
0.27917158 0.03304502 0.03304502
0.32901959 0.03868892 0.03868892
0.38586601 0.04366939 0.04366939
0.45237491 0.04789166 0.04789166
0.52269471 0.05198621 0.05198621
0.59355708 0.05614320 0.05614320
0.66178275 0.05990988 0.05990988
0.72691576 0.06305822 0.06305822
0.78721948 0.06554575 0.06554575
0.83676980 0.06723823 0.06723823
0.84122661 0.06738376 0.06738376
0.84166310 0.06739717 0.06739717
0.84166310 0.06739717 0.06739717
0.84166310 0.06739717 0.06739717
0.84166310 0.06739717 0.06739717
0.84166310 0.06739717 0.06739717
0.84166310 0.06739717 0.06739717
0.84166310 0.06739717 0.06739717
0.84166310 0.06739717 0.06739717
0.84166310 0.06739717 0.06739717
0.84166310 0.06739717 0.06739717
0.00000000 0.00000000 0.00000000
0.00000000 0.00000000 0.00000000
0.00000000 0.00000000 0.00000000
0.00000000 0.00000000 0.00000000
0.00000000 0.00000000 0.00000000
0.00000000 0.00000197 0.00000197
0.04645570 0.00598413 0.00598413
0.08492014 0.01145160 0.01145160
0.12029613 0.01524558 0.01524558
0.15588847 0.01892110 0.01892110
0.19311425 0.02301721 0.02301721
0.23433894 0.02768608 0.02768608
0.27917158 0.03304502 0.03304502
0.32901959 0.03868892 0.03868892
0.38586601 0.04366939 0.04366939
0.45237491 0.04789166 0.04789166
0.52269471 0.05198621 0.05198621
0.59355708 0.05614320 0.05614320
0.66178275 0.05990988 0.05990988
0.72691576 0.06305822 0.06305822
0.78721948 0.06554575 0.06554575
0.83676980 0.06723823 0.06723823
0.84122661 0.06738376 0.06738376
0.84166310 0.06739717 0.06739717
0.84166310 0.06739717 0.06739717
0.84166310 0.06739717 0.06739717
0.84166310 0.06739717 0.06739717
0.84166310 0.06739717 0.06739717
0.84166310 0.06739717 0.06739717
0.84166310 0.06739717 0.06739717
0.84166310 0.06739717 0.06739717
0.84166310 0.06739717 0.06739717
0.84166310 0.06739717 0.06739717
0.00000000 0.00000000 0.00000000
0.00000000 0.00000000 0.00000000
0.00000000 0.00000000 0.00000000
0.00000000 0.00000000 0.00000000
0.00000000 0.00000000 0.00000000
0.00000000 0.00000197 0.00000197
0.04645570 0.00598413 0.00598413
0.08492014 0.01145160 0.01145160
0.12029613 0.01524558 0.01524558
0.15588847 0.01892110 0.01892110
0.19311425 0.02301721 0.02301721
0.23433894 0.02768608 0.02768608
0.27917158 0.03304502 0.03304502
0.32901959 0.03868892 0.03868892
0.38586601 0.04366939 0.04366939
0.45237491 0.04789166 0.04789166
0.52269471 0.05198621 0.05198621
0.59355708 0.05614320 0.05614320
0.66178275 0.05990988 0.05990988
0.72691576 0.06305822 0.06305822
0.78721948 0.06554575 0.06554575
0.83676980 0.06723823 0.06723823
0.84122661 0.06738376 0.06738376
0.84166310 0.06739717 0.06739717
0.84166310 0.06739717 0.06739717
0.84166310 0.06739717 0.06739717
0.84166310 0.06739717 0.06739717
0.84166310 0.06739717 0.06739717
0.84166310 0.06739717 0.06739717
0.84166310 0.06739717 0.06739717
0.84166310 0.06739717 0.06739717
0.84166310 0.06739717 0.06739717
0.84166310 0.06739717 0.06739717
0.00000000 0.00000000 0.00000000
0.00000000 0.00000000 0.00000000
0.00000000 0.00000000 0.00000000
0.00000000 0.00000000 0.00000000
0.00000000 0.00000000 0.00000000
0.00000000 0.00000197 0.00000197
0.04645570 0.00598413 0.00598413
0.08492014 0.01145160 0.01145160
0.12029613 0.01524558 0.01524558
0.15588847 0.01892110 0.01892110
0.19311425 0.02301721 0.02301721
0.23433894 0.02768608 0.02768608
0.27917158 0.03304502 0.03304502
0.32901959 0.03868892 0.03868892
0.38586601 0.04366939 0.04366939
0.45237491 0.04789166 0.04789166
0.52269471 0.05198621 0.05198621
0.59355708 0.05614320 0.05614320
0.66178275 0.05990988 0.05990988
0.72691576 0.06305822 0.06305822
0.78721948 0.06554575 0.06554575
0.83676980 0.06723823 0.06723823
0.84122661 0.06738376 0.06738376
0.84166310 0.06739717 0.06739717
0.84166310 0.06739717 0.06739717
0.84166310 0.06739717 0.06739717
0.84166310 0.06739717 0.06739717
0.84166310 0.06739717 0.06739717
0.84166310 0.06739717 0.06739717
0.84166310 0.06739717 0.06739717
0.84166310 0.06739717 0.06739717
0.84166310 0.06739717 0.06739717
0.84166310 0.06739717 0.06739717
0.00000026 0.00015461 0.00000026
0.00000026 0.00015461 0.00000026
0.00000026 0.00015461 0.00000026
0.00000026 0.00015461 0.00000026
0.00000026 0.00015461 0.00000026
0.00015376 0.00016336 0.00000000
0.04407351 0.00987057 0.00637242
0.08267940 0.01343012 0.01161982
0.11842717 0.01601620 0.01522890
0.15430289 0.01912801 0.01882252
0.19166160 0.02305511 0.02288435
0.23294493 0.02751999 0.02751999
0.27803581 0.03290061 0.03290061
0.32801915 0.03858080 0.03858080
0.38493726 0.04361058 0.04361058
0.45154521 0.04784811 0.04784811
0.52197975 0.05195021 0.05195021
0.59288198 0.05611253 0.05611253
0.66116567 0.05988548 0.05988548
0.72631740 0.06303872 0.06303872
0.78673589 0.06553001 0.06553001
0.83643737 0.06722814 0.06722814
0.84122661 0.06738376 0.06738376
0.84166310 0.06739717 0.06739717
0.84166310 0.06739717 0.06739717
0.84166310 0.06739717 0.06739717
0.84166310 0.06739717 0.06739717
0.84166310 0.06739717 0.06739717
0.84166310 0.06739717 0.06739717
0.84166310 0.06739717 0.06739717
0.84166310 0.06739717 0.06739717
0.84166310 0.06739717 0.06739717
0.84166310 0.06739717 0.06739717
0.00798058 0.03398636 0.00798058
0.00798058 0.03398636 0.00798058
0.00798058 0.03398636 0.00798058
0.00798058 0.03398636 0.00798058
0.00798058 0.03398636 0.00798058
0.00898940 0.03333679 0.00789380
0.02948735 0.03123147 0.00996377
0.06746594 0.03105638 0.01382999
0.10674572 0.03011095 0.01681009
0.14446797 0.02853493 0.01968067
0.18346689 0.02842667 0.02312737
0.22532159 0.02878087 0.02704239
0.27122125 0.03214950 0.03208934
0.32190650 0.03791774 0.03791774
0.37945213 0.04320346 0.04320346
0.44672896 0.04757012 0.04757012
0.51784730 0.05171340 0.05171340
0.58921947 0.05590633 0.05590633
0.65775557 0.05971333 0.05971333
0.72320185 0.06290111 0.06290111
0.78374266 0.06542468 0.06542468
0.83427121 0.06716161 0.06716161
0.84101217 0.06737717 0.06737717
0.84166310 0.06739717 0.06739717
0.84166310 0.06739717 0.06739717
0.84166310 0.06739717 0.06739717
0.84166310 0.06739717 0.06739717
0.84166310 0.06739717 0.06739717
0.84166310 0.06739717 0.06739717
0.84166310 0.06739717 0.06739717
0.84166310 0.06739717 0.06739717
0.84166310 0.06739717 0.06739717
0.84166310 0.06739717 0.06739717
0.01445618 0.06151859 0.01445618
0.01445618 0.06151859 0.01445618
0.01445618 0.06151859 0.01445618
0.01445618 0.06151859 0.01445618
0.01445618 0.06151859 0.01445618
0.01450830 0.06083111 0.01432744
0.01975062 0.05692012 0.01418768
0.05416673 0.05647508 0.01720992
0.09629462 0.05586621 0.02053019
0.13771598 0.05378598 0.02383745
0.17830015 0.04975131 0.02680514
0.22035358 0.04397937 0.02963862
0.26584949 0.04002726 0.03319534
0.31586347 0.03967450 0.03778174
0.37369853 0.04277587 0.04277587
0.44182153 0.04728460 0.04728460
0.51364298 0.05147045 0.05147045
0.58552759 0.05569002 0.05569002
0.65442585 0.05953438 0.05953438
0.72002795 0.06275896 0.06275896
0.78074177 0.06531590 0.06531590
0.83177735 0.06708431 0.06708431
0.84072655 0.06736825 0.06736825
0.84166310 0.06739717 0.06739717
0.84166310 0.06739717 0.06739717
0.84166310 0.06739717 0.06739717
0.84166310 0.06739717 0.06739717
0.84166310 0.06739717 0.06739717
0.84166310 0.06739717 0.06739717
0.84166310 0.06739717 0.06739717
0.84166310 0.06739717 0.06739717
0.84166310 0.06739717 0.06739717
0.84166310 0.06739717 0.06739717
0.01970640 0.09173383 0.01970640
0.01970640 0.09173383 0.01970640
0.01970640 0.09173383 0.01970640
0.01970640 0.09173383 0.01970640
0.01970640 0.09173383 0.01970640
0.01958460 0.09107783 0.01958460
0.02055233 0.08696728 0.01900821
0.03882255 0.08499921 0.02036433
0.08383110 0.08545705 0.02452602
0.13019936 0.08399049 0.02846542
0.17357451 0.08058901 0.03189634
0.21771891 0.07366392 0.03494819
0.26406452 0.06299166 0.03749115
0.31333274 0.05346770 0.04015561
0.36906046 0.04705964 0.04319345
0.43640195 0.04697056 0.04697056
0.50904195 0.05120468 0.05120468
0.58150934 0.05545973 0.05545973
0.65077042 0.05934664 0.05934664
0.71660197 0.06260818 0.06260818
0.77754781 0.06519931 0.06519931
0.82927378 0.06700601 0.06700601
0.84041179 0.06735831 0.06735831
0.84166310 0.06739717 0.06739717
0.84166310 0.06739717 0.06739717
0.84166310 0.06739717 0.06739717
0.84166310 0.06739717 0.06739717
0.84166310 0.06739717 0.06739717
0.84166310 0.06739717 0.06739717
0.84166310 0.06739717 0.06739717
0.84166310 0.06739717 0.06739717
0.84166310 0.06739717 0.06739717
0.84166310 0.06739717 0.06739717
0.02602784 0.12498324 0.02602784
0.02602784 0.12498324 0.02602784
0.02602784 0.12498324 0.02602784
0.02602784 0.12498324 0.02602784
0.02602784 0.12498324 0.02602784
0.02592033 0.12450137 0.02592033
0.02552432 0.12101201 0.02523891
0.03254725 0.11834309 0.02544179
0.06014302 0.11792540 0.02816254
0.11744810 0.11915006 0.03337972
0.16552676 0.11752521 0.03767021
0.21341017 0.11296379 0.04094450
0.26323419 0.10380401 0.04334090
0.31428392 0.08951758 0.04492411
0.36905108 0.07091424 0.04611328
0.43275855 0.05587835 0.04782492
0.50343177 0.05213999 0.05100883
0.57611309 0.05514504 0.05514504
0.64590701 0.05908954 0.05908954
0.71203533 0.06240672 0.06240672
0.77346882 0.06504323 0.06504323
0.82595442 0.06690111 0.06690111
0.83998346 0.06734455 0.06734455
0.84166310 0.06739717 0.06739717
0.84166310 0.06739717 0.06739717
0.84166310 0.06739717 0.06739717
0.84166310 0.06739717 0.06739717
0.84166310 0.06739717 0.06739717
0.84166310 0.06739717 0.06739717
0.84166310 0.06739717 0.06739717
0.84166310 0.06739717 0.06739717
0.84166310 0.06739717 0.06739717
0.84166310 0.06739717 0.06739717
0.03326900 0.16006621 0.03326900
0.03326900 0.16006621 0.03326900
0.03326900 0.16006621 0.03326900
0.03326900 0.16006621 0.03326900
0.03326900 0.16006621 0.03326900
0.03317213 0.15959351 0.03317213
0.03254862 0.15665737 0.03254862
0.03356260 0.15381832 0.03210783
0.04445361 0.15204562 0.03300302
0.08810158 0.15294813 0.03717265
0.15082139 0.15482371 0.04236352
0.20433986 0.15304961 0.04564061
0.25898624 0.14792659 0.04800554
0.31457090 0.13788624 0.04989690
0.37302139 0.12195531 0.05125624
0.43622501 0.09640843 0.05192272
0.50222868 0.07300768 0.05300615
0.57097699 0.06111931 0.05546686
0.63946313 0.05873759 0.05873759
0.70592396 0.06212884 0.06212884
0.76809827 0.06483355 0.06483355
0.82153305 0.06676032 0.06676032
0.83938891 0.06732508 0.06732508
0.84166310 0.06739717 0.06739717
0.84166310 0.06739717 0.06739717
0.84166310 0.06739717 0.06739717
0.84166310 0.06739717 0.06739717
0.84166310 0.06739717 0.06739717
0.84166310 0.06739717 0.06739717
0.84166310 0.06739717 0.06739717
0.84166310 0.06739717 0.06739717
0.84166310 0.06739717 0.06739717
0.84166310 0.06739717 0.06739717
0.04062222 0.19722307 0.04062222
0.04062222 0.19722307 0.04062222
0.04062222 0.19722307 0.04062222
0.04062222 0.19722307 0.04062222
0.04062222 0.19722307 0.04062222
0.04054189 0.19679550 0.04054189
0.04008017 0.19439934 0.04008017
0.03959757 0.19192870 0.03959757
0.04141168 0.18946664 0.03938229
0.05623375 0.18819386 0.04064268
0.12004929 0.19091042 0.04507637
0.18841764 0.19262530 0.04890140
0.24857625 0.19044339 0.05181745
0.30917098 0.18484280 0.05440591
0.37300078 0.17395187 0.05659385
0.44189952 0.15556814 0.05810867
0.50892767 0.12748441 0.05862317
0.57312508 0.09496650 0.05878636
0.63546743 0.07130612 0.05969607
0.69826675 0.06176700 0.06176700
0.76119817 0.06455392 0.06455392
0.81587837 0.06657996 0.06657996
0.83866891 0.06730100 0.06730100
0.84166310 0.06739717 0.06739717
0.84166310 0.06739717 0.06739717
0.84166310 0.06739717 0.06739717
0.84166310 0.06739717 0.06739717
0.84166310 0.06739717 0.06739717
0.84166310 0.06739717 0.06739717
0.84166310 0.06739717 0.06739717
0.84166310 0.06739717 0.06739717
0.84166310 0.06739717 0.06739717
0.84166310 0.06739717 0.06739717
0.04629711 0.23951319 0.04629711
0.04629711 0.23951319 0.04629711
0.04629711 0.23951319 0.04629711
0.04629711 0.23951319 0.04629711
0.04629711 0.23951319 0.04629711
0.04625525 0.23915328 0.04625525
0.04599821 0.23707471 0.04599821
0.04572838 0.23492567 0.04572838
0.04542810 0.23252667 0.04542810
0.04765157 0.22978157 0.04529515
0.06872019 0.22882318 0.04653997
0.15399594 0.23350046 0.05126110
0.22976881 0.23473295 0.05523375
0.29653630 0.23187285 0.05835143
0.36558338 0.22512022 0.06093791
0.44062613 0.21239721 0.06295918
0.51450174 0.19332588 0.06429182
0.58340984 0.16603972 0.06473239
0.64500396 0.13244051 0.06452596
0.70183835 0.10052772 0.06441116
0.75874089 0.08221056 0.06562285
0.80909406 0.06847458 0.06647624
0.83850092 0.06733356 0.06729733
0.84166310 0.06739717 0.06739717
0.84166310 0.06739717 0.06739717
0.84166310 0.06739717 0.06739717
0.84166310 0.06739717 0.06739717
0.84166310 0.06739717 0.06739717
0.84166310 0.06739717 0.06739717
0.84166310 0.06739717 0.06739717
0.84166310 0.06739717 0.06739717
0.84166310 0.06739717 0.06739717
0.84166310 0.06739717 0.06739717
0.05147687 0.28666297 0.05147687
0.05147687 0.28666297 0.05147687
0.05147687 0.28666297 0.05147687
0.05147687 0.28666297 0.05147687
0.05147687 0.28666297 0.05147687
0.05144410 0.28636667 0.05144410
0.05124312 0.28460452 0.05124312
0.05103344 0.28277402 0.05103344
0.05080151 0.28071053 0.05080151
0.05049886 0.27800604 0.05049886
0.05394404 0.27507750 0.05040332
0.08531768 0.27463064 0.05203011
0.19062227 0.28057915 0.05783569
0.27476998 0.28127649 0.06164231
0.35047217 0.27758447 0.06433906
0.43100503 0.26959088 0.06635160
0.51147701 0.25581444 0.06768324
0.58703102 0.23725821 0.06841078
0.65533508 0.21231820 0.06859942
0.71615095 0.18206055 0.06839931
0.77086582 0.15186396 0.06841991
0.81834181 0.11896319 0.06807098
0.85147374 0.10211385 0.06845392
0.84874549 0.08402857 0.06822438
0.84283498 0.07014913 0.06754168
0.84171300 0.06754792 0.06740541
0.84166310 0.06739717 0.06739717
0.84166310 0.06739717 0.06739717
0.84166310 0.06739717 0.06739717
0.84166310 0.06739717 0.06739717
0.84166310 0.06739717 0.06739717
0.84166310 0.06739717 0.06739717
0.84166310 0.06739717 0.06739717
0.05704921 0.33949263 0.05704921
0.05704921 0.33949263 0.05704921
0.05704921 0.33949263 0.05704921
0.05704921 0.33949263 0.05704921
0.05704921 0.33949263 0.05704921
0.05702360 0.33923416 0.05702360
0.05685590 0.33765998 0.05685590
0.05667961 0.33602016 0.05667961
0.05648301 0.33416310 0.05648301
0.05622529 0.33172914 0.05622529
0.05605497 0.32862522 0.05590543
0.06285743 0.32541510 0.05595307
0.10781919 0.32586809 0.05824829
0.23060093 0.33265042 0.06391559
0.32429447 0.33267000 0.06672738
0.41197347 0.32773227 0.06830287
0.49960114 0.31832294 0.06924307
0.58123352 0.30424449 0.06967014
0.65555750 0.28754629 0.06976713
0.72298715 0.26661563 0.06968792
0.78275290 0.24112632 0.06947636
0.83616456 0.21130017 0.06916254
0.87740227 0.18638496 0.06919777
0.87522246 0.15677087 0.06914146
0.86309539 0.12556510 0.06847499
0.85798395 0.11036542 0.06827274
0.85524393 0.10211256 0.06834003
0.85209577 0.09305232 0.06831406
0.84840178 0.08322551 0.06813660
0.84456313 0.07404565 0.06779795
0.84166310 0.06739717 0.06739717
0.84166310 0.06739717 0.06739717
0.84166310 0.06739717 0.06739717
0.06250416 0.39920168 0.06250416
0.06250416 0.39920168 0.06250416
0.06250416 0.39920168 0.06250416
0.06250416 0.39920168 0.06250416
0.06250416 0.39920168 0.06250416
0.06248801 0.39896097 0.06248801
0.06237092 0.39750280 0.06237092
0.06224636 0.39598834 0.06224636
0.06210615 0.39428088 0.06210615
0.06192097 0.39205418 0.06192097
0.06168243 0.38921114 0.06168243
0.06211266 0.38558022 0.06141383
0.07399624 0.38232459 0.06172935
0.13459241 0.38373773 0.06412586
0.27448178 0.39088522 0.06808542
0.37929475 0.38992700 0.06927600
0.47685472 0.38364312 0.06962569
0.56547549 0.37354162 0.06949177
0.64567001 0.36030453 0.06905160
0.71834952 0.34538968 0.06845108
0.78394554 0.32777022 0.06777623
0.84382300 0.30689486 0.06696511
0.89516614 0.28621482 0.06614967
0.90939342 0.26147335 0.06653269
0.90191096 0.23560633 0.06780496
0.89284277 0.20751140 0.06813971
0.88719015 0.19053791 0.06857099
0.88089418 0.17205768 0.06880131
0.87357442 0.15151797 0.06874643
0.86555268 0.13061610 0.06837955
0.85874930 0.11315959 0.06783186
0.85654647 0.10718444 0.06782774
0.85536747 0.10337196 0.06794829
0.06683940 0.46480242 0.06683940
0.06683940 0.46480242 0.06683940
0.06683940 0.46480242 0.06683940
0.06683940 0.46480242 0.06683940
0.06683940 0.46480242 0.06683940
0.06683293 0.46458569 0.06683293
0.06676934 0.46332875 0.06676934
0.06670053 0.46202234 0.06670053
0.06662112 0.46056340 0.06662112
0.06651483 0.45866843 0.06651483
0.06637697 0.45625346 0.06637697
0.06619239 0.45308840 0.06619239
0.06804266 0.44911182 0.06605969
0.08669757 0.44611936 0.06654122
0.17275598 0.44907116 0.06815290
0.32458416 0.45506405 0.06961202
0.44024829 0.45293641 0.06915385
0.53821973 0.44609931 0.06803221
0.62566577 0.43635486 0.06622398
0.70414013 0.42415206 0.06409620
0.77504053 0.41018546 0.06195167
0.84010047 0.39474668 0.05975408
0.89985493 0.37774466 0.05692133
0.93411908 0.36025954 0.05609964
0.93501270 0.34351981 0.05866513
0.92980418 0.32533380 0.06076295
0.92453683 0.30621334 0.06243164
0.91867916 0.28695001 0.06369546
0.91226427 0.26510481 0.06469465
0.90503388 0.24214565 0.06537421
0.89832219 0.22096363 0.06582975
0.89436006 0.20873031 0.06654894
0.89105390 0.19966353 0.06737567
0.06935610 0.52937319 0.06935610
0.06935610 0.52937319 0.06935610
0.06935610 0.52937319 0.06935610
0.06935610 0.52937319 0.06935610
0.06935610 0.52937319 0.06935610
0.06935531 0.52918051 0.06935531
0.06933212 0.52807674 0.06933212
0.06930390 0.52692819 0.06930390
0.06927494 0.52565407 0.06927494
0.06923239 0.52400019 0.06923239
0.06917660 0.52189729 0.06917660
0.06910097 0.51914677 0.06910097
0.06900701 0.51549106 0.06900701
0.07207369 0.51116821 0.06897847
0.10724474 0.50910122 0.06930005
0.22797943 0.51409369 0.06947464
0.38287309 0.51771041 0.06832615
0.49972069 0.51460227 0.06495122
0.59531669 0.50762818 0.06151362
0.68091698 0.49835282 0.05666426
0.75817387 0.48755927 0.05197014
0.82877003 0.47544694 0.04794832
0.89464108 0.46223170 0.04347753
0.94690178 0.44813014 0.04015781
0.96230617 0.43401894 0.04137166
0.95885022 0.41998467 0.04448882
0.95478200 0.40601560 0.04700951
0.95084409 0.39235093 0.04945062
0.94695453 0.37838778 0.05163126
0.94301465 0.36486546 0.05371285
0.93908211 0.35210969 0.05570472
0.93512899 0.34023182 0.05766945
0.93115310 0.32879523 0.05962415
0.07009235 0.59144041 0.07009235
0.07009235 0.59144041 0.07009235
0.07009235 0.59144041 0.07009235
0.07009235 0.59144041 0.07009235
0.07009235 0.59144041 0.07009235
0.07009516 0.59125371 0.07009516
0.07009506 0.59025605 0.07009506
0.07009259 0.58922529 0.07009259
0.07009316 0.58808066 0.07009316
0.07009065 0.58659878 0.07009065
0.07008391 0.58471487 0.07008391
0.07007342 0.58225202 0.07007342
0.07006310 0.57897264 0.07006310
0.07004564 0.57472633 0.07004564
0.07695041 0.57002882 0.07006095
0.13896628 0.56977968 0.06974517
0.29813765 0.57640715 0.06732765
0.44679157 0.57751033 0.06232402
0.55621475 0.57377506 0.05422265
0.64921772 0.56665923 0.04820218
0.73324550 0.55757159 0.04089279
0.81017586 0.54682025 0.03347476
0.88071406 0.53526021 0.02692247
0.94460004 0.52316688 0.02169001
0.97931123 0.51110094 0.02027196
0.98397125 0.49943599 0.02275265
0.98008171 0.48815370 0.02608261
0.97651494 0.47737774 0.02932892
0.97364284 0.46716360 0.03247531
0.97063126 0.45718131 0.03554219
0.96763332 0.44751612 0.03803966
0.96466667 0.43832753 0.04036122
0.96172102 0.42974891 0.04254858
0.06965370 0.65038011 0.06965370
0.06965370 0.65038011 0.06965370
0.06965370 0.65038011 0.06965370
0.06965370 0.65038011 0.06965370
0.06965370 0.65038011 0.06965370
0.06965939 0.65020540 0.06965939
0.06967636 0.64925554 0.06967636
0.06969207 0.64830930 0.06969207
0.06971210 0.64725170 0.06971210
0.06973786 0.64588402 0.06973786
0.06976601 0.64416258 0.06976601
0.06979882 0.64192492 0.06979882
0.06984646 0.63891051 0.06984646
0.06990419 0.63502658 0.06990419
0.06997262 0.63003974 0.06997262
0.08963052 0.62572368 0.06977306
0.18636046 0.62799455 0.06695968
0.37265236 0.63512118 0.05916608
0.50567054 0.63454433 0.04924701
0.60973723 0.63028750 0.03862692
0.70055513 0.62295976 0.02803874
0.78274739 0.61370926 0.01939771
0.85716792 0.60313808 0.00356451
0.92460892 0.59221904 0.00000000
0.97773972 0.58134062 0.00000000
0.99788972 0.57097268 0.00000000
0.99798919 0.56099033 0.00000000
0.99656990 0.55126167 0.00092706
0.99482983 0.54187230 0.00298291
0.99369253 0.53313559 0.00533837
0.99241048 0.52496291 0.00797109
0.99112784 0.51718414 0.01021180
0.98901659 0.50991898 0.01732343
0.06817075 0.70660956 0.06817075
0.06817075 0.70660956 0.06817075
0.06817075 0.70660956 0.06817075
0.06817075 0.70660956 0.06817075
0.06817075 0.70660956 0.06817075
0.06817827 0.70644937 0.06817827
0.06821264 0.70555869 0.06821264
0.06824634 0.70463587 0.06824634
0.06828541 0.70360700 0.06828541
0.06833567 0.70227638 0.06833567
0.06839886 0.70058591 0.06839886
0.06847445 0.69838177 0.06847445
0.06857752 0.69543607 0.06857752
0.06870651 0.69169526 0.06870651
0.06886693 0.68705405 0.06886693
0.07430923 0.68174521 0.06895893
0.12564265 0.67990387 0.06678269
0.25835762 0.68500871 0.05777024
0.44219049 0.69087546 0.04408530
0.56040676 0.68925032 0.02933516
0.65979598 0.68364706 0.01498685
0.74750114 0.67574922 0.00416509
0.82590668 0.66641805 0.00000989
0.89472559 0.65652065 0.00000000
0.95590733 0.64656877 0.00000000
0.99699095 0.63713847 0.00000000
1.00034269 0.62818053 0.00000000
1.00038365 0.61950083 0.00000000
1.00038365 0.61107183 0.00000000
1.00038365 0.60292539 0.00000000
1.00038365 0.59509963 0.00000000
1.00038365 0.58784275 0.00000000
1.00023016 0.58132401 0.00002771
0.06537660 0.75912234 0.06537660
0.06537660 0.75912234 0.06537660
0.06537660 0.75912234 0.06537660
0.06537660 0.75912234 0.06537660
0.06537660 0.75912234 0.06537660
0.06538657 0.75897695 0.06538657
0.06544017 0.75816357 0.06544017
0.06549336 0.75732152 0.06549336
0.06555342 0.75638263 0.06555342
0.06563109 0.75516804 0.06563109
0.06572862 0.75362439 0.06572862
0.06585448 0.75160540 0.06585448
0.06602034 0.74891057 0.06602034
0.06622841 0.74542075 0.06622841
0.06649004 0.74088198 0.06649004
0.06681390 0.73501485 0.06681390
0.08495703 0.73001171 0.06594574
0.17636869 0.73287627 0.05754238
0.35596000 0.74209674 0.04142689
0.50183027 0.74455089 0.02246287
0.61191991 0.74031228 0.00568126
0.70618834 0.73277634 0.00000000
0.78762689 0.72394031 0.00000000
0.85929701 0.71511997 0.00000000
0.92332657 0.70630198 0.00000000
0.97822881 0.69757206 0.00000000
0.99958949 0.68909378 0.00000000
