LUT/WDR.cube
TITLE "WDR"
LUT_3D_SIZE 9
# Apple Log/Rec2020 -> LA - :FLog2C_to_WDR/LA - :FLog2C_to_WDR, CineEI Shift 0.00, Black Level -0.02% IRE, Input 109% -> Output 100% - Created with LUTCalc v4.09 by Ben Turley February 2025
0.00000000 0.00000000 0.00000000
0.00000000 0.00000000 0.00000000
0.12029613 0.01524558 0.01524558
0.27917158 0.03304502 0.03304502
0.52269471 0.05198621 0.05198621
0.78721948 0.06554575 0.06554575
0.84166310 0.06739717 0.06739717
0.84166310 0.06739717 0.06739717
0.84166310 0.06739717 0.06739717
0.00000000 0.00000000 0.00000000
0.00000000 0.00000000 0.00000000
0.12029613 0.01524558 0.01524558
0.27917158 0.03304502 0.03304502
0.52269471 0.05198621 0.05198621
0.78721948 0.06554575 0.06554575
0.84166310 0.06739717 0.06739717
0.84166310 0.06739717 0.06739717
0.84166310 0.06739717 0.06739717
0.01970640 0.09173383 0.01970640
0.01970640 0.09173383 0.01970640
0.08383110 0.08545705 0.02452602
0.26406452 0.06299166 0.03749115
0.50904195 0.05120468 0.05120468
0.77754781 0.06519931 0.06519931
0.84166310 0.06739717 0.06739717
0.84166310 0.06739717 0.06739717
0.84166310 0.06739717 0.06739717
0.04629711 0.23951319 0.04629711
0.04629711 0.23951319 0.04629711
0.04542810 0.23252667 0.04542810
0.22976881 0.23473295 0.05523375
0.51450174 0.19332588 0.06429182
0.75874089 0.08221056 0.06562285
0.84166310 0.06739717 0.06739717
0.84166310 0.06739717 0.06739717
0.84166310 0.06739717 0.06739717
0.06683940 0.46480242 0.06683940
0.06683940 0.46480242 0.06683940
0.06662112 0.46056340 0.06662112
0.06804266 0.44911182 0.06605969
0.44024829 0.45293641 0.06915385
0.77504053 0.41018546 0.06195167
0.93501270 0.34351981 0.05866513
0.91226427 0.26510481 0.06469465
0.89105390 0.19966353 0.06737567
0.06817075 0.70660956 0.06817075
0.06817075 0.70660956 0.06817075
0.06828541 0.70360700 0.06828541
0.06857752 0.69543607 0.06857752
0.12564265 0.67990387 0.06678269
0.65979598 0.68364706 0.01498685
0.95590733 0.64656877 0.00000000
1.00038365 0.61107183 0.00000000
1.00023016 0.58132401 0.00002771
0.04225575 0.90636421 0.04225575
0.04225575 0.90636421 0.04225575
0.04287422 0.90368000 0.04287422
0.04447251 0.89637971 0.04447251
0.04824036 0.87629312 0.04824036
0.43144846 0.88305922 0.00000000
0.82059324 0.85351439 0.00000000
0.99984918 0.82723913 0.00000000
1.00038365 0.80622201 0.00000000
0.02346406 0.98336041 0.02346406
0.02346406 0.98336041 0.02346406
0.02346406 0.98336041 0.02346406
0.02346406 0.98336041 0.02346406
0.02346406 0.98336041 0.02346406
0.09138562 0.98871640 0.01437244
0.68170846 0.99155272 0.00000000
0.93312147 0.97235206 0.00000000
1.00038365 0.95480737 0.00000000
0.02346406 0.98336041 0.02346406
0.02346406 0.98336041 0.02346406
0.02346406 0.98336041 0.02346406
0.02346406 0.98336041 0.02346406
0.02346406 0.98336041 0.02346406
0.02538606 0.98355254 0.02321852
0.54647634 1.00038365 0.00000000
0.84350374 1.00038365 0.00000000
1.00018525 1.00038365 0.00000000
0.00000000 0.00000000 0.00000000
0.00000000 0.00000000 0.00000000
0.12029613 0.01524558 0.01524558
0.27917158 0.03304502 0.03304502
0.52269471 0.05198621 0.05198621
0.78721948 0.06554575 0.06554575
0.84166310 0.06739717 0.06739717
0.84166310 0.06739717 0.06739717
0.84166310 0.06739717 0.06739717
0.00000000 0.00000000 0.00000000
0.00000000 0.00000000 0.00000000
0.12029613 0.01524558 0.01524558
0.27917158 0.03304502 0.03304502
0.52269471 0.05198621 0.05198621
0.78721948 0.06554575 0.06554575
0.84166310 0.06739717 0.06739717
0.84166310 0.06739717 0.06739717
0.84166310 0.06739717 0.06739717
0.01970640 0.09173383 0.01970640
0.01970640 0.09173383 0.01970640
0.08383110 0.08545705 0.02452602
0.26406452 0.06299166 0.03749115
0.50904195 0.05120468 0.05120468
0.77754781 0.06519931 0.06519931
0.84166310 0.06739717 0.06739717
0.84166310 0.06739717 0.06739717
0.84166310 0.06739717 0.06739717
0.04629711 0.23951319 0.04629711
0.04629711 0.23951319 0.04629711
0.04542810 0.23252667 0.04542810
0.22976881 0.23473295 0.05523375
0.51450174 0.19332588 0.06429182
0.75874089 0.08221056 0.06562285
0.84166310 0.06739717 0.06739717
0.84166310 0.06739717 0.06739717
0.84166310 0.06739717 0.06739717
0.06683940 0.46480242 0.06683940
0.06683940 0.46480242 0.06683940
0.06662112 0.46056340 0.06662112
0.06804266 0.44911182 0.06605969
0.44024829 0.45293641 0.06915385
0.77504053 0.41018546 0.06195167
0.93501270 0.34351981 0.05866513
0.91226427 0.26510481 0.06469465
0.89105390 0.19966353 0.06737567
0.06817075 0.70660956 0.06817075
0.06817075 0.70660956 0.06817075
0.06828541 0.70360700 0.06828541
0.06857752 0.69543607 0.06857752
0.12564265 0.67990387 0.06678269
0.65979598 0.68364706 0.01498685
0.95590733 0.64656877 0.00000000
1.00038365 0.61107183 0.00000000
1.00023016 0.58132401 0.00002771
0.04225575 0.90636421 0.04225575
0.04225575 0.90636421 0.04225575
0.04287422 0.90368000 0.04287422
0.04447251 0.89637971 0.04447251
0.04824036 0.87629312 0.04824036
0.43144846 0.88305922 0.00000000
0.82059324 0.85351439 0.00000000
0.99984918 0.82723913 0.00000000
1.00038365 0.80622201 0.00000000
0.02346406 0.98336041 0.02346406
0.02346406 0.98336041 0.02346406
0.02346406 0.98336041 0.02346406
0.02346406 0.98336041 0.02346406
0.02346406 0.98336041 0.02346406
0.09138562 0.98871640 0.01437244
0.68170846 0.99155272 0.00000000
0.93312147 0.97235206 0.00000000
1.00038365 0.95480737 0.00000000
0.02346406 0.98336041 0.02346406
0.02346406 0.98336041 0.02346406
0.02346406 0.98336041 0.02346406
0.02346406 0.98336041 0.02346406
0.02346406 0.98336041 0.02346406
0.02538606 0.98355254 0.02321852
0.54647634 1.00038365 0.00000000
0.84350374 1.00038365 0.00000000
1.00018525 1.00038365 0.00000000
0.00305879 0.00305879 0.06665074
0.00305879 0.00305879 0.06665074
0.12170678 0.01790924 0.08076424
0.28162292 0.03612848 0.09810410
0.52688327 0.05353766 0.11552574
0.79131677 0.06637612 0.12015983
0.84518746 0.06794817 0.11110696
0.84443595 0.06783746 0.10126942
0.84389356 0.06775415 0.09415921
0.00305879 0.00305879 0.06665074
0.00305879 0.00305879 0.06665074
0.12170678 0.01790924 0.08076424
0.28162292 0.03612848 0.09810410
0.52688327 0.05353766 0.11552574
0.79131677 0.06637612 0.12015983
0.84518746 0.06794817 0.11110696
0.84443595 0.06783746 0.10126942
0.84389356 0.06775415 0.09415921
0.02073200 0.08591439 0.07703408
0.02073200 0.08591439 0.07703408
0.07930208 0.07930208 0.07930208
0.26385909 0.05583565 0.09202322
0.51259665 0.05253199 0.10546987
0.78088395 0.06591813 0.11047113
0.84441584 0.06783643 0.10114439
0.84369211 0.06772495 0.09172752
0.84315517 0.06764029 0.08500665
0.04683798 0.23718380 0.08304037
0.04683798 0.23718380 0.08304037
0.04594087 0.23004395 0.08114049
0.22899568 0.23135761 0.09060136
0.51384483 0.18761111 0.09338850
0.75849243 0.07863454 0.08489020
0.84262901 0.06755464 0.07867149
0.84220788 0.06748606 0.07362640
0.84207122 0.06746398 0.07205344
0.06670597 0.46219795 0.06670597
0.06670597 0.46219795 0.06670597
0.06648181 0.45791785 0.06648181
0.06771709 0.44635338 0.06589629
0.43903158 0.45001103 0.06921327
0.77388081 0.40693499 0.06232740
0.93393077 0.33980076 0.05915214
0.91045842 0.25937374 0.06499764
0.88981154 0.19645900 0.06767525
0.06824136 0.70476281 0.06824136
0.06824136 0.70476281 0.06824136
0.06835484 0.70174152 0.06835484
0.06864265 0.69352431 0.06864265
0.12442042 0.67788474 0.06700029
0.65907197 0.68166969 0.01544944
0.95545089 0.64451186 0.00000000
1.00038365 0.60882959 0.00000000
0.99994636 0.57907343 0.00000000
0.04263826 0.90471331 0.04263826
0.04263826 0.90471331 0.04263826
0.04325038 0.90201044 0.04325038
0.04483641 0.89465775 0.04483641
0.04855168 0.87460015 0.04855168
0.43037654 0.88157696 0.00000000
0.82009225 0.85197723 0.00000000
0.99983569 0.82567608 0.00000000
1.00038365 0.80454788 0.00000000
0.02346406 0.98336041 0.02346406
0.02346406 0.98336041 0.02346406
0.02346406 0.98336041 0.02346406
0.02346406 0.98336041 0.02346406
0.02346406 0.98336041 0.02346406
0.09082095 0.98864592 0.01440491
0.68110497 0.99076460 0.00000000
0.93269085 0.97100255 0.00000000
1.00038365 0.95336483 0.00000000
0.02346406 0.98336041 0.02346406
0.02346406 0.98336041 0.02346406
0.02346406 0.98336041 0.02346406
0.02346406 0.98336041 0.02346406
0.02346406 0.98336041 0.02346406
0.02536351 0.98355254 0.02321852
0.54570931 1.00038365 0.00000000
0.84299855 1.00038365 0.00000000
1.00010633 1.00038365 0.00000000
0.00988068 0.00988068 0.18068888
0.00988068 0.00988068 0.18068888
0.12185612 0.02230891 0.19320028
0.28560475 0.04097088 0.21234990
0.53427390 0.05658034 0.23724298
0.80075639 0.06810070 0.25228616
0.85666037 0.06920451 0.25001735
0.85628136 0.06917207 0.24526845
0.85598214 0.06914662 0.24158184
0.00988068 0.00988068 0.18068888
0.00988068 0.00988068 0.18068888
0.12185612 0.02230891 0.19320028
0.28560475 0.04097088 0.21234990
0.53427390 0.05658034 0.23724298
0.80075639 0.06810070 0.25228616
0.85666037 0.06920451 0.25001735
0.85628136 0.06917207 0.24526845
0.85598214 0.06914662 0.24158184
0.02094856 0.06409945 0.18856836
0.02094856 0.06409945 0.18856836
0.07430682 0.05474691 0.19162996
0.26415722 0.04680386 0.20740070
0.52035336 0.05569445 0.23189342
0.79087001 0.06779736 0.24718514
0.85628727 0.06917314 0.24535479
0.85589860 0.06913991 0.24056016
0.85559109 0.06911339 0.23682102
0.04897034 0.23209074 0.21333143
0.04897034 0.23209074 0.21333143
0.04809321 0.22460270 0.21125017
0.22474585 0.22474585 0.22474585
0.51543743 0.17304319 0.23632358
0.76563854 0.07214462 0.23417008
0.85524786 0.06908349 0.23269121
0.85483081 0.06904236 0.22763421
0.85449920 0.06900966 0.22351928
0.06795212 0.46185725 0.20934033
0.06795212 0.46185725 0.20934033
0.06777384 0.45750187 0.20836450
0.06832641 0.44562488 0.20579939
0.43960072 0.44598982 0.21288269
0.77711130 0.39943358 0.20426687
0.93941359 0.32878830 0.19408135
0.91356589 0.24433941 0.18890874
0.89475347 0.18780726 0.18330639
0.06779245 0.70241141 0.13089724
0.06779245 0.70241141 0.13089724
0.06794997 0.69932372 0.13018682
0.06829688 0.69101600 0.12820530
0.12086544 0.67462785 0.12146327
0.65752508 0.67682573 0.06550034
0.95423282 0.63893876 0.03704869
1.00038365 0.60275729 0.03246317
0.99996775 0.57285553 0.03182196
0.04354106 0.90036853 0.04527085
0.04354106 0.90036853 0.04527085
0.04414527 0.89761021 0.04578217
0.04567555 0.89009669 0.04699325
0.04934936 0.87008418 0.05017990
0.42750405 0.87755950 0.00000000
0.81874797 0.84781261 0.00000000
0.99977323 0.82144651 0.00000000
1.00038365 0.80006467 0.00000000
0.02346406 0.98336041 0.02346406
0.02346406 0.98336041 0.02346406
0.02346406 0.98336041 0.02346406
0.02346406 0.98336041 0.02346406
0.02347179 0.98332733 0.02347179
0.08918633 0.98831922 0.01455362
0.67948201 0.98803642 0.00000000
0.93154279 0.96759371 0.00000000
1.00038365 0.94963685 0.00000000
0.02346406 0.98336041 0.02346406
0.02346406 0.98336041 0.02346406
0.02346406 0.98336041 0.02346406
0.02346406 0.98336041 0.02346406
0.02346406 0.98336041 0.02346406
0.02531697 0.98355254 0.02321852
0.54363935 1.00038365 0.00000000
0.84165644 1.00038365 0.00000000
0.99979142 1.00038365 0.00000000
0.01730144 0.01730144 0.33957628
0.01730144 0.01730144 0.33957628
0.11449526 0.02809788 0.35076496
0.28814118 0.04570218 0.37570191
0.54195613 0.06036116 0.41164821
0.81118542 0.06946197 0.43764126
0.87058169 0.07008445 0.43972235
0.87040356 0.07007642 0.43708735
0.87026291 0.07006974 0.43502152
0.01730144 0.01730144 0.33957628
0.01730144 0.01730144 0.33957628
0.11449526 0.02809788 0.35076496
0.28814118 0.04570218 0.37570191
0.54195613 0.06036116 0.41164821
0.81118542 0.06946197 0.43764126
0.87058169 0.07008445 0.43972235
0.87040356 0.07007642 0.43708735
0.87026291 0.07006974 0.43502152
0.01782594 0.02015513 0.33814091
0.01782594 0.02015513 0.33814091
0.05253745 0.02120724 0.34172551
0.26348475 0.04390517 0.36926595
0.52813222 0.05959864 0.40746347
0.80163951 0.06932806 0.43425828
0.87040692 0.07007666 0.43711744
0.87022673 0.07006842 0.43449352
0.87008541 0.07006203 0.43246841
0.04934361 0.20316255 0.37796453
0.04934361 0.20316255 0.37796453
0.04831213 0.19439577 0.37515014
0.21698176 0.18729077 0.39489917
0.50464979 0.11719179 0.41046848
0.77447639 0.06885660 0.42497344
0.86992153 0.07005467 0.43011859
0.86973726 0.07004617 0.42745450
0.86959278 0.07003921 0.42533761
0.06886200 0.45114109 0.41548878
0.06886200 0.45114109 0.41548878
0.06872734 0.44659573 0.41449885
0.06846837 0.43415721 0.41175358
0.43094543 0.43094543 0.43094543
0.77882972 0.37577595 0.43946506
0.94557809 0.29788532 0.43548714
0.91602841 0.20585763 0.42526051
0.89991591 0.15822595 0.41826558
0.06443754 0.69958493 0.40651784
0.06443754 0.69958493 0.40651784
0.06477034 0.69640822 0.40604245
0.06548054 0.68815904 0.40471506
0.10825305 0.67009111 0.40258354
0.65425075 0.66429263 0.38877478
0.95095396 0.62364014 0.38182658
1.00038365 0.58597981 0.37790488
1.00038365 0.55535850 0.37479808
0.02698134 0.90489599 0.35768408
0.02698134 0.90489599 0.35768408
0.02770492 0.90216316 0.35756253
0.02964193 0.89472647 0.35721624
0.03487526 0.87442579 0.35619363
0.41964217 0.86650360 0.33719129
0.81505389 0.83610139 0.33212823
0.99959477 0.80956153 0.32757722
1.00038365 0.78800616 0.32391360
0.00429353 0.99862619 0.30060124
0.00429353 0.99862619 0.30060124
0.00432605 0.99861270 0.30018165
0.00441591 0.99857546 0.29902756
0.00478900 0.99827894 0.29613242
0.07082141 0.99546918 0.29041433
0.67504037 0.98038584 0.28194511
0.92839436 0.95745814 0.27667785
1.00038365 0.93970177 0.27228060
0.00766028 0.99741186 0.25864191
0.00766028 0.99741186 0.25864191
0.00770021 0.99739213 0.25811522
0.00781215 0.99733588 0.25664971
0.00809057 0.99719077 0.25297431
0.01112810 0.99686991 0.24610876
0.53799352 1.00038365 0.23271958
0.83797720 1.00038365 0.22583969
0.99882116 1.00038365 0.22011326
0.02455652 0.02455652 0.50419913
0.02455652 0.02455652 0.50419913
0.09215492 0.03261006 0.51234373
0.28562448 0.04941777 0.54792833
0.54618441 0.06372827 0.59171568
0.81924652 0.07014592 0.62683803
0.88393556 0.07036970 0.63186753
0.88381956 0.07037001 0.63019996
0.88372858 0.07037015 0.62889443
0.02455652 0.02455652 0.50419913
0.02455652 0.02455652 0.50419913
0.09215492 0.03261006 0.51234373
0.28562448 0.04941777 0.54792833
0.54618441 0.06372827 0.59171568
0.81924652 0.07014592 0.62683803
0.88393556 0.07036970 0.63186753
0.88381956 0.07037001 0.63019996
0.88372858 0.07037015 0.62889443
0.02448981 0.02448981 0.50277011
0.02448981 0.02448981 0.50277011
0.03239031 0.02545871 0.50366131
0.25939428 0.04775240 0.54106270
0.53211265 0.06308464 0.58795930
0.80954216 0.07008504 0.62408227
0.88381995 0.07037003 0.63020249
0.88370348 0.07037026 0.62852570
0.88361250 0.07037037 0.62721312
0.04440991 0.13414853 0.52960250
0.04440991 0.13414853 0.52960250
0.04256326 0.12150362 0.52550370
0.18818725 0.10161187 0.54262385
0.49349520 0.06812904 0.57943177
0.78236569 0.06986472 0.61642967
0.88350432 0.07037021 0.62565011
0.88338669 0.07037035 0.62394804
0.88329462 0.07037038 0.62261555
0.06912034 0.42379580 0.60501156
0.06912034 0.42379580 0.60501156
0.06900244 0.41892856 0.60372673
0.06856621 0.40553789 0.60011921
0.42577594 0.39431003 0.63317188
0.77200246 0.33079610 0.64919304
0.93788398 0.23039182 0.64400863
0.91546769 0.16438622 0.63051078
0.89415034 0.10456464 0.61685327
0.06115834 0.68523282 0.62967991
0.06115834 0.68523282 0.62967991
0.06155517 0.68214512 0.62909682
0.06260239 0.67381180 0.62750763
0.09391281 0.65305352 0.62549109
0.64166778 0.64166778 0.64166778
0.94610821 0.59736703 0.64185999
1.00038365 0.55843150 0.63976686
1.00038365 0.52547484 0.63813366
0.01647825 0.89617932 0.62190736
0.01647825 0.89617932 0.62190736
0.01714382 0.89335576 0.62163077
0.01892804 0.88581895 0.62086654
0.02420311 0.86554901 0.61866039
0.40683993 0.84850332 0.61764153
0.80897787 0.81759786 0.61499176
0.99923842 0.79002474 0.61271563
1.00038365 0.76780658 0.61092849
0.00000000 1.00033818 0.59815391
0.00000000 1.00033818 0.59815391
0.00000000 1.00028723 0.59792056
0.00000000 0.99990241 0.59729607
0.00000000 0.99950081 0.59559977
0.05654869 0.98845325 0.59284316
0.66769660 0.96443309 0.59001682
0.92327014 0.94137415 0.58761235
1.00038365 0.92317847 0.58580770
0.00000000 1.00038365 0.57855446
0.00000000 1.00038365 0.57855446
0.00000000 1.00038365 0.57832481
0.00000000 1.00038365 0.57770994
0.00000000 1.00038365 0.57604263
0.00000378 1.00038365 0.57330894
0.52854383 1.00038365 0.57047974
0.83211250 1.00038365 0.56804808
0.99814579 1.00032685 0.56613871
0.03034385 0.03034385 0.62508958
0.03034385 0.03034385 0.62508958
0.06705201 0.03499925 0.63065415
0.27956387 0.05185104 0.67625926
0.54693990 0.06570919 0.72828555
0.82345257 0.07032460 0.76966437
0.89335359 0.07018689 0.77742859
0.89326847 0.07018973 0.77604555
0.89320178 0.07019266 0.77496049
0.03034385 0.03034385 0.62508958
0.03034385 0.03034385 0.62508958
0.06705201 0.03499925 0.63065415
0.27956387 0.05185104 0.67625926
0.54693990 0.06570919 0.72828555
0.82345257 0.07032460 0.76966437
0.89335359 0.07018689 0.77742859
0.89326847 0.07018973 0.77604555
0.89320178 0.07019266 0.77496049
0.03028833 0.03028833 0.62398024
0.03028833 0.03028833 0.62398024
0.03028287 0.03028287 0.62387220
0.25143907 0.05010871 0.66894763
0.53261874 0.06515602 0.72442472
0.81341276 0.07031647 0.76689695
0.89326923 0.07019043 0.77604032
0.89318376 0.07019329 0.77465043
0.89311703 0.07019578 0.77356058
0.03644012 0.06052893 0.63067907
0.03644012 0.06052893 0.63067907
0.03495046 0.05194554 0.62685250
0.16111801 0.04583306 0.64513705
0.49167798 0.06337271 0.71339936
0.78632480 0.07024037 0.75941345
0.89303756 0.07019888 0.77224986
0.89295125 0.07020184 0.77084222
0.89288431 0.07020434 0.76973795
0.06885223 0.39094422 0.74035123
0.06885223 0.39094422 0.74035123
0.06869428 0.38556463 0.73872424
0.06815823 0.37052672 0.73414244
0.41329995 0.35363519 0.77453537
0.76013902 0.27636628 0.79549635
0.92966489 0.18025699 0.79174201
0.90540735 0.10739072 0.77102327
0.89915897 0.09168342 0.76514512
0.05978171 0.66711392 0.78692857
0.05978171 0.66711392 0.78692857
0.06020106 0.66387171 0.78618040
0.06131215 0.65504614 0.78414290
0.09023105 0.63314927 0.78226576
0.63871980 0.61443226 0.82388839
0.94109343 0.56946251 0.82198340
1.00038365 0.52784383 0.82034490
1.00038365 0.49333333 0.81905826
0.01081653 0.88198745 0.80376375
0.01081653 0.88198745 0.80376375
0.01168815 0.87920914 0.80329076
0.01377979 0.87180133 0.80201442
0.01888258 0.85130984 0.79840299
0.39265668 0.82940816 0.80298157
0.79886275 0.79886275 0.79886275
0.99909367 0.76953058 0.79914441
1.00038365 0.74680224 0.79784249
0.00000000 0.99960402 0.78880426
0.00000000 0.99960402 0.78880426
0.00000000 0.99957986 0.78863871
0.00000000 0.99946267 0.78819506
0.00000000 0.99589156 0.78698800
0.05009472 0.97462735 0.78502116
0.66002217 0.94770898 0.78299648
0.91791191 0.92452230 0.78125343
1.00038365 0.90588421 0.77988675
0.00000000 1.00038365 0.77437136
0.00000000 1.00038365 0.77437136
0.00000000 1.00038365 0.77419636
0.00000000 1.00038365 0.77372752
0.00000000 1.00038365 0.77245407
0.00000293 1.00038365 0.77037870
0.51873117 1.00038365 0.76824405
0.82625002 1.00032495 0.76640749
0.99696251 0.99956075 0.76496596
0.03459575 0.03459575 0.71032723
0.03459575 0.03459575 0.71032723
0.04685954 0.03628598 0.71338396
0.27231836 0.05341467 0.76738837
0.54601096 0.06686297 0.82519269
0.82542324 0.07027492 0.87196430
0.89962585 0.06985872 0.88151482
0.89957339 0.06986254 0.88066665
0.89952279 0.06986548 0.87983747
0.03459575 0.03459575 0.71032723
0.03459575 0.03459575 0.71032723
0.04685954 0.03628598 0.71338396
0.27231836 0.05341467 0.76738837
0.54601096 0.06686297 0.82519269
0.82542324 0.07027492 0.87196430
0.89962585 0.06985872 0.88151482
0.89957339 0.06986254 0.88066665
0.89952279 0.06986548 0.87983747
0.03456176 0.03456176 0.70965184
0.03456176 0.03456176 0.70965184
0.03455869 0.03455869 0.70958626
0.24277783 0.05157590 0.75956246
0.53152425 0.06639317 0.82164590
0.81527019 0.07030142 0.86968660
0.89957706 0.06986203 0.88071748
0.89950752 0.06986636 0.87957286
0.89945290 0.06987033 0.87866722
0.03445461 0.03445461 0.70754459
0.03445461 0.03445461 0.70754459
0.03445147 0.03445147 0.70747840
0.14418073 0.04513714 0.73191998
0.49001919 0.06478482 0.81115922
0.78810864 0.07032352 0.86258537
0.89938753 0.06987454 0.87758028
0.89931700 0.06987947 0.87640175
0.89926187 0.06988300 0.87548184
0.06826692 0.35835476 0.83217342
0.06826692 0.35835476 0.83217342
0.06805431 0.35295208 0.83015610
0.06733739 0.33764787 0.82463228
0.40107853 0.31367701 0.86869179
0.74472838 0.21281080 0.88920905
0.92169618 0.13567099 0.89044266
0.90689132 0.09297220 0.87513646
0.90213470 0.07978260 0.86986466
0.05920485 0.64959353 0.89675460
0.05920485 0.64959353 0.89675460
0.05963985 0.64619582 0.89583962
0.06079337 0.63731934 0.89337032
0.08746778 0.61484503 0.89093977
0.63210934 0.59090192 0.94845942
0.93665888 0.54423906 0.94685420
1.00038365 0.50083617 0.94547393
1.00038365 0.46363608 0.94439261
0.00692411 0.86846031 0.93049718
0.00692411 0.86846031 0.93049718
0.00801504 0.86559164 0.92988271
0.01075486 0.85792707 0.92826147
0.01643580 0.83725397 0.92365357
0.38045676 0.81306092 0.93077607
0.79723747 0.78063910 0.92911447
0.99900960 0.75153934 0.92769048
1.00038365 0.72808973 0.92658079
0.00000000 0.99937120 0.91866772
0.00000000 0.99937120 0.91866772
0.00000000 0.99934208 0.91852154
0.00000000 0.99760035 0.91813350
0.00000000 0.98599478 0.91707052
0.04566767 0.96051215 0.91533691
0.65327012 0.93341788 0.91354846
0.91056548 0.91056548 0.91056548
1.00038365 0.89093180 0.91080931
0.00000000 1.00038365 0.90638148
0.00000000 1.00038365 0.90638148
0.00000000 1.00038365 0.90624059
0.00000000 1.00038365 0.90586396
0.00000000 1.00038365 0.90483658
0.00000143 1.00038365 0.90316473
0.50997415 1.00037585 0.90144498
0.82116343 1.00005150 0.89996209
0.99545675 0.99698952 0.89880188
0.03527702 0.03527702 0.72346072
0.03527702 0.03527702 0.72346072
0.04458341 0.03650517 0.72522617
0.26304099 0.05319010 0.77999638
0.54186498 0.06692630 0.84043860
0.82306085 0.07026533 0.88934535
0.90074464 0.06978199 0.90074464
0.90074464 0.06978199 0.90074464
0.90074464 0.06978199 0.90074464
0.03527702 0.03527702 0.72346072
0.03527702 0.03527702 0.72346072
0.04458341 0.03650517 0.72522617
0.26304099 0.05319010 0.77999638
0.54186498 0.06692630 0.84043860
0.82306085 0.07026533 0.88934535
0.90074464 0.06978199 0.90074464
0.90074464 0.06978199 0.90074464
0.90074464 0.06978199 0.90074464
0.03527702 0.03527702 0.72346072
0.03527702 0.03527702 0.72346072
0.03527702 0.03527702 0.72346072
0.23310056 0.05128960 0.77232403
0.52736479 0.06646540 0.83754044
0.81301926 0.07029407 0.88782312
0.90074464 0.06978199 0.90074464
0.90074464 0.06978199 0.90074464
0.90074464 0.06978199 0.90074464
0.03527702 0.03527702 0.72346072
0.03527702 0.03527702 0.72346072
0.03527702 0.03527702 0.72346072
0.12790028 0.04434897 0.74488615
0.48550009 0.06488932 0.82920382
0.78579881 0.07032731 0.88348450
0.90074464 0.06978199 0.90074464
0.90074464 0.06978199 0.90074464
0.90074464 0.06978199 0.90074464
0.06708237 0.33000096 0.84883884
0.06708237 0.33000096 0.84883884
0.06677346 0.32351565 0.84665088
0.06573393 0.30512310 0.84026913
0.38895678 0.27750895 0.88501015
0.73613196 0.18648932 0.91183435
0.91255129 0.10242642 0.91259890
0.90602519 0.08567481 0.90602519
0.90074464 0.06978199 0.90074464
0.06002388 0.63448634 0.93785404
0.06002388 0.63448634 0.93785404
0.06045937 0.63116888 0.93695942
0.06161200 0.62218347 0.93449651
0.08630315 0.59845225 0.93214257
0.62689958 0.57280679 0.99920795
0.93305157 0.52376123 1.00036504
1.00038365 0.47822224 1.00034619
1.00038365 0.43918329 1.00033685
0.00663845 0.85634969 0.99841074
0.00663845 0.85634969 0.99841074
0.00773638 0.85355873 0.99759508
0.01052465 0.84600052 0.99631350
0.01629341 0.82506045 0.99059489
0.37032159 0.79978359 1.00030771
0.79322064 0.76666555 1.00030356
0.99826744 0.73732780 1.00029914
1.00038365 0.71307296 1.00028086
0.00000000 0.99440814 0.99872610
0.00000000 0.99440814 0.99872610
0.00000000 0.99296663 0.99871449
0.00000000 0.98898954 0.99868037
0.00000000 0.97580819 0.99857133
0.04206892 0.94936090 0.99835019
0.64791092 0.92228776 0.99808385
0.90952280 0.89831054 0.99783097
1.00038365 0.87901860 0.99761473
0.00000000 1.00038365 0.99662379
0.00000000 1.00038365 0.99662379
0.00000000 1.00038365 0.99659019
0.00000000 1.00038365 0.99649226
0.00000000 1.00038365 0.99618460
0.00000031 1.00038365 0.99553701
0.50302331 1.00032725 0.99350953
0.81715357 0.99832367 0.99135651
0.98820824 0.98820824 0.98820824
