LUT/WDR.cube
TITLE "WDR"
LUT_3D_SIZE 5
# Apple Log/Rec2020 -> LA - :FLog2C_to_WDR/LA - :FLog2C_to_WDR, CineEI Shift 0.00, Black Level -0.02% IRE, Input 109% -> Output 100% - Created with LUTCalc v4.09 by Ben Turley February 2025
0.00000000 0.00000000 0.00000000
0.12029613 0.01524558 0.01524558
0.52269471 0.05198621 0.05198621
0.84166310 0.06739717 0.06739717
0.84166310 0.06739717 0.06739717
0.01970640 0.09173383 0.01970640
0.08383110 0.08545705 0.02452602
0.50904195 0.05120468 0.05120468
0.84166310 0.06739717 0.06739717
0.84166310 0.06739717 0.06739717
0.06683940 0.46480242 0.06683940
0.06662112 0.46056340 0.06662112
0.44024829 0.45293641 0.06915385
0.93501270 0.34351981 0.05866513
0.89105390 0.19966353 0.06737567
0.04225575 0.90636421 0.04225575
0.04287422 0.90368000 0.04287422
0.04824036 0.87629312 0.04824036
0.82059324 0.85351439 0.00000000
1.00038365 0.80622201 0.00000000
0.02346406 0.98336041 0.02346406
0.02346406 0.98336041 0.02346406
0.02346406 0.98336041 0.02346406
0.54647634 1.00038365 0.00000000
1.00018525 1.00038365 0.00000000
0.00305879 0.00305879 0.06665074
0.12170678 0.01790924 0.08076424
0.52688327 0.05353766 0.11552574
0.84518746 0.06794817 0.11110696
0.84389356 0.06775415 0.09415921
0.02073200 0.08591439 0.07703408
0.07930208 0.07930208 0.07930208
0.51259665 0.05253199 0.10546987
0.84441584 0.06783643 0.10114439
0.84315517 0.06764029 0.08500665
0.06670597 0.46219795 0.06670597
0.06648181 0.45791785 0.06648181
0.43903158 0.45001103 0.06921327
0.93393077 0.33980076 0.05915214
0.88981154 0.19645900 0.06767525
0.04263826 0.90471331 0.04263826
0.04325038 0.90201044 0.04325038
0.04855168 0.87460015 0.04855168
0.82009225 0.85197723 0.00000000
1.00038365 0.80454788 0.00000000
0.02346406 0.98336041 0.02346406
0.02346406 0.98336041 0.02346406
0.02346406 0.98336041 0.02346406
0.54570931 1.00038365 0.00000000
1.00010633 1.00038365 0.00000000
0.01730144 0.01730144 0.33957628
0.11449526 0.02809788 0.35076496
0.54195613 0.06036116 0.41164821
0.87058169 0.07008445 0.43972235
0.87026291 0.07006974 0.43502152
0.01782594 0.02015513 0.33814091
0.05253745 0.02120724 0.34172551
0.52813222 0.05959864 0.40746347
0.87040692 0.07007666 0.43711744
0.87008541 0.07006203 0.43246841
0.06886200 0.45114109 0.41548878
0.06872734 0.44659573 0.41449885
0.43094543 0.43094543 0.43094543
0.94557809 0.29788532 0.43548714
0.89991591 0.15822595 0.41826558
0.02698134 0.90489599 0.35768408
0.02770492 0.90216316 0.35756253
0.03487526 0.87442579 0.35619363
0.81505389 0.83610139 0.33212823
1.00038365 0.78800616 0.32391360
0.00766028 0.99741186 0.25864191
0.00770021 0.99739213 0.25811522
0.00809057 0.99719077 0.25297431
0.53799352 1.00038365 0.23271958
0.99882116 1.00038365 0.22011326
0.03034385 0.03034385 0.62508958
0.06705201 0.03499925 0.63065415
0.54693990 0.06570919 0.72828555
0.89335359 0.07018689 0.77742859
0.89320178 0.07019266 0.77496049
0.03028833 0.03028833 0.62398024
0.03028287 0.03028287 0.62387220
0.53261874 0.06515602 0.72442472
0.89326923 0.07019043 0.77604032
0.89311703 0.07019578 0.77356058
0.06885223 0.39094422 0.74035123
0.06869428 0.38556463 0.73872424
0.41329995 0.35363519 0.77453537
0.92966489 0.18025699 0.79174201
0.89915897 0.09168342 0.76514512
0.01081653 0.88198745 0.80376375
0.01168815 0.87920914 0.80329076
0.01888258 0.85130984 0.79840299
0.79886275 0.79886275 0.79886275
1.00038365 0.74680224 0.79784249
0.00000000 1.00038365 0.77437136
0.00000000 1.00038365 0.77419636
0.00000000 1.00038365 0.77245407
0.51873117 1.00038365 0.76824405
0.99696251 0.99956075 0.76496596
0.03527702 0.03527702 0.72346072
0.04458341 0.03650517 0.72522617
0.54186498 0.06692630 0.84043860
0.90074464 0.06978199 0.90074464
0.90074464 0.06978199 0.90074464
0.03527702 0.03527702 0.72346072
0.03527702 0.03527702 0.72346072
0.52736479 0.06646540 0.83754044
0.90074464 0.06978199 0.90074464
0.90074464 0.06978199 0.90074464
0.06708237 0.33000096 0.84883884
0.06677346 0.32351565 0.84665088
0.38895678 0.27750895 0.88501015
0.91255129 0.10242642 0.91259890
0.90074464 0.06978199 0.90074464
0.00663845 0.85634969 0.99841074
0.00773638 0.85355873 0.99759508
0.01629341 0.82506045 0.99059489
0.79322064 0.76666555 1.00030356
1.00038365 0.71307296 1.00028086
0.00000000 1.00038365 0.99662379
0.00000000 1.00038365 0.99659019
0.00000000 1.00038365 0.99618460
0.50302331 1.00032725 0.99350953
0.98820824 0.98820824 0.98820824
